AmanSinghal927/deep-deterministic-policy-gradient-DDPG-/policy/exp_local/2024.03.31_rl/140027/train.csv
actor_ent,actor_logprob,actor_loss,batch_reward,buffer_size,critic_loss,critic_target_q,episode,episode_length,episode_reward,fps,frame,step,total_time
0.4299314022064209,-0.43105088114738466,0.036025426862761376,-2.405033712387085,550.0,5.548506889343262,0.005692034717649222,11.0,50.0,-40.00252797616102,1.3851081142840476,550,550.0,36.098265171051025
0.4299314022064209,-0.43409743428230285,0.12864248871803283,-2.4063368225097657,600.0,4.999720325469971,-0.011616398677579126,12.0,50.0,-35.62733847388599,15.486547323295943,600,600.0,39.326873779296875
0.4299314022064209,-0.415053094625473,0.25594862520694733,-2.3866019153594973,650.0,4.305607891082763,-0.044300477430224416,13.0,50.0,-38.4830167982926,15.072668426478595,650,650.0,42.64413642883301
0.4299314022064209,-0.4169155192375183,0.44454699993133545,-2.375704622268677,700.0,3.5030135917663574,-0.09426228791475295,14.0,50.0,-37.320891531990405,17.95230187128696,700,700.0,45.42929458618164
0.4299314022064209,-0.4295007383823395,0.7013704299926757,-2.3694463539123536,750.0,2.634483995437622,-0.16816318154335022,15.0,50.0,-34.56601987183689,19.337526115755242,750,750.0,48.01494073867798
0.4299314022064209,-0.42373099803924563,1.0370342230796814,-2.344587802886963,800.0,1.7465492391586304,-0.27595848381519317,16.0,50.0,-39.23422777566967,17.849818748526452,800,800.0,50.81608963012695
0.4299314022064209,-0.42431718230247495,1.4186618375778197,-2.348263635635376,850.0,1.1378553700447083,-0.42148054838180543,17.0,50.0,-46.9724979314043,19.130238381799476,850,850.0,53.429752826690674
0.4299314022064209,-0.4445215904712677,1.8331865930557252,-2.354081811904907,900.0,0.7103017795085907,-0.6069450187683105,18.0,50.0,-36.6717309023405,20.2956779823242,900,900.0,55.89333152770996
0.4299314022064209,-0.44742918372154233,2.2266215562820433,-2.360922317504883,950.0,0.4999687123298645,-0.8308590531349183,19.0,50.0,-33.57683417637345,25.7525031043209,950,950.0,57.834890365600586
0.4299314022064209,-0.445040180683136,2.591617431640625,-2.3391112232208253,1000.0,0.41546480655670165,-1.1053010964393615,20.0,50.0,-40.559740014375066,29.106833350543567,1000,1000.0,59.55270004272461
0.4299314022064209,-0.42844772577285767,2.8916281032562257,-2.3387731742858886,1050.0,0.40436051368713377,-1.389034733772278,21.0,50.0,-37.60924948240868,11.552295660926303,1050,1050.0,63.88084411621094
0.4299314022064209,-0.40778430342674254,3.201748752593994,-2.3374155521392823,1100.0,0.39736734867095946,-1.6808599710464478,22.0,50.0,-34.3885431641982,34.81773068602727,1100,1100.0,65.31689405441284
0.4299314022064209,-0.4287086272239685,3.548837251663208,-2.3285771942138673,1150.0,0.38755490064620973,-1.9982890462875367,23.0,50.0,-43.35865205544674,34.76287289264322,1150,1150.0,66.7552101612091
0.4299314022064209,-0.41035757184028626,3.8861671257019044,-2.3275469303131104,1200.0,0.3928387415409088,-2.310943956375122,24.0,50.0,-43.07563665591867,36.381691048323944,1200,1200.0,68.12952780723572
0.4299314022064209,-0.41840025067329406,4.225706214904785,-2.3391206645965577,1250.0,0.4217978525161743,-2.6292598628997803,25.0,50.0,-46.0446618419508,36.614208146376384,1250,1250.0,69.49511790275574
0.4299314022064209,-0.4140628480911255,4.603148651123047,-2.352927646636963,1300.0,0.44458635687828063,-2.952111883163452,26.0,50.0,-39.355485543699615,37.13511900703958,1300,1300.0,70.84155225753784
0.4299314022064209,-0.43908089756965635,4.991063995361328,-2.3604874134063722,1350.0,0.4339259147644043,-3.2947430419921875,27.0,50.0,-42.79939298423898,39.16664939126141,1350,1350.0,72.11814856529236
0.4299314022064209,-0.42619089484214784,5.387835998535156,-2.357393751144409,1400.0,0.4108347284793854,-3.6613357925415038,28.0,50.0,-45.76874101465635,31.596467177386465,1400,1400.0,73.70060396194458
0.4299314022064209,-0.4307192587852478,5.778610820770264,-2.3719335651397704,1450.0,0.41912098169326784,-4.016619615554809,29.0,50.0,-47.20482153742342,33.7240342149511,1450,1450.0,75.18322610855103
0.4299314022064209,-0.4249518275260925,6.189281997680664,-2.3804041004180907,1500.0,0.3853823697566986,-4.3850588035583495,30.0,50.0,-42.727918748093366,34.093324727980345,1500,1500.0,76.64978885650635
0.4299314022064209,-0.4129930651187897,6.583437843322754,-2.3987692260742186,1550.0,0.36175267457962035,-4.747713012695312,31.0,50.0,-34.94436628112734,16.953819187405834,1550,1550.0,79.59897685050964
0.4299314022064209,-0.4317702257633209,7.049875392913818,-2.38483229637146,1600.0,0.31559206008911134,-5.1841087150573735,32.0,50.0,-47.488693264926425,40.84190944776081,1600,1600.0,80.82320952415466
0.4299314022064209,-0.4367810595035553,7.445972805023193,-2.401108913421631,1650.0,0.3061953818798065,-5.562888889312744,33.0,50.0,-42.690136929622454,43.59841061320868,1650,1650.0,81.9700403213501
0.4299314022064209,-0.41921316146850585,7.89677173614502,-2.404725923538208,1700.0,0.26571678519248965,-5.981768589019776,34.0,50.0,-40.30128134022243,38.43474703815485,1700,1700.0,83.27094650268555
0.4299314022064209,-0.43278573274612425,8.343226394653321,-2.4043067646026612,1750.0,0.23295421063899993,-6.41767650604248,35.0,50.0,-42.01297075464981,29.830077605209546,1750,1750.0,84.9471070766449
0.4299314022064209,-0.42874345421791077,8.790505638122559,-2.406040573120117,1800.0,0.20515476703643798,-6.851990737915039,36.0,50.0,-39.27916885618238,27.014780406493383,1800,1800.0,86.79794573783875
0.4299314022064209,-0.4222390639781952,9.234137496948243,-2.406599588394165,1850.0,0.18422417223453522,-7.290365543365478,37.0,50.0,-40.68839672722161,33.96911059699503,1850,1850.0,88.2698712348938
0.4299314022064209,-0.42986323475837707,9.697554817199707,-2.4073991870880125,1900.0,0.1584683269262314,-7.733654384613037,38.0,50.0,-46.38941864260694,38.52868920826619,1900,1900.0,89.56760549545288
0.4299314022064209,-0.44381380319595337,10.153676223754882,-2.407346124649048,1950.0,0.1432964539527893,-8.18543239593506,39.0,50.0,-36.16763120033125,34.911337954546966,1950,1950.0,90.9998049736023
0.4299314022064209,-0.4433575201034546,10.60174789428711,-2.413262300491333,2000.0,0.12646425783634185,-8.622466049194337,40.0,50.0,-41.69964755300277,40.977823752636155,2000,2000.0,92.21997714042664
0.4299314022064209,-0.43623929858207705,11.067750053405762,-2.409360771179199,2050.0,0.11127522766590119,-9.092972946166991,41.0,50.0,-42.79469955646908,19.725364199111848,2050,2050.0,94.75478458404541
0.4299314022064209,-0.4151470363140106,11.522417449951172,-2.411806831359863,2100.0,0.09707291394472123,-9.54198398590088,42.0,50.0,-47.44523400670112,39.87626893177374,2100,2100.0,96.00866317749023
0.4299314022064209,-0.40594560384750367,11.96507225036621,-2.4227417945861816,2150.0,0.08818149447441101,-9.979994010925292,43.0,50.0,-46.023311434384276,39.25695361164003,2150,2150.0,97.28232288360596
0.4299314022064209,-0.43324782609939577,12.42933380126953,-2.4257193756103517,2200.0,0.07566436320543289,-10.43819076538086,44.0,50.0,-37.80611052030766,41.61770606812426,2200,2200.0,98.48373460769653
0.4299314022064209,-0.4273154890537262,12.891690444946288,-2.430102128982544,2250.0,0.0678317990899086,-10.896761627197266,45.0,50.0,-34.19424804021236,32.24944901573265,2250,2250.0,100.03414869308472
0.4299314022064209,-0.428186217546463,13.366460723876953,-2.413403339385986,2300.0,0.05528932869434357,-11.389637832641602,46.0,50.0,-41.75642155956335,33.62122796602466,2300,2300.0,101.52130436897278
0.4299314022064209,-0.41158490180969237,13.814338912963867,-2.417760238647461,2350.0,0.051548075079917904,-11.847409591674804,47.0,50.0,-36.92324140118381,40.264888048876536,2350,2350.0,102.76308107376099
0.4299314022064209,-0.44232323646545413,14.277456855773925,-2.4146621227264404,2400.0,0.0454392309486866,-12.313429527282715,48.0,50.0,-45.13562951257806,37.388740012340776,2400,2400.0,104.10038208961487
0.4299314022064209,-0.426441992521286,14.733393936157226,-2.4145755863189695,2450.0,0.03925554797053337,-12.777727012634278,49.0,50.0,-36.261042510747046,32.93987926061064,2450,2450.0,105.61829900741577
0.4299314022064209,-0.42075888156890867,15.190607376098633,-2.4202699661254883,2500.0,0.03477851837873459,-13.235413589477538,50.0,50.0,-41.91042355793323,32.028413879134106,2500,2500.0,107.17941284179688
0.4299314022064209,-0.4345389926433563,15.640622215270996,-2.4096399402618407,2550.0,0.02860079549252987,-13.703740844726562,51.0,50.0,-42.08510544950529,16.302126391012013,2550,2550.0,110.24649739265442
0.4299314022064209,-0.43630618929862974,16.1026668548584,-2.4186233711242675,2600.0,0.027284633070230484,-14.161017265319824,52.0,50.0,-46.337258590232686,26.91679027769774,2600,2600.0,112.10407400131226
0.4299314022064209,-0.42582512259483335,16.548363876342773,-2.4161248779296876,2650.0,0.023934499844908714,-14.624684638977051,53.0,50.0,-40.34115159269666,34.83646982802297,2650,2650.0,113.53935146331787
0.4299314022064209,-0.41708131790161135,17.00457130432129,-2.42637433052063,2700.0,0.021232341527938844,-15.077969703674317,54.0,50.0,-36.98163148671095,37.01039780911502,2700,2700.0,114.89032316207886
0.4299314022064209,-0.4347706043720245,17.44989326477051,-2.4206764698028564,2750.0,0.019035898521542548,-15.53989158630371,55.0,50.0,-37.89372299669006,37.5116734771266,2750,2750.0,116.2232415676117
0.4299314022064209,-0.43135199666023255,17.89184684753418,-2.415135955810547,2800.0,0.018234353363513946,-15.997182693481445,56.0,50.0,-37.97020854599277,34.43646841762678,2800,2800.0,117.67519068717957
0.4299314022064209,-0.4169848620891571,18.32641487121582,-2.4146425342559814,2850.0,0.01757163729518652,-16.4506014251709,57.0,50.0,-34.650986203945415,33.650510938832554,2850,2850.0,119.16105222702026
0.4299314022064209,-0.403258136510849,18.762358169555664,-2.414326524734497,2900.0,0.0167191531509161,-16.8995002746582,58.0,50.0,-34.71979086707418,30.099556720347735,2900,2900.0,120.8222062587738
0.4299314022064209,-0.40613131523132323,19.17477340698242,-2.4016645622253416,2950.0,0.015587415993213654,-17.338168411254884,59.0,50.0,-36.9149372033057,28.48012958945684,2950,2950.0,122.57781624794006
0.4299314022064209,-0.3805559861660004,19.58873519897461,-2.397416934967041,3000.0,0.014449252486228943,-17.768174285888673,60.0,50.0,-31.036893179324974,34.6623631373892,3000,3000.0,124.02030301094055
0.4299314022064209,-0.4043617594242096,19.978101425170898,-2.386630878448486,3050.0,0.014307750463485718,-18.18692840576172,61.0,50.0,-35.15933309329445,16.855284283108386,3050,3050.0,126.98673176765442
0.4299314022064209,-0.38896719098091126,20.386170043945313,-2.3823187160491943,3100.0,0.01426482129842043,-18.61531967163086,62.0,50.0,-36.89661598682795,28.547863074388815,3100,3100.0,128.7381763458252
0.4299314022064209,-0.40190488934516905,20.78179573059082,-2.377142324447632,3150.0,0.013387936130166055,-19.033288345336913,63.0,50.0,-33.11181333788409,25.339288661604975,3150,3150.0,130.71139669418335
0.4299314022064209,-0.3929829716682434,21.175999374389647,-2.3730516147613527,3200.0,0.014203540943562985,-19.454508209228514,64.0,50.0,-32.59158363549032,21.57070677875901,3200,3200.0,133.0293550491333
0.4299314022064209,-0.38538685798645017,21.58447448730469,-2.3738126277923586,3250.0,0.013804693073034287,-19.872437896728517,65.0,50.0,-33.11992101271732,22.519034829171087,3250,3250.0,135.2496988773346
0.4299314022064209,-0.3839026510715485,21.943932723999023,-2.361040964126587,3300.0,0.013332185484468937,-20.26069480895996,66.0,50.0,-35.41033506450765,23.882198802332475,3300,3300.0,137.3433084487915
0.4299314022064209,-0.3662563574314117,22.316330795288085,-2.358782243728638,3350.0,0.014418586380779743,-20.656303253173828,67.0,50.0,-27.32298148818006,24.53254672661049,3350,3350.0,139.3814172744751
0.4299314022064209,-0.3848033964633942,22.670249099731446,-2.3470561599731443,3400.0,0.014824706763029098,-21.034497909545898,68.0,50.0,-30.765334061410854,24.095186206557415,3400,3400.0,141.45652055740356
0.4299314022064209,-0.3578137683868408,23.013759765625,-2.3415436935424805,3450.0,0.014541673548519611,-21.406896438598633,69.0,50.0,-30.385341730205717,22.172572792027673,3450,3450.0,143.71155881881714
0.4299314022064209,-0.3313502806425095,23.359152450561524,-2.331986303329468,3500.0,0.015995346531271933,-21.77275444030762,70.0,50.0,-29.908938991663664,23.802034092211727,3500,3500.0,145.81221961975098
0.4299314022064209,-0.34274281859397887,23.69321334838867,-2.324514331817627,3550.0,0.017030246779322623,-22.13396369934082,71.0,50.0,-33.45663394637252,13.22692433227637,3550,3550.0,149.5923879146576
0.4299314022064209,-0.3364091432094574,24.026775665283203,-2.3198242473602293,3600.0,0.017602797001600265,-22.493433685302733,72.0,50.0,-28.948070763512046,23.35323726795168,3600,3600.0,151.73341870307922
0.4299314022064209,-0.34517736196517945,24.317871856689454,-2.3061007499694823,3650.0,0.01876581709831953,-22.82169380187988,73.0,50.0,-27.240090660383945,23.35908215374063,3650,3650.0,153.8739137649536
0.4299314022064209,-0.3264705562591553,24.614594879150392,-2.2958145999908446,3700.0,0.020197330489754677,-23.146283264160157,74.0,50.0,-26.960724788258563,18.558128216132985,3700,3700.0,156.56815099716187
0.4299314022064209,-0.33047965466976165,24.97811553955078,-2.3028041648864748,3750.0,0.020898033455014228,-23.521284561157227,75.0,50.0,-30.006359133665242,17.45578957085093,3750,3750.0,159.43253016471863
0.4299314022064209,-0.3122141546010971,25.221682052612305,-2.2862517738342287,3800.0,0.02205059178173542,-23.799630813598633,76.0,50.0,-26.02307316506921,11.346044923943456,3800,3800.0,163.8393521308899
0.4299314022064209,-0.31596627831459045,25.498142700195313,-2.2767534923553465,3850.0,0.02346643216907978,-24.108367614746093,77.0,50.0,-25.827558161014462,14.322141929036984,3850,3850.0,167.3304500579834
0.4299314022064209,-0.3186443120241165,25.764409484863283,-2.2680671977996827,3900.0,0.024995720237493513,-24.40337287902832,78.0,50.0,-22.76276180457673,17.55948545812408,3900,3900.0,170.17791390419006
0.4299314022064209,-0.2875139504671097,26.001186981201172,-2.25746524810791,3950.0,0.026236791685223578,-24.68057182312012,79.0,50.0,-27.902727607798,17.61656203058457,3950,3950.0,173.0161521434784
0.4299314022064209,-0.27027508437633513,26.24246711730957,-2.246001567840576,4000.0,0.028655544370412827,-24.945874786376955,80.0,50.0,-29.948729374460182,21.51411457523321,4000,4000.0,175.3402078151703
0.4299314022064209,-0.25783672749996184,26.511546630859375,-2.2433901596069337,4050.0,0.030479942634701728,-25.242939376831053,81.0,50.0,-22.21977410803138,12.026796076394499,4050,4050.0,179.49759101867676
0.4299314022064209,-0.2637538701295853,26.703925018310546,-2.2276268768310548,4100.0,0.03198146879673004,-25.47215202331543,82.0,50.0,-29.57065413219848,26.40294674306054,4100,4100.0,181.39131903648376
0.4299314022064209,-0.22877723157405852,26.958004837036132,-2.2279664611816408,4150.0,0.035078093335032465,-25.75269660949707,83.0,50.0,-29.04285825034035,25.922682334681948,4150,4150.0,183.32013177871704
0.4299314022064209,-0.21047717124223708,27.182122650146486,-2.2256443881988526,4200.0,0.037324078381061554,-26.004484710693358,84.0,50.0,-17.36423188626741,30.136724879835466,4200,4200.0,184.97923707962036
0.4299314022064209,-0.21119292736053466,27.341383743286134,-2.208996877670288,4250.0,0.04119841128587723,-26.206584014892577,85.0,50.0,-21.082690363471926,28.473358837567392,4250,4250.0,186.73526453971863
0.4299314022064209,-0.18364758014678956,27.44476921081543,-2.184084186553955,4300.0,0.04079891189932823,-26.349681625366213,86.0,50.0,-22.48197844209672,29.221830427572037,4300,4300.0,188.4463140964508
0.4299314022064209,-0.1827415207028389,27.651411514282227,-2.183920660018921,4350.0,0.043095017224550246,-26.59806854248047,87.0,50.0,-19.276695069766784,25.850763768755854,4350,4350.0,190.38049292564392
0.4299314022064209,-0.16700486779212953,27.765131072998045,-2.1691134452819822,4400.0,0.04517385438084602,-26.753351593017577,88.0,50.0,-23.14533327862483,24.104400234153196,4400,4400.0,192.45480298995972
0.4299314022064209,-0.14992038726806642,27.953352127075195,-2.1669085025787354,4450.0,0.049942460656166074,-26.970662994384767,89.0,50.0,-22.892073030280706,28.73375006353987,4450,4450.0,194.19491696357727
0.4299314022064209,-0.11673404842615127,28.03995964050293,-2.149329357147217,4500.0,0.04925262689590454,-27.094474258422853,90.0,50.0,-18.17420349176861,27.805087339035197,4500,4500.0,195.99314904212952
0.4299314022064209,-0.13248040184378623,28.148115234375,-2.138319959640503,4550.0,0.05379683032631874,-27.23789077758789,91.0,50.0,-21.565303164225462,13.910997428476156,4550,4550.0,199.58742761611938
0.4299314022064209,-0.11941690519452094,28.290495681762696,-2.1339813709259032,4600.0,0.05616064697504044,-27.40894744873047,92.0,50.0,-23.058840333914407,29.7891162975423,4600,4600.0,201.2658929824829
0.4299314022064209,-0.08159319028258323,28.31511535644531,-2.116085968017578,4650.0,0.057775104343891145,-27.48085922241211,93.0,50.0,-14.396576358769734,35.94080360005806,4650,4650.0,202.65706944465637
0.4299314022064209,-0.08978450551629066,28.489305877685545,-2.1202120876312254,4700.0,0.06269245907664299,-27.687981033325194,94.0,50.0,-21.77784628079441,35.1136876025854,4700,4700.0,204.08101558685303
0.4299314022064209,-0.07262828166596591,28.53118751525879,-2.103462610244751,4750.0,0.06102559953927994,-27.766232986450195,95.0,50.0,-21.696889568065465,34.98160888058124,4750,4750.0,205.51033806800842
0.4299314022064209,-0.06309023138135672,28.65659118652344,-2.1028788757324217,4800.0,0.0662222845852375,-27.923120346069336,96.0,50.0,-26.586225484093067,37.641544925346984,4800,4800.0,206.83865761756897
0.4299314022064209,-0.06192200293764472,28.63756286621094,-2.0864100074768066,4850.0,0.06958063632249832,-27.940473556518555,97.0,50.0,-25.026706913449914,32.79668685203089,4850,4850.0,208.36320185661316
0.4299314022064209,-0.04002612829208374,28.71211639404297,-2.0825035858154295,4900.0,0.07392091870307922,-28.054281616210936,98.0,50.0,-15.475014285042139,35.08627637114742,4900,4900.0,209.7882604598999
0.4299314022064209,-0.010835105292499066,28.79590476989746,-2.078929653167725,4950.0,0.07590671345591544,-28.168098373413088,99.0,50.0,-20.011842802956483,35.00388987375978,4950,4950.0,211.21667313575745
0.4299314022064209,-0.019424450863152743,28.741346740722655,-2.058840947151184,5000.0,0.07976131439208985,-28.155698623657226,100.0,50.0,-21.77171279573018,35.10253817982177,5000,5000.0,212.64107155799866
0.4299314022064209,-0.0018619869276881218,28.78559257507324,-2.05431441783905,5050.0,0.08402576833963395,-28.229140625,101.0,50.0,-21.258048803009416,17.486204659648234,5050,5050.0,215.50046849250793
0.4299314022064209,0.01579207718372345,28.767871170043946,-2.0453917026519775,5100.0,0.08659799456596375,-28.26398277282715,102.0,50.0,-19.264708205527626,34.99825855813954,5100,5100.0,216.92911100387573
0.4299314022064209,-0.029461732842028143,28.730869216918947,-2.026795563697815,5150.0,0.08992083549499512,-28.24066566467285,103.0,50.0,-22.57480685605786,38.408779350504616,5150,5150.0,218.2308967113495
0.4299314022064209,0.011992052644491196,28.730693283081056,-2.0218882608413695,5200.0,0.0905974504351616,-28.270277709960936,104.0,50.0,-14.899344911417534,38.69272710634065,5200,5200.0,219.52312922477722
0.4299314022064209,0.013056019227951765,28.737134552001955,-2.0167871952056884,5250.0,0.09139179050922394,-28.31914924621582,105.0,50.0,-16.82039989046327,38.286111437187856,5250,5250.0,220.82908582687378
0.4299314022064209,0.002920331712812185,28.64381607055664,-2.001561942100525,5300.0,0.09509054660797119,-28.25286247253418,106.0,50.0,-18.943570336926083,39.326314241919754,5300,5300.0,222.1004991531372
0.4299314022064209,0.018741363463923334,28.60705924987793,-1.990301022529602,5350.0,0.0996689873933792,-28.230985260009767,107.0,50.0,-14.9560035484857,35.752038289584156,5350,5350.0,223.49902081489563
0.4299314022064209,0.01788691084831953,28.583260192871094,-1.9851412630081178,5400.0,0.09928954124450684,-28.236479263305664,108.0,50.0,-20.949994731478427,31.174871515174758,5400,5400.0,225.102876663208
0.4299314022064209,0.00824822999536991,28.537339782714845,-1.9749814796447753,5450.0,0.10269455164670944,-28.200051574707032,109.0,50.0,-14.171785702733924,30.704944382251632,5450,5450.0,226.7312788963318
0.4299314022064209,0.019967598952353,28.56493507385254,-1.9773456430435181,5500.0,0.10589592695236207,-28.26261703491211,110.0,50.0,-20.560578134741412,34.32009969618194,5500,5500.0,228.18815112113953
0.4299314022064209,0.020694619901478292,28.44106330871582,-1.9608957242965699,5550.0,0.11235769003629685,-28.161125259399412,111.0,50.0,-7.899115829034448,18.08715739309212,5550,5550.0,230.95254349708557
0.4299314022064209,0.024162660427391527,28.394442520141602,-1.9519797849655152,5600.0,0.11584607690572739,-28.12294563293457,112.0,50.0,-13.543568377651354,40.395932345473646,5600,5600.0,232.19029188156128
0.4299314022064209,0.02488074718043208,28.31274658203125,-1.9372688341140747,5650.0,0.11353270262479782,-28.06960220336914,113.0,50.0,-15.006081728591285,41.26579404135214,5650,5650.0,233.4019491672516
0.4299314022064209,0.029729142375290393,28.265432357788086,-1.9293449354171752,5700.0,0.12102427929639817,-28.02500373840332,114.0,50.0,-15.893486587196307,42.62249369651488,5700,5700.0,234.57503867149353
0.4299314022064209,0.005728355851024389,28.226697998046873,-1.924243359565735,5750.0,0.12067700535058976,-27.99798149108887,115.0,50.0,-15.467585102752803,42.91148352478066,5750,5750.0,235.74022793769836
0.4299314022064209,0.038303812015801665,28.091852493286133,-1.9114989423751831,5800.0,0.1342250543832779,-27.902064971923828,116.0,50.0,-6.2154546656579654,43.28102082147078,5800,5800.0,236.89546871185303
0.4299314022064209,0.017901954725384712,28.11343948364258,-1.9057367515563965,5850.0,0.13176358073949815,-27.895986557006836,117.0,50.0,-17.098679375656495,41.383485614311766,5850,5850.0,238.10368013381958
0.4299314022064209,0.03847285024821758,28.085976867675782,-1.9083914947509766,5900.0,0.14232927054166794,-27.90131790161133,118.0,50.0,-15.681046727882608,43.27771610926656,5900,5900.0,239.2590091228485
0.4299314022064209,0.019415298551321028,27.891121292114256,-1.8826029872894288,5950.0,0.1400827446579933,-27.712705612182617,119.0,50.0,-5.680619778796348,42.91256354824551,5950,5950.0,240.42416906356812
0.4299314022064209,0.012177687846124172,27.877659683227538,-1.881574125289917,6000.0,0.14915211141109466,-27.674055709838868,120.0,50.0,-16.200530944768268,43.93463201703794,6000,6000.0,241.56222343444824
0.4299314022064209,0.02171945422887802,27.770622787475585,-1.8728497076034545,6050.0,0.14339808732271195,-27.613321228027345,121.0,50.0,-17.402008472684823,20.62289409982134,6050,6050.0,243.98671340942383
0.4299314022064209,0.000599699579179287,27.637233657836916,-1.853540120124817,6100.0,0.1404736542701721,-27.48147491455078,122.0,50.0,-17.0409567717142,43.67994687970327,6100,6100.0,245.1314034461975
0.4299314022064209,0.01935088900849223,27.497149505615234,-1.8417984056472778,6150.0,0.1516140314936638,-27.37518745422363,123.0,50.0,-20.277439776648954,43.75525124063331,6150,6150.0,246.27412343025208
0.4299314022064209,0.013703179210424424,27.427292098999022,-1.8382906341552734,6200.0,0.14454018741846084,-27.295202484130858,124.0,50.0,-19.50006787521398,44.91638811029226,6200,6200.0,247.3873028755188
0.4299314022064209,0.008039120901376009,27.42025047302246,-1.8441728734970093,6250.0,0.14560331165790558,-27.280719604492187,125.0,50.0,-20.192400444723837,44.20480539069831,6250,6250.0,248.51840162277222
0.4299314022064209,0.011482247151434422,27.234613342285158,-1.8259389352798463,6300.0,0.15184398502111435,-27.13607864379883,126.0,50.0,-20.60625956176768,44.69993533153353,6300,6300.0,249.63697147369385
0.4299314022064209,0.027317055426537992,27.270155792236327,-1.8306977844238281,6350.0,0.1523335999250412,-27.149684600830078,127.0,50.0,-12.547461335656113,43.5701226606389,6350,6350.0,250.78454685211182
0.4299314022064209,-0.007248278595507145,27.16501968383789,-1.8221940183639527,6400.0,0.16412733674049376,-27.052105484008788,128.0,50.0,-18.490852078677793,45.315207411708194,6400,6400.0,251.8879292011261
0.4299314022064209,0.016560156419873236,27.09489929199219,-1.8215006113052368,6450.0,0.16327520906925203,-27.00254898071289,129.0,50.0,-17.509026599574536,43.61156618849229,6450,6450.0,253.03441405296326
0.4299314022064209,0.016486140824854376,26.910764694213867,-1.8009508419036866,6500.0,0.16871030539274215,-26.785895614624025,130.0,50.0,-17.835886437070382,38.26503540855776,6500,6500.0,254.34108996391296
0.4299314022064209,0.02582392072305083,26.86733024597168,-1.8057964468002319,6550.0,0.16800033241510393,-26.783341751098632,131.0,50.0,-14.564177612526889,17.84022054596986,6550,6550.0,257.14374589920044
0.4299314022064209,-0.0018935136124491692,26.70740463256836,-1.792901873588562,6600.0,0.1579119023680687,-26.62266586303711,132.0,50.0,-18.718238943632432,33.671306451545576,6600,6600.0,258.6286897659302
0.4299314022064209,-0.01584561828523874,26.625484466552734,-1.7836291265487672,6650.0,0.16415019035339357,-26.51940185546875,133.0,50.0,-15.739967747013134,36.461460491211724,6650,6650.0,260.00000071525574
0.4299314022064209,0.012138262558728456,26.57275260925293,-1.788372917175293,6700.0,0.17828039288520814,-26.4917911529541,134.0,50.0,-15.686432119563039,39.65235516405658,6700,6700.0,261.2609598636627
0.4299314022064209,0.0020505320746451615,26.43861640930176,-1.7809680128097534,6750.0,0.1622304368019104,-26.338129501342774,135.0,50.0,-18.39694061562592,45.3132099932478,6750,6750.0,262.36439085006714
0.4299314022064209,0.015641530007123948,26.26541534423828,-1.766798391342163,6800.0,0.1570032823085785,-26.18067283630371,136.0,50.0,-16.302581800071497,42.444118282799415,6800,6800.0,263.54241037368774
0.4299314022064209,0.021311469879001378,26.320596466064455,-1.7796115112304687,6850.0,0.1715220469236374,-26.23400146484375,137.0,50.0,-13.04972625078889,43.63539516612291,6850,6850.0,264.6882691383362
0.4299314022064209,0.008647229578346015,26.025250396728516,-1.7510175848007201,6900.0,0.17298548460006713,-25.95660430908203,138.0,50.0,-6.211155400423026,44.61799593978007,6900,6900.0,265.80889320373535
0.4299314022064209,0.007102078646421432,26.074257202148438,-1.7600626420974732,6950.0,0.17990514785051345,-26.00081184387207,139.0,50.0,-14.707606750203198,43.3075482455932,6950,6950.0,266.96342635154724
0.4299314022064209,0.0067638813331723216,25.80800857543945,-1.7349923372268676,7000.0,0.17476791977882386,-25.74306640625,140.0,50.0,-10.976509168008688,44.956135038698704,7000,7000.0,268.07562160491943
0.4299314022064209,0.020169144198298454,25.774943161010743,-1.7398295545578002,7050.0,0.18032814919948578,-25.705503082275392,141.0,50.0,-13.132496330585743,21.35708152854294,7050,7050.0,270.4167654514313
0.4299314022064209,-0.001667524315416813,25.519239120483398,-1.7144756412506104,7100.0,0.17886893451213837,-25.467820281982423,142.0,50.0,-12.494237172587642,42.65120352281135,7100,7100.0,271.58906531333923
0.4299314022064209,0.015630857795476915,25.354292068481445,-1.7040725135803223,7150.0,0.17835550874471665,-25.30996452331543,143.0,50.0,-18.256945453941036,44.18435317278391,7150,7150.0,272.72068762779236
0.4299314022064209,0.02181427415460348,25.431889038085938,-1.7277603626251221,7200.0,0.18451292634010316,-25.388258438110352,144.0,50.0,-16.66877136643474,41.331091854009536,7200,7200.0,273.93043065071106
0.4299314022064209,-0.0027500251308083534,25.15222412109375,-1.7022762537002563,7250.0,0.16436932772397994,-25.08186996459961,145.0,50.0,-15.149497041260574,42.2705011180614,7250,7250.0,275.11328864097595
0.4299314022064209,0.003512915689498186,25.153747329711916,-1.7128844308853148,7300.0,0.17344558775424956,-25.118763427734375,146.0,50.0,-10.69147384775647,43.95791245861821,7300,7300.0,276.2507402896881
0.4299314022064209,0.00864060342311859,24.87345947265625,-1.6885803031921387,7350.0,0.18008967459201813,-24.820652389526366,147.0,50.0,-5.275773443328466,41.989287000702575,7350,7350.0,277.4415202140808
0.4299314022064209,0.013120888732373714,24.829327697753907,-1.690377197265625,7400.0,0.1744380521774292,-24.78224021911621,148.0,50.0,-12.93334938718083,43.8100032902124,7400,7400.0,278.58281207084656
0.4299314022064209,-0.01305846005678177,24.689324417114257,-1.677381730079651,7450.0,0.18623120218515396,-24.623681716918945,149.0,50.0,-2.519810054820657,39.85027113132173,7450,7450.0,279.8375086784363
0.4299314022064209,0.0014876081049442292,24.616970291137694,-1.6749715280532838,7500.0,0.2043453186750412,-24.570614318847657,150.0,50.0,-10.160778492602724,37.35677156858746,7500,7500.0,281.17595410346985
0.4299314022064209,0.009191412404179573,24.58600761413574,-1.6869952535629273,7550.0,0.18976525962352753,-24.52598991394043,151.0,50.0,-6.056490436898285,19.98714701344379,7550,7550.0,283.67756175994873
0.4299314022064209,0.010911956652998924,24.412543334960937,-1.6676814842224121,7600.0,0.20740448713302612,-24.346897735595704,152.0,50.0,-16.849338593800557,35.7431052933969,7600,7600.0,285.0764329433441
0.4299314022064209,-0.0092035798355937,24.26684700012207,-1.6603942346572875,7650.0,0.20872628152370454,-24.219933700561523,153.0,50.0,-21.572841507470503,36.56816355682528,7650,7650.0,286.4437425136566
0.4299314022064209,-0.014704782590270042,24.19605125427246,-1.6597942686080933,7700.0,0.2063690799474716,-24.150025253295897,154.0,50.0,-21.916054651374584,35.811171831816154,7700,7700.0,287.83995485305786
0.4299314022064209,-0.0011950946599245072,23.931681594848634,-1.646692051887512,7750.0,0.198516263961792,-23.913916778564452,155.0,50.0,-17.038859268100857,32.67342574812749,7750,7750.0,289.3702504634857
0.4299314022064209,0.005467116124927998,23.895129165649415,-1.6571275472640992,7800.0,0.2093119043111801,-23.871694412231445,156.0,50.0,-13.829307208965949,35.06375556598865,7800,7800.0,290.79622435569763
0.4299314022064209,-0.003949671555310488,23.66358512878418,-1.6373824071884155,7850.0,0.20265474259853364,-23.616766510009764,157.0,50.0,-16.4152891658331,36.80263878783667,7850,7850.0,292.1548225879669
0.4299314022064209,-0.014712381660938263,23.535342330932618,-1.6352461433410646,7900.0,0.2066615504026413,-23.50688018798828,158.0,50.0,-18.065453344149674,32.51872870135007,7900,7900.0,293.69239807128906
0.4299314022064209,-0.005774324238300324,23.48823013305664,-1.6367722749710083,7950.0,0.20902493953704834,-23.437622604370116,159.0,50.0,-17.43367136596159,38.43189443778507,7950,7950.0,294.99340081214905
0.4299314022064209,0.0014275125414133071,23.328451843261718,-1.6347137117385864,8000.0,0.21208301782608033,-23.29621452331543,160.0,50.0,-3.5849201916911237,40.24388675956951,8000,8000.0,296.23582553863525
0.4299314022064209,-0.011463572960346937,23.09735565185547,-1.6074261569976807,8050.0,0.22041937410831453,-23.04272590637207,161.0,50.0,-6.059146892886422,18.389854727169844,8050,8050.0,298.95471596717834
0.4299314022064209,-0.022689413167536258,22.933679885864258,-1.606967716217041,8100.0,0.21042657375335694,-22.892367248535155,162.0,50.0,1.7245983182762317,39.480231570450066,8100,8100.0,300.22117257118225
0.4299314022064209,-0.005944987405091524,22.69938819885254,-1.575360999107361,8150.0,0.2539413970708847,-22.67137634277344,163.0,50.0,-15.747419570149765,37.27119287786154,8150,8150.0,301.56269121170044
0.4299314022064209,-0.025044090636074542,22.714195098876953,-1.589837965965271,8200.0,0.2537616664171219,-22.660796661376953,164.0,50.0,-11.011855705085033,36.67660261813837,8200,8200.0,302.9259581565857
0.4299314022064209,-0.017333390340209007,22.583510818481447,-1.6008749771118165,8250.0,0.22702939093112945,-22.537667007446288,165.0,50.0,-16.29814399957789,38.071047006801464,8250,8250.0,304.2392921447754
0.4299314022064209,-0.020009892322123052,22.4257706451416,-1.5929900979995728,8300.0,0.22421186447143554,-22.38468505859375,166.0,50.0,0.9496069586896372,35.907419335728356,8300,8300.0,305.6317620277405
0.4299314022064209,-0.0108342295140028,22.107698287963867,-1.556241011619568,8350.0,0.24477346181869508,-22.05351013183594,167.0,50.0,-19.214274044780876,36.513179658287875,8350,8350.0,307.0011305809021
0.4299314022064209,-0.006192035898566246,21.975049896240236,-1.552620768547058,8400.0,0.2593968218564987,-21.933992080688476,168.0,50.0,-16.27974771754924,38.39674012051345,8400,8400.0,308.3033244609833
0.4299314022064209,-0.04042699635028839,21.800722351074217,-1.5329630756378174,8450.0,0.28327844619750975,-21.75934814453125,169.0,50.0,-18.8865546761237,35.58427882749731,8450,8450.0,309.7084393501282
0.4299314022064209,-0.006947783268988133,21.884854049682616,-1.5715173864364624,8500.0,0.24110150158405305,-21.840857849121093,170.0,50.0,-19.61369606041741,35.94359407146789,8500,8500.0,311.0995078086853
0.4299314022064209,-0.0233728539198637,21.67981246948242,-1.5646924114227294,8550.0,0.24649961471557616,-21.62097587585449,171.0,50.0,-18.009652828288626,16.605747706106378,8550,8550.0,314.1105134487152
0.4299314022064209,-0.011465922072529793,21.422363891601563,-1.551520013809204,8600.0,0.24673710763454437,-21.358933334350585,172.0,50.0,-11.98796197407753,26.18199650657355,8600,8600.0,316.0202226638794
0.4299314022064209,-0.004782192446291447,21.49790069580078,-1.5764742803573608,8650.0,0.23887355566024782,-21.413323440551757,173.0,50.0,-12.42219552348201,28.88800270538508,8650,8650.0,317.7510449886322
0.4299314022064209,-0.024462233148515224,21.259404678344726,-1.5501388168334962,8700.0,0.2626459431648254,-21.193896713256837,174.0,50.0,-6.697903226955821,27.187406699958995,8700,8700.0,319.59013175964355
0.4299314022064209,-0.0007381828501820565,21.11338005065918,-1.539614839553833,8750.0,0.275362885594368,-21.065885009765626,175.0,50.0,-15.575194553197134,23.783775446625114,8750,8750.0,321.69240522384644
0.4299314022064209,-0.013438827265053988,20.859789276123045,-1.5377594280242919,8800.0,0.26397058486938474,-20.83004959106445,176.0,50.0,-12.647696921488594,30.304044436930397,8800,8800.0,323.3423500061035
0.4299314022064209,-0.011900332812219859,20.710399322509765,-1.529524655342102,8850.0,0.2576780217885971,-20.643894653320313,177.0,50.0,-16.885530669072647,25.10399386726468,8850,8850.0,325.33406496047974
0.4299314022064209,-0.018755184449255467,20.613001556396483,-1.5341166067123413,8900.0,0.24879111409187316,-20.537786712646483,178.0,50.0,-12.810008895064412,26.851044989461375,8900,8900.0,327.1961898803711
0.4299314022064209,-0.020445168521255254,20.31424171447754,-1.5054489326477052,8950.0,0.2810215020179749,-20.273934326171876,179.0,50.0,-2.508184611329826,24.618551627829227,8950,8950.0,329.2271785736084
0.4299314022064209,-0.04407473677769303,20.416349716186524,-1.5408282089233398,9000.0,0.2478781396150589,-20.32658416748047,180.0,50.0,-6.6148793621588,28.373015470357895,9000,9000.0,330.9894163608551
0.4299314022064209,-0.04995739735662937,20.051337661743165,-1.5089925670623778,9050.0,0.2731594496965408,-19.95791114807129,181.0,50.0,-8.868591701003112,11.694738044865169,9050,9050.0,335.2648434638977
0.4299314022064209,-0.030255555622279644,20.013752746582032,-1.5118402004241944,9100.0,0.28449906468391417,-19.926350555419923,182.0,50.0,-12.941910977647808,25.67388450037798,9100,9100.0,337.2123477458954
0.4299314022064209,-0.021764990761876105,19.964287948608398,-1.5145548248291016,9150.0,0.2916988343000412,-19.87663475036621,183.0,50.0,-12.19211090697729,22.135791814931594,9150,9150.0,339.4711329936981
0.4299314022064209,-0.0360696479678154,19.47876998901367,-1.4709050703048705,9200.0,0.28578474938869475,-19.431735458374025,184.0,50.0,-8.482751533021922,28.950552947234296,9200,9200.0,341.1982157230377
0.4299314022064209,-0.043076905980706216,19.40556137084961,-1.4801301431655884,9250.0,0.2800903695821762,-19.33127380371094,185.0,50.0,-19.314429534408042,26.186871051806786,9250,9250.0,343.10756945610046
0.4299314022064209,-0.031910159485414626,19.294697875976563,-1.4835723590850831,9300.0,0.2909985649585724,-19.22737274169922,186.0,50.0,-11.274583202243553,24.6646839909106,9300,9300.0,345.13475942611694
0.4299314022064209,-0.011768913008272647,19.18811363220215,-1.4866259717941284,9350.0,0.28709522366523743,-19.143397903442384,187.0,50.0,-17.764264087787286,27.96857504236992,9350,9350.0,346.92248010635376
0.4299314022064209,-0.03652459856122732,18.97328742980957,-1.4734570932388307,9400.0,0.28811525702476504,-18.8944108581543,188.0,50.0,-12.587886907782316,28.589057114805712,9400,9400.0,348.67140102386475
0.4299314022064209,-0.024749510735273362,18.78170738220215,-1.4660749769210815,9450.0,0.2916038644313812,-18.69182487487793,189.0,50.0,-12.616081582333315,28.85415878405803,9450,9450.0,350.4042534828186
0.4299314022064209,-0.0218181199580431,18.834529724121094,-1.4882524156570434,9500.0,0.29307856857776643,-18.73809646606445,190.0,50.0,-5.446446876014368,29.38395956656687,9500,9500.0,352.1058621406555
0.4299314022064209,-0.03672717835754156,18.48285842895508,-1.4609393787384033,9550.0,0.28720410883426667,-18.390728759765626,191.0,50.0,-14.309678892617903,16.132710349679808,9550,9550.0,355.20515537261963
0.4299314022064209,-0.02654423899948597,18.3673201751709,-1.4624264526367188,9600.0,0.29196042716503146,-18.289286880493165,192.0,50.0,-8.423613320892759,34.236801583953586,9600,9600.0,356.66557216644287
0.4299314022064209,-0.016995850708335637,18.335154571533202,-1.4763075494766236,9650.0,0.3061389487981796,-18.273009567260743,193.0,50.0,-5.72964067080844,33.55704139553892,9650,9650.0,358.1555724143982
0.4299314022064209,-0.03205942384898663,17.820119705200195,-1.4330904054641724,9700.0,0.27996567070484163,-17.710737075805664,194.0,50.0,-19.02098415239551,29.568657408131962,9700,9700.0,359.8465521335602
0.4299314022064209,-0.027782631404697895,18.074049377441405,-1.4609455060958862,9750.0,0.3345112407207489,-17.96133918762207,195.0,50.0,-12.531052314788248,29.68838655243294,9750,9750.0,361.5307123661041
0.4299314022064209,-0.019691264852881432,17.665663223266602,-1.441300287246704,9800.0,0.3038333493471146,-17.577914352416993,196.0,50.0,-18.710629826490557,32.61538040432053,9800,9800.0,363.06373143196106
0.4299314022064209,-0.03623435565270484,17.551843490600586,-1.4478282022476197,9850.0,0.3053066492080688,-17.465480880737303,197.0,50.0,-12.782677091605072,37.14568253034274,9850,9850.0,364.4097828865051
0.4299314022064209,-0.010043721869587898,17.665028228759766,-1.4831015539169312,9900.0,0.29324802458286287,-17.555064239501952,198.0,50.0,-17.557011623262703,36.94358962434246,9900,9900.0,365.76319766044617
0.4299314022064209,-0.03868400450795889,17.263194808959963,-1.4427952527999879,9950.0,0.30766973972320555,-17.1549169921875,199.0,50.0,-18.949177131203108,36.43082960901279,9950,9950.0,367.13566160202026
0.4299314022064209,-0.02533189507201314,17.117907180786133,-1.44224778175354,10000.0,0.30426617920398713,-17.021293869018553,200.0,50.0,-16.226104663025215,38.71930189930536,10000,10000.0,368.42700719833374
0.4299314022064209,-0.01918134404346347,16.997519454956056,-1.440491704940796,10050.0,0.3020607042312622,-16.88441307067871,201.0,50.0,-19.368463111770254,18.57944604838421,10050,10050.0,371.11815309524536
0.4299314022064209,-0.03972554199397564,16.766959609985353,-1.4307641744613648,10100.0,0.30974554538726806,-16.639777603149415,202.0,50.0,-14.105891625432598,40.43051034951831,10100,10100.0,372.35484290122986
0.4299314022064209,-0.03734131164848804,16.516691741943358,-1.4137588214874268,10150.0,0.32171286702156066,-16.392470207214355,203.0,50.0,-19.336781953867764,37.00634214850979,10150,10150.0,373.70596265792847
0.4299314022064209,-0.03248858809471131,16.385794525146483,-1.42277184009552,10200.0,0.301065913438797,-16.264073486328126,204.0,50.0,-15.273002894808025,35.41070656377762,10200,10200.0,375.11796498298645
0.4299314022064209,-0.026623731926083565,16.249170608520508,-1.4242551279067994,10250.0,0.29018236994743346,-16.086368217468262,205.0,50.0,-14.647317584131438,36.57711823197945,10250,10250.0,376.4849398136139
0.4299314022064209,-0.011604342870414256,16.139426765441893,-1.424119577407837,10300.0,0.306621236205101,-16.01367931365967,206.0,50.0,-13.481107227302296,35.17768812618498,10300,10300.0,377.90629529953003
0.4299314022064209,-0.028553435653448103,16.000131568908692,-1.4239004945755005,10350.0,0.3068131935596466,-15.859343643188476,207.0,50.0,-14.575628496852563,34.52087851490323,10350,10350.0,379.3546941280365
0.4299314022064209,-0.02704719975590706,15.942689132690429,-1.4362698554992677,10400.0,0.303077706694603,-15.802016677856445,208.0,50.0,-16.012243019612164,41.22570449661795,10400,10400.0,380.5675296783447
0.4299314022064209,-0.03382021825760603,15.808630065917969,-1.4358049535751343,10450.0,0.2937096661329269,-15.634674377441407,209.0,50.0,-12.426283325147045,39.84804497467448,10450,10450.0,381.8222963809967
0.4299314022064209,-0.03704425700008869,15.521006164550782,-1.4162912940979004,10500.0,0.29449500143527985,-15.356002388000489,210.0,50.0,-18.183553316447384,40.97992168458455,10500,10500.0,383.0424060821533
0.4299314022064209,-0.012177854795008897,15.481948776245117,-1.4277414846420289,10550.0,0.3039610397815704,-15.338871078491211,211.0,50.0,-10.529243928538193,20.233444414642666,10550,10550.0,385.5135622024536
0.4299314022064209,-0.030154568292200565,15.2536474609375,-1.4154706382751465,10600.0,0.2966099739074707,-15.083721351623534,212.0,50.0,-12.994806319547969,42.31428864283679,10600,10600.0,386.6951961517334
0.4299314022064209,-0.047759340796619656,15.023245964050293,-1.4043204259872437,10650.0,0.2976426613330841,-14.858475074768066,213.0,50.0,-15.36272213683684,42.43613945321851,10650,10650.0,387.873437166214
0.4299314022064209,-0.04020237769931555,15.03042064666748,-1.4203192472457886,10700.0,0.3014331865310669,-14.83630355834961,214.0,50.0,-17.64137945975317,42.25212272818119,10700,10700.0,389.0568096637726
0.4299314022064209,-0.01252944216132164,14.871334838867188,-1.4178530502319335,10750.0,0.29975170850753785,-14.70499095916748,215.0,50.0,-15.556889294815146,43.81118393179906,10750,10750.0,390.1980707645416
0.4299314022064209,-0.036818522922694684,14.713941040039062,-1.4022496032714844,10800.0,0.31529447495937346,-14.510101280212403,216.0,50.0,-6.160377372231121,41.21655696690139,10800,10800.0,391.41117548942566
0.4299314022064209,-0.020025955736637114,14.497728652954102,-1.399104266166687,10850.0,0.3114680391550064,-14.310032882690429,217.0,50.0,-2.7008975149488297,38.88807092432674,10850,10850.0,392.6969168186188
0.4299314022064209,-0.019376777186989783,14.421614418029785,-1.40618088722229,10900.0,0.2860526341199875,-14.19697971343994,218.0,50.0,-13.622709639867397,38.21469232933466,10900,10900.0,394.0053141117096
0.4299314022064209,-0.009011950120329857,14.277519607543946,-1.4010928058624268,10950.0,0.3099656993150711,-14.099250335693359,219.0,50.0,-17.071971538308667,41.55345969398501,10950,10950.0,395.20858335494995
0.4299314022064209,-0.010115394461899995,14.15686408996582,-1.4009933805465697,11000.0,0.30114772319793703,-13.962832107543946,220.0,50.0,-20.450347509500286,44.95407278602233,11000,11000.0,396.32082962989807
0.4299314022064209,-0.03459865748882294,13.88799430847168,-1.3829473066329956,11050.0,0.32108893752098083,-13.683392524719238,221.0,50.0,-13.957009808244758,21.353673889394152,11050,11050.0,398.66234707832336
0.4299314022064209,-0.042061043251305816,13.806549110412597,-1.3833310174942017,11100.0,0.3263351905345917,-13.590304183959962,222.0,50.0,-9.126127426393026,43.208914278037966,11100,11100.0,399.81951570510864
0.4299314022064209,-0.022402717359364034,13.588708305358887,-1.3774089527130127,11150.0,0.30871102631092073,-13.375662727355957,223.0,50.0,-16.576422815721525,40.417949511097746,11150,11150.0,401.05658984184265
0.4299314022064209,-0.012470789905637502,13.538073120117188,-1.3924758529663086,11200.0,0.2975219243764877,-13.323744430541993,224.0,50.0,-20.223057797112563,45.46380231508229,11200,11200.0,402.15636587142944
0.4299314022064209,-0.013772569969296456,13.340146408081054,-1.38289475440979,11250.0,0.28584510684013364,-13.095511360168457,225.0,50.0,-7.0919560725803565,31.28044849660385,11250,11250.0,403.7548084259033
0.4299314022064209,-0.03279683439061046,13.134758644104004,-1.3693313312530517,11300.0,0.3046340554952621,-12.89707088470459,226.0,50.0,-16.585090665999015,25.85790992482145,11300,11300.0,405.6884527206421
0.4299314022064209,-0.012960884030908346,12.967243614196777,-1.3602876472473144,11350.0,0.3148799902200699,-12.760695838928223,227.0,50.0,0.841357316168164,36.365553271240664,11350,11350.0,407.06338024139404
0.4299314022064209,-0.02286297405138612,13.0057763671875,-1.381613540649414,11400.0,0.31272017598152163,-12.779815368652343,228.0,50.0,-0.36601626182065594,35.89254103681705,11400,11400.0,408.45642733573914
0.4299314022064209,-0.014169202037155628,12.890881004333496,-1.3820513248443604,11450.0,0.30582645297050476,-12.653436851501464,229.0,50.0,-12.88666844690381,38.26269661121441,11450,11450.0,409.76318311691284
0.4299314022064209,-0.002175039444118738,12.665012855529785,-1.3741530132293702,11500.0,0.2981504952907562,-12.425791664123535,230.0,50.0,-0.6534993541276268,42.512951624294644,11500,11500.0,410.93929529190063
0.4299314022064209,-0.02237525962293148,12.462750320434571,-1.355514268875122,11550.0,0.3175673311948776,-12.24521987915039,231.0,50.0,-12.221199259689286,21.49923594567536,11550,11550.0,413.26495933532715
0.4299314022064209,-0.01716592876240611,12.34355857849121,-1.3532626914978028,11600.0,0.31077885031700136,-12.150040245056152,232.0,50.0,-18.21327948694168,44.86161078517317,11600,11600.0,414.37949800491333
0.4299314022064209,-0.017325823102146386,12.152755088806153,-1.346133451461792,11650.0,0.32146589279174803,-11.899337615966797,233.0,50.0,-19.43591638551571,41.219432856209245,11650,11650.0,415.5925180912018
0.4299314022064209,-0.00849482886493206,11.981523933410644,-1.3473863172531129,11700.0,0.30318800210952757,-11.731583366394043,234.0,50.0,-18.125453886008206,43.47650863123398,11700,11700.0,416.74256443977356
0.4299314022064209,0.006612566020339728,11.945970268249512,-1.3527551078796387,11750.0,0.3165488958358765,-11.710792121887208,235.0,50.0,-3.32566306535465,34.02633645502748,11750,11750.0,418.2120144367218
0.4299314022064209,-0.015828058868646622,11.779945220947265,-1.3516627216339112,11800.0,0.2973611783981323,-11.546023864746093,236.0,50.0,-3.341208399355846,41.8364324029508,11800,11800.0,419.40714502334595
0.4299314022064209,0.009108696170151233,11.709232749938964,-1.3547978115081787,11850.0,0.3021878188848495,-11.467829971313476,237.0,50.0,-11.68740890800855,42.12452086077238,11850,11850.0,420.59410214424133
0.4299314022064209,0.0002676180377602577,11.534194526672364,-1.35907808303833,11900.0,0.28473173260688783,-11.254506568908692,238.0,50.0,-9.692382798739407,42.474764587970974,11900,11900.0,421.77127170562744
0.4299314022064209,0.0006540128216147423,11.445503692626954,-1.348739595413208,11950.0,0.30861154437065125,-11.176113739013672,239.0,50.0,-14.869203170724203,38.097930198823356,11950,11950.0,423.08367896080017
0.4299314022064209,0.015876984298229216,11.30309814453125,-1.3455724096298218,12000.0,0.30861333847045896,-11.029960289001465,240.0,50.0,-12.92344114986333,41.90557641468527,12000,12000.0,424.27683758735657
0.4299314022064209,0.01559395283460617,10.967261047363282,-1.3128544759750367,12050.0,0.32413196563720703,-10.700425643920898,241.0,50.0,-5.475252563821731,17.17438955899004,12050,12050.0,427.1881492137909
0.4299314022064209,0.022329339757561684,10.875650939941407,-1.3284974145889281,12100.0,0.3017397964000702,-10.624054412841797,242.0,50.0,3.138825970009222,41.82477626263976,12100,12100.0,428.38361287117004
0.4299314022064209,0.017214958369731904,10.822967758178711,-1.3269211626052857,12150.0,0.3246410083770752,-10.532626304626465,243.0,50.0,8.122786368542567,39.47336522093318,12150,12150.0,429.65028977394104
0.4299314022064209,0.012578049562871457,10.704355812072754,-1.3272358560562134,12200.0,0.3169825839996338,-10.434697036743165,244.0,50.0,-21.24064032490733,41.039224941273346,12200,12200.0,430.8686363697052
0.4299314022064209,0.017221941649913787,10.573906555175782,-1.3303052043914796,12250.0,0.30935055553913116,-10.30452995300293,245.0,50.0,-6.294555838470647,41.424823739977626,12250,12250.0,432.07564210891724
0.4299314022064209,0.01075004119426012,10.268575935363769,-1.298822627067566,12300.0,0.3369461292028427,-9.989633598327636,246.0,50.0,3.1727169023346793,38.81428995263963,12300,12300.0,433.3638274669647
0.4299314022064209,-0.01237191766500473,10.201851081848144,-1.300526762008667,12350.0,0.3237737083435059,-9.915421295166016,247.0,50.0,6.251150882814683,35.04150371125621,12350,12350.0,434.79070687294006
0.4299314022064209,0.005385591499507427,10.03028522491455,-1.292527632713318,12400.0,0.33845132231712344,-9.729882125854493,248.0,50.0,-15.936233797159765,34.841157765675725,12400,12400.0,436.2257912158966
0.4299314022064209,0.0054348821379244325,9.777530975341797,-1.277827968597412,12450.0,0.34081222891807555,-9.496737327575683,249.0,50.0,-17.662191450684173,32.59126368788255,12450,12450.0,437.7599446773529
0.4299314022064209,0.012298828959465026,9.734975471496583,-1.2848475694656372,12500.0,0.33833075761795045,-9.477260627746581,250.0,50.0,-1.5282828979742291,32.59001776547828,12500,12500.0,439.29415678977966
0.4299314022064209,0.009250303283333778,9.589362678527833,-1.2852772665023804,12550.0,0.33569288909435274,-9.304852294921876,251.0,50.0,9.439750225729409,18.826388572195988,12550,12550.0,441.9500033855438
0.4299314022064209,0.027966255582869054,9.358734474182128,-1.2712924814224242,12600.0,0.34138894975185397,-9.11490306854248,252.0,50.0,-3.3326687824385246,37.42959257887621,12600,12600.0,443.28584480285645
0.4299314022064209,0.014794300049543381,9.253802146911621,-1.271335072517395,12650.0,0.3433745551109314,-8.99294849395752,253.0,50.0,-7.502409831202208,37.50248344296843,12650,12650.0,444.61908984184265
0.4299314022064209,0.031043670661747454,9.014169731140136,-1.261191487312317,12700.0,0.33634822130203246,-8.743967170715331,254.0,50.0,-8.206169332577804,37.973970250266,12700,12700.0,445.93578124046326
0.4299314022064209,0.02972472444176674,8.94365873336792,-1.2599381160736085,12750.0,0.346734818816185,-8.696204319000245,255.0,50.0,1.0424273857509228,36.380807453136,12750,12750.0,447.31013226509094
0.4299314022064209,0.03504326838999987,8.785595207214355,-1.2514639282226563,12800.0,0.35679734766483306,-8.537052211761475,256.0,50.0,9.474292954477734,36.52828437672928,12800,12800.0,448.6789345741272
0.4299314022064209,0.030749175474047662,8.60706398010254,-1.2514146852493286,12850.0,0.35410782814025876,-8.348083724975586,257.0,50.0,-15.436590846565618,36.764264008939186,12850,12850.0,450.038950920105
0.4299314022064209,0.02975541142746806,8.593017482757569,-1.266513352394104,12900.0,0.33835446774959566,-8.31234437942505,258.0,50.0,3.9542544211855404,32.864318127361706,12900,12900.0,451.5603578090668
0.4299314022064209,0.041157363094389436,8.430753879547119,-1.2678101301193236,12950.0,0.3413703989982605,-8.179613132476806,259.0,50.0,1.6838899098883484,35.268035299113315,12950,12950.0,452.97807216644287
0.4299314022064209,0.03839315108954906,8.274155178070068,-1.2490482807159424,13000.0,0.3628396451473236,-8.008191108703613,260.0,50.0,5.416908912753833,32.58351620419139,13000,13000.0,454.5125904083252
0.4299314022064209,0.029487801492214204,7.989352016448975,-1.239731879234314,13050.0,0.3528150260448456,-7.705100688934326,261.0,50.0,13.433172310437744,16.711204070130336,13050,13050.0,457.504595041275
0.4299314022064209,0.05284831635653973,7.834149570465088,-1.2399820899963379,13100.0,0.34198262929916384,-7.608547763824463,262.0,50.0,-7.039531562299558,27.924879130788284,13100,13100.0,459.29511308670044
0.4299314022064209,0.049594837613403796,7.71803695678711,-1.233977246284485,13150.0,0.3598158764839172,-7.480843906402588,263.0,50.0,-5.65601011792875,27.67496349531757,13150,13150.0,461.10180020332336
0.4299314022064209,0.021490298174321652,7.341050472259521,-1.2126203870773316,13200.0,0.3467850410938263,-7.0768208503723145,264.0,50.0,5.5493023136245565,31.459359463660547,13200,13200.0,462.69115233421326
0.4299314022064209,0.04244023837149143,7.190451736450195,-1.1845994234085082,13250.0,0.38882048964500426,-6.968017463684082,265.0,50.0,1.4768460146255329,28.828702013381488,13250,13250.0,464.4255349636078
0.4299314022064209,0.0515138129517436,7.22942569732666,-1.2192872333526612,13300.0,0.3626592934131622,-7.033889923095703,266.0,50.0,-9.208689171074884,16.38160547001294,13300,13300.0,467.4777388572693
0.4299314022064209,0.05050593249499798,6.975630893707275,-1.2010972166061402,13350.0,0.37547369122505186,-6.751861686706543,267.0,50.0,-5.189962047618495,22.95412768925275,13350,13350.0,469.65599632263184
0.4299314022064209,0.04485294830054045,6.636615123748779,-1.192025637626648,13400.0,0.3725022709369659,-6.437613353729248,268.0,50.0,-8.437511910042229,24.612721026049567,13400,13400.0,471.68746614456177
0.4299314022064209,0.04265417128801346,6.617645416259766,-1.2045591402053832,13450.0,0.3824193036556244,-6.404703578948975,269.0,50.0,-10.211510357593195,22.73983555855647,13450,13450.0,473.8862507343292
0.4299314022064209,0.05055526006966829,6.472698478698731,-1.2142388010025025,13500.0,0.36472455978393553,-6.24519718170166,270.0,50.0,10.44605324560148,21.77335651364993,13500,13500.0,476.182635307312
0.4299314022064209,0.04764201797544956,6.175447425842285,-1.193232111930847,13550.0,0.37073365569114686,-5.989948768615722,271.0,50.0,9.482722551695458,9.886294172256354,13550,13550.0,481.2401421070099
0.4299314022064209,0.04218449678272009,6.002322597503662,-1.19211172580719,13600.0,0.38755648374557494,-5.823349990844727,272.0,50.0,0.2901649585058461,22.850610226154522,13600,13600.0,483.42826747894287
0.4299314022064209,0.0535863371565938,5.575895462036133,-1.1748270988464355,13650.0,0.3794068455696106,-5.373614521026611,273.0,50.0,-4.721822603450132,18.83129611795421,13650,13650.0,486.0834219455719
0.4299314022064209,0.07828005937859416,5.287253589630127,-1.1574927854537964,13700.0,0.37885633707046507,-5.133102073669433,274.0,50.0,12.77233447804076,16.429825092627492,13700,13700.0,489.1266679763794
0.4299314022064209,0.05430317983031273,5.427748317718506,-1.189550666809082,13750.0,0.3689886260032654,-5.217146472930908,275.0,50.0,-3.1049652851428515,16.26579595250701,13750,13750.0,492.20060300827026
0.4299314022064209,0.06185329038649798,5.167290840148926,-1.195830545425415,13800.0,0.3508294552564621,-4.972836236953736,276.0,50.0,-2.921380833814199,17.356064350331057,13800,13800.0,495.081440448761
0.4299314022064209,0.054973623733967546,4.594899225234985,-1.1358697485923768,13850.0,0.3706037139892578,-4.436741704940796,277.0,50.0,16.133329433595243,17.588444298700086,13850,13850.0,497.9242160320282
0.4299314022064209,0.047983310613781215,4.655235023498535,-1.1642557024955749,13900.0,0.3896319365501404,-4.493235054016114,278.0,50.0,11.49192811974468,24.503767487902067,13900,13900.0,499.964718580246
0.4299314022064209,0.05982207417488098,4.359851140975952,-1.148800597190857,13950.0,0.38845578908920286,-4.237067289352417,279.0,50.0,-1.9875061520734931,23.857190311292722,13950,13950.0,502.0605227947235
0.4299314022064209,0.07697220364585519,4.113771848678589,-1.1535963916778564,14000.0,0.38559420108795167,-3.9742635440826417,280.0,50.0,0.05066169662464581,26.532165800227144,14000,14000.0,503.94502782821655
0.4299314022064209,0.07136073216795921,3.7186479663848875,-1.1322774124145507,14050.0,0.4127113974094391,-3.5679912471771242,281.0,50.0,1.1326079981407737,15.34434958758007,14050,14050.0,507.2035562992096
0.4299314022064209,0.06589929258450866,3.5154409885406492,-1.1262657308578492,14100.0,0.3882041847705841,-3.3737827014923094,282.0,50.0,15.002819231709962,28.613209912960475,14100,14100.0,508.9510009288788
0.4299314022064209,0.06278732730075717,3.5769911098480223,-1.1531038093566894,14150.0,0.39717367172241214,-3.432450227737427,283.0,50.0,11.710013974205122,31.913714735200042,14150,14150.0,510.5177254676819
0.4299314022064209,0.05329862989485264,2.9188041067123414,-1.1184412670135497,14200.0,0.39446904420852663,-2.751397547721863,284.0,50.0,-12.806196387355712,32.209779359804465,14200,14200.0,512.0700490474701
0.4299314022064209,0.06926859226077794,2.9503776454925537,-1.162132933139801,14250.0,0.3971614527702332,-2.8307797145843505,285.0,50.0,5.132046300849355,31.046440895310315,14250,14250.0,513.6805396080017
0.4299314022064209,0.06364082913845777,2.4156122493743895,-1.1038434982299805,14300.0,0.4069646418094635,-2.3091032028198244,286.0,50.0,-3.5866621681826256,34.41439543196372,14300,14300.0,515.1334199905396
0.4299314022064209,0.06428728744387627,1.8464697295427321,-1.0859953141212464,14350.0,0.41060826659202576,-1.7572452092170716,287.0,50.0,-8.553521222390074,34.64398820042234,14350,14350.0,516.5766718387604
0.4299314022064209,0.06200898107141256,1.9868188309669494,-1.1195125985145569,14400.0,0.4111865735054016,-1.8717936944961548,288.0,50.0,12.467097347820179,36.38734707404124,14400,14400.0,517.9507758617401
0.4299314022064209,0.0882578544318676,1.5372814559936523,-1.1129976224899292,14450.0,0.404986093044281,-1.449362508058548,289.0,50.0,-2.2825061692444955,34.9723393348433,14450,14450.0,519.3804771900177
0.4299314022064209,0.060003523565828804,1.1583499830961228,-1.1048284339904786,14500.0,0.41225854158401487,-1.053111000061035,290.0,50.0,0.4712499678956181,36.09357765038374,14500,14500.0,520.7657651901245
0.4299314022064209,0.06761755302548408,0.8664662474393845,-1.0880144000053407,14550.0,0.436211451292038,-0.7768114590644837,291.0,50.0,2.524173806102473,17.441278009539698,14550,14550.0,523.632527589798
0.4299314022064209,0.054881278686225415,0.6875044256448746,-1.1052752232551575,14600.0,0.426375994682312,-0.5727653008699417,292.0,50.0,3.8082997249082275,32.37142475655659,14600,14600.0,525.1770997047424
0.4299314022064209,0.07369246480986476,0.5228600537776947,-1.1186510181427003,14650.0,0.43637711405754087,-0.42352998703718187,293.0,50.0,11.836456632330698,34.209804272767286,14650,14650.0,526.638669013977
0.4299314022064209,0.059081999398767945,0.2207569095492363,-1.126704411506653,14700.0,0.44350072741508484,-0.11508680745959282,294.0,50.0,0.4099095187842554,26.1361320854536,14700,14700.0,528.5517294406891
0.4299314022064209,0.054994909651577474,-0.6119742703437805,-1.0658406448364257,14750.0,0.46082568287849424,0.685111934542656,295.0,50.0,-4.303799483255048,26.3030016610954,14750,14750.0,530.452653169632
0.4299314022064209,0.08060490861535072,-0.8378914050757885,-1.0671255254745484,14800.0,0.4616741955280304,0.8675130523741246,296.0,50.0,-8.931960901542674,16.279208951441095,14800,14800.0,533.524055480957
0.4299314022064209,0.0574503019079566,-0.8768156260251999,-1.090573697090149,14850.0,0.4695170819759369,1.00179591268301,297.0,50.0,6.532028137591798,24.108939215733386,14850,14850.0,535.5979750156403
0.4299314022064209,0.08410329602658749,-1.476973512172699,-1.0613643383979798,14900.0,0.47342126846313476,1.5509974735975265,298.0,50.0,0.4103069293390966,27.555009780202642,14900,14900.0,537.4125270843506
0.4299314022064209,0.07872021347284316,-1.9984669947624207,-1.0455400609970094,14950.0,0.466746484041214,2.0732447934150695,299.0,50.0,-4.148925022855064,24.53861216533169,14950,14950.0,539.4501321315765
0.4299314022064209,0.07158867575228214,-2.052592921257019,-1.0789352703094481,15000.0,0.4633825075626373,2.14067599773407,300.0,50.0,-0.5922949159512712,33.76156595947457,15000,15000.0,540.9311060905457
0.4299314022064209,0.07467267030850053,-2.3146577858924866,-1.0832414793968201,15050.0,0.48088000059127806,2.4082789850234985,301.0,50.0,7.158378403305054,14.983326987731495,15050,15050.0,544.2681486606598
0.4299314022064209,0.06300453465431928,-2.563997673988342,-1.0826681995391845,15100.0,0.49312165260314944,2.6295098447799683,302.0,50.0,-6.5895951983360845,32.45670972556645,15100,15100.0,545.8086621761322
0.4299314022064209,0.058888914920389654,-2.898237776756287,-1.0706211042404175,15150.0,0.4993226981163025,2.9973483419418336,303.0,50.0,-7.885082290922643,38.501484687360126,15150,15150.0,547.1073133945465
0.4299314022064209,0.06772778287529946,-3.46457124710083,-1.0528222036361694,15200.0,0.5156463408470153,3.574078607559204,304.0,50.0,2.341969785278394,41.0347842914499,15200,15200.0,548.3257918357849
0.4299314022064209,0.08006801094859839,-3.810215754508972,-1.0588586831092834,15250.0,0.5100831234455109,3.8699788856506347,305.0,50.0,-2.276589369995218,41.26996809041345,15250,15250.0,549.5373265743256
0.4299314022064209,0.08663414672017097,-4.23222962141037,-1.0596542716026307,15300.0,0.5247841966152191,4.323151302337647,306.0,50.0,-8.945533508909179,42.174739584328385,15300,15300.0,550.722870349884
0.4299314022064209,0.08038629533722996,-4.518777103424072,-1.071607575416565,15350.0,0.5287454211711884,4.619813508987427,307.0,50.0,8.99147883881923,44.61369615658634,15350,15350.0,551.8436024188995
0.4299314022064209,0.0638060536980629,-5.060331983566284,-1.0273647141456603,15400.0,0.5258251965045929,5.149642362594604,308.0,50.0,6.599647553138313,41.5182912729611,15400,15400.0,553.0478909015656
0.4299314022064209,0.06670175682753325,-5.489699974060058,-1.053094835281372,15450.0,0.5231027209758758,5.5863348007202145,309.0,50.0,0.6280158125339685,41.26096326840269,15450,15450.0,554.2596900463104
0.4299314022064209,0.07424214910715818,-5.499001836776733,-1.071252884864807,15500.0,0.5366974198818206,5.600711545944214,310.0,50.0,-0.6363175815814639,36.06654474524281,15500,15500.0,555.6460163593292
0.4299314022064209,0.07404720533639192,-6.125535392761231,-1.0484638833999633,15550.0,0.5505820035934448,6.267983169555664,311.0,50.0,2.5701035534234045,17.75123176747555,15550,15550.0,558.4627223014832
0.4299314022064209,0.08059207536280155,-6.766567687988282,-1.0245610165596009,15600.0,0.5459969735145569,6.863880004882812,312.0,50.0,-9.33052778775263,37.12107212471493,15600,15600.0,559.8096661567688
0.4299314022064209,0.0811975985020399,-7.090326290130616,-1.0334191393852235,15650.0,0.5513976013660431,7.151864109039306,313.0,50.0,-11.345462958535869,44.00881371582062,15650,15650.0,560.9458022117615
0.4299314022064209,0.06075444631278515,-7.66560432434082,-1.002325749397278,15700.0,0.5656270003318786,7.808170909881592,314.0,50.0,5.120468145672902,44.218413430965235,15700,15700.0,562.0765528678894
0.4299314022064209,0.07290730709210039,-8.135804367065429,-1.002051830291748,15750.0,0.5777751636505127,8.233423519134522,315.0,50.0,-0.9341101982849978,39.844804619762385,15750,15750.0,563.3314216136932
0.4299314022064209,0.06468380372971297,-8.367567234039306,-1.034278359413147,15800.0,0.5634182631969452,8.486988487243652,316.0,50.0,9.183620725395436,38.91552861995348,15800,15800.0,564.6162557601929
0.4299314022064209,0.05316452536731958,-8.968176345825196,-1.0081295657157898,15850.0,0.5812280869483948,9.089355144500733,317.0,50.0,-8.80489708564717,42.48015052723627,15850,15850.0,565.7932760715485
0.4299314022064209,0.07021731324493885,-9.100299549102782,-1.0120746159553529,15900.0,0.5807925236225128,9.256331005096435,318.0,50.0,-7.145830805836393,43.456994784295276,15900,15900.0,566.9438388347626
0.4299314022064209,0.06029770463705063,-9.068024196624755,-1.0629010224342346,15950.0,0.5679244291782379,9.247585277557373,319.0,50.0,-7.905584604411105,45.152205946310445,15950,15950.0,568.0512044429779
0.4299314022064209,0.07833552852272987,-10.07115909576416,-1.0055955457687378,16000.0,0.595623095035553,10.198706703186035,320.0,50.0,-8.531505464380931,43.13112123943729,16000,16000.0,569.2104601860046
0.4299314022064209,0.06963416460901499,-10.187126960754394,-1.0313925051689148,16050.0,0.5854539179801941,10.341712284088135,321.0,50.0,-4.0095944834918775,20.489850735856702,16050,16050.0,571.6506927013397
0.4299314022064209,0.07800842709839344,-11.083104438781739,-0.9818749094009399,16100.0,0.6236591863632203,11.275069389343262,322.0,50.0,-7.589893486407195,44.10238076711972,16100,16100.0,572.7844183444977
0.4299314022064209,0.07292931726202369,-11.097447204589844,-1.0088481616973877,16150.0,0.595338122844696,11.252879638671875,323.0,50.0,2.3847988514245397,43.82954239798562,16150,16150.0,573.9252014160156
0.4299314022064209,0.07083489991724491,-12.105212745666504,-0.9768006086349488,16200.0,0.6127909111976624,12.267728652954101,324.0,50.0,-1.8325038094129997,41.210474365582535,16200,16200.0,575.1384851932526
0.4299314022064209,0.0697687841206789,-12.05148609161377,-1.0063178420066834,16250.0,0.6291486954689026,12.22959213256836,325.0,50.0,8.288038795821755,44.43963185376543,16250,16250.0,576.2636070251465
0.4299314022064209,0.08775543056428432,-12.728321571350097,-0.9818649888038635,16300.0,0.61156036734581,12.906242294311523,326.0,50.0,-8.118847142824713,41.626817716534575,16300,16300.0,577.4647557735443
0.4299314022064209,0.0667180459573865,-12.887527885437011,-0.9957612299919129,16350.0,0.6196681034564971,13.117220916748046,327.0,50.0,10.572923631786542,43.09395012601549,16350,16350.0,578.6250114440918
0.4299314022064209,0.07594625148922204,-13.573984069824219,-0.98529137134552,16400.0,0.6167269372940063,13.764363098144532,328.0,50.0,0.6973928183816831,42.00864069330667,16400,16400.0,579.815242767334
0.4299314022064209,0.06935981091111898,-14.101575241088867,-0.9833828210830688,16450.0,0.6406319379806519,14.33670295715332,329.0,50.0,-11.925675726198907,41.68748736495535,16450,16450.0,581.0146434307098
0.4299314022064209,0.06388860777020454,-14.235202026367187,-0.9980223274230957,16500.0,0.6335935282707215,14.47433765411377,330.0,50.0,-4.8571887442494095,43.62713465182994,16500,16500.0,582.1607191562653
0.4299314022064209,0.0684732885658741,-14.815219650268554,-0.9750725173950195,16550.0,0.6432196187973023,15.017111701965332,331.0,50.0,-5.156929435981418,17.86835191268675,16550,16550.0,584.9589626789093
0.4299314022064209,0.05717361576855182,-15.107059288024903,-0.9900511193275452,16600.0,0.6287543725967407,15.383956489562989,332.0,50.0,-12.761133543869992,36.48185259407704,16600,16600.0,586.329507112503
0.4299314022064209,0.08624799992889166,-15.653811073303222,-0.9953799414634704,16650.0,0.6176401233673096,15.945080184936524,333.0,50.0,0.4835977297554326,33.97705216565731,16650,16650.0,587.8010885715485
0.4299314022064209,0.06426218543201685,-16.13073024749756,-0.9848265743255615,16700.0,0.6602996873855591,16.39951202392578,334.0,50.0,-5.9422571532396375,28.439676725201775,16700,16700.0,589.5591957569122
0.4299314022064209,0.057816074155271055,-16.55046329498291,-0.981532244682312,16750.0,0.6844986748695373,16.827078132629396,335.0,50.0,1.9261045799332308,33.74336786535168,16750,16750.0,591.0409684181213
0.4299314022064209,0.07952762380242348,-17.175021438598634,-0.9560945558547974,16800.0,0.6635719203948974,17.43448871612549,336.0,50.0,-6.897257869223019,38.04095137205962,16800,16800.0,592.3553414344788
0.4299314022064209,0.0776682372018695,-17.479538955688476,-0.9841381239891053,16850.0,0.6704959869384766,17.746111488342287,337.0,50.0,3.626766495983972,36.04313244195062,16850,16850.0,593.7425682544708
0.4299314022064209,0.05804721180349588,-17.58745849609375,-0.9948042035102844,16900.0,0.6452481913566589,17.929016494750975,338.0,50.0,-8.680974957621551,36.525930398849226,16900,16900.0,595.1114587783813
0.4299314022064209,0.06904725767672062,-18.16691200256348,-0.9865860271453858,16950.0,0.6581614494323731,18.478486824035645,339.0,50.0,11.669187188699748,30.632972741551676,16950,16950.0,596.743686914444
0.4299314022064209,0.06795364232733846,-18.79557731628418,-0.9652559494972229,17000.0,0.6693794012069703,19.11089469909668,340.0,50.0,10.380431449157893,30.562388805853562,17000,17000.0,598.3796846866608
0.4299314022064209,0.08184597983956338,-19.23065155029297,-0.9630441451072693,17050.0,0.6897366452217102,19.548538284301756,341.0,50.0,0.2542288807294639,14.983623522055195,17050,17050.0,601.7166612148285
0.4299314022064209,0.05948238383978605,-20.05163414001465,-0.9316806554794311,17100.0,0.6625552010536194,20.37486457824707,342.0,50.0,-3.2046679155163584,27.22072290507782,17100,17100.0,603.5534970760345
0.4299314022064209,0.07879141464829445,-20.133212356567384,-0.9499132204055786,17150.0,0.6541932272911072,20.488559951782225,343.0,50.0,-6.621853982723117,29.627394354278398,17150,17150.0,605.2411243915558
0.4299314022064209,0.0682260624319315,-20.446095809936523,-0.9567655038833618,17200.0,0.7262856674194336,20.82276123046875,344.0,50.0,5.266981923132336,30.972175208578125,17200,17200.0,606.8554766178131
0.4299314022064209,0.07778155162930489,-21.39821403503418,-0.916329140663147,17250.0,0.6956085562705994,21.74742706298828,345.0,50.0,1.1359057671330977,32.21597424752272,17250,17250.0,608.4075016975403
0.4299314022064209,0.07415604896843433,-21.806996002197266,-0.9306623935699463,17300.0,0.6986763858795166,22.138783264160157,346.0,50.0,10.894823863813135,26.19324240844458,17300,17300.0,610.3163909912109
0.4299314022064209,0.06111993193626404,-21.408260803222657,-0.9745659065246582,17350.0,0.7139299321174621,21.767816009521486,347.0,50.0,2.378053028373289,26.24178986817491,17350,17350.0,612.2217488288879
0.4299314022064209,0.07323953859508038,-22.188934936523438,-0.9687148451805114,17400.0,0.6957305479049682,22.557296524047853,348.0,50.0,7.865681128240196,26.336624984474824,17400,17400.0,614.1202456951141
0.4299314022064209,0.07006225753575564,-22.619321823120117,-0.9641230654716492,17450.0,0.7210123777389527,23.023057327270507,349.0,50.0,6.953105358886802,25.11036023631004,17450,17450.0,616.1114556789398
0.4299314022064209,0.06812000874429941,-23.35817855834961,-0.9330635666847229,17500.0,0.6636420059204101,23.803066864013672,350.0,50.0,9.092374374015959,26.159200816377343,17500,17500.0,618.0228290557861
0.4299314022064209,0.07112527828663588,-23.483509826660157,-0.9334601140022278,17550.0,0.7183177638053894,23.897787780761718,351.0,50.0,-4.9999135230729355,11.188156372948432,17550,17550.0,622.4918406009674
0.4299314022064209,0.06271041616797447,-24.7082755279541,-0.9027393174171447,17600.0,0.6897942709922791,25.172770462036134,352.0,50.0,6.810535959251883,27.76677808762862,17600,17600.0,624.2925536632538
0.4299314022064209,0.06537487864494324,-24.649673080444337,-0.9224783563613892,17650.0,0.7170333075523376,25.082989807128907,353.0,50.0,-3.9978592431534086,24.01622770085393,17650,17650.0,626.3744792938232
0.4299314022064209,0.06554949138313532,-25.187152633666994,-0.9120904517173767,17700.0,0.6968573141098022,25.639393310546875,354.0,50.0,-0.8045333195829514,27.49779784433939,17700,17700.0,628.1928067207336
0.4299314022064209,0.05865801488980651,-25.90442039489746,-0.8894144010543823,17750.0,0.7134462118148803,26.334454498291016,355.0,50.0,-6.159611492973706,20.443859887530852,17750,17750.0,630.6385288238525
0.4299314022064209,0.08525246724486352,-26.041293563842775,-0.9000005626678467,17800.0,0.7117233514785767,26.509629516601564,356.0,50.0,11.56366800855588,20.875257923139028,17800,17800.0,633.0337088108063
0.4299314022064209,0.07548791866749525,-26.736492233276365,-0.8809185981750488,17850.0,0.6658731818199157,27.222668838500976,357.0,50.0,17.488108937497948,21.962735594008095,17850,17850.0,635.3102922439575
0.4299314022064209,0.0500691032409668,-27.0092684173584,-0.8937776899337768,17900.0,0.7082230710983276,27.530264587402343,358.0,50.0,-8.042935435454005,21.000978071941514,17900,17900.0,637.6911337375641
0.4299314022064209,0.07464052885770797,-27.685792083740235,-0.8728086400032044,17950.0,0.715328904390335,28.163730392456056,359.0,50.0,-3.940502522399278,18.596651373352284,17950,17950.0,640.3797898292542
0.4299314022064209,0.062100375927984716,-27.734355239868165,-0.9037321972846984,18000.0,0.7397527456283569,28.258828125,360.0,50.0,-4.274000780916509,20.15141000640532,18000,18000.0,642.861005783081
0.4299314022064209,0.07434904452413321,-28.554039459228516,-0.871928198337555,18050.0,0.700910964012146,29.0919979095459,361.0,50.0,6.2275951816002255,9.824839141046168,18050,18050.0,647.9501476287842
0.4299314022064209,0.06792965050786734,-29.317448348999022,-0.8428637194633484,18100.0,0.7050824666023254,29.81942138671875,362.0,50.0,-8.819129176824738,20.60436059635328,18100,18100.0,650.3768184185028
0.4299314022064209,0.07529177963733673,-28.910862350463866,-0.9080287480354309,18150.0,0.7195645928382873,29.463821487426756,363.0,50.0,-0.915431474240199,20.08039234836429,18150,18150.0,652.8668096065521
0.4299314022064209,0.053531313799321655,-29.296338119506835,-0.9108322048187256,18200.0,0.7329485130310058,29.823092575073243,364.0,50.0,-8.482073391974978,23.639971629581165,18200,18200.0,654.9818713665009
0.4299314022064209,0.06504365123808384,-29.363727188110353,-0.9263327097892762,18250.0,0.7262988376617432,29.954474029541014,365.0,50.0,-2.1364234232385364,25.00181807387174,18250,18250.0,656.9817259311676
0.4299314022064209,0.0763846386037767,-29.8309366607666,-0.9285404205322265,18300.0,0.7235180401802063,30.458690490722656,366.0,50.0,-10.891575346540531,21.041778498406178,18300,18300.0,659.357950925827
0.4299314022064209,0.06839527785778046,-30.397785568237303,-0.9015497827529907,18350.0,0.7391623210906982,30.999953994750978,367.0,50.0,1.5276839240149105,22.94977951970917,18350,18350.0,661.53662109375
0.4299314022064209,0.09064654126763344,-31.22613967895508,-0.8802582740783691,18400.0,0.7246156787872314,31.811124877929686,368.0,50.0,-4.267263349519109,26.788894540647828,18400,18400.0,663.4030661582947
0.4299314022064209,0.07869062680751085,-31.706291122436525,-0.8794320130348205,18450.0,0.7242217755317688,32.30318977355957,369.0,50.0,-8.598548794605957,29.31225463947771,18450,18450.0,665.1088373661041
0.4299314022064209,0.06332743110135197,-32.169534301757814,-0.8738788676261902,18500.0,0.7368246340751647,32.826734161376955,370.0,50.0,14.174186099032934,26.587883320488313,18500,18500.0,666.9893932342529
0.4299314022064209,0.06708095584064722,-32.431602783203125,-0.8644277000427246,18550.0,0.7377633452415466,33.08513397216797,371.0,50.0,-8.559450815444023,10.99596738885938,18550,18550.0,671.5365147590637
0.4299314022064209,0.047848431020975114,-32.432053298950194,-0.8878183794021607,18600.0,0.730845639705658,33.1117098236084,372.0,50.0,-2.944899254247739,33.35470933724209,18600,18600.0,673.0355534553528
0.4299314022064209,0.0755562325194478,-33.28482383728027,-0.8570461559295655,18650.0,0.7526490759849548,33.91375106811523,373.0,50.0,-0.4402692359751761,30.489349854833527,18650,18650.0,674.6754703521729
0.4299314022064209,0.07400068249553442,-33.522560577392575,-0.8649597477912903,18700.0,0.7389968466758728,34.18853546142578,374.0,50.0,-2.575358939489906,30.652476246783515,18700,18700.0,676.3066599369049
0.4299314022064209,0.06329322457313538,-33.88228485107422,-0.8413364171981812,18750.0,0.7238548278808594,34.51528045654297,375.0,50.0,11.994882452639244,30.3736499224927,18750,18750.0,677.952823638916
0.4299314022064209,0.0504535485804081,-34.075710678100585,-0.8661118817329406,18800.0,0.7435536050796508,34.785965576171876,376.0,50.0,16.62534461957776,28.45854865679144,18800,18800.0,679.709764957428
0.4299314022064209,0.07332927078008651,-35.17623916625976,-0.8459249114990235,18850.0,0.709328031539917,35.895450286865234,377.0,50.0,-1.7896796266350545,33.43992833499245,18850,18850.0,681.2049834728241
0.4299314022064209,0.06041316635906696,-35.16523162841797,-0.8721908187866211,18900.0,0.7339595937728882,35.913895263671876,378.0,50.0,8.802555992606797,33.09818542920516,18900,18900.0,682.7156403064728
0.4299314022064209,0.05901499394327402,-35.763413696289064,-0.8398000955581665,18950.0,0.7333445882797242,36.47754348754883,379.0,50.0,0.6269911282359022,29.50314923642746,18950,18950.0,684.4103746414185
0.4299314022064209,0.07043202564120293,-36.22522811889648,-0.843952031135559,19000.0,0.761950523853302,37.00719848632812,380.0,50.0,0.260444505066296,33.534584891277945,19000,19000.0,685.9013726711273
0.4299314022064209,0.06309527091681957,-36.92875045776367,-0.8022460889816284,19050.0,0.7555409598350525,37.66205596923828,381.0,50.0,-2.335942262350935,15.215496247878093,19050,19050.0,689.1874961853027
0.4299314022064209,0.07331704158335924,-36.98936996459961,-0.8261851167678833,19100.0,0.7277499747276306,37.777613677978515,382.0,50.0,0.7039994544883097,32.65876154556159,19100,19100.0,690.7184789180756
0.4299314022064209,0.06479810431599617,-36.79832290649414,-0.8694346046447754,19150.0,0.7498870396614075,37.59078338623047,383.0,50.0,4.769891146561918,39.15657949031052,19150,19150.0,691.9954035282135
0.4299314022064209,0.07870390482246875,-37.483128967285154,-0.8314880156517028,19200.0,0.7159628653526307,38.22964797973633,384.0,50.0,-4.669677420399108,37.08407005392804,19200,19200.0,693.3436913490295
0.4299314022064209,0.07869501940906048,-38.05025741577148,-0.8331401968002319,19250.0,0.7432799363136291,38.81699493408203,385.0,50.0,-8.437678476855986,40.53195249929891,19250,19250.0,694.5772860050201
0.4299314022064209,0.06969497047364712,-38.29046768188476,-0.8372373747825622,19300.0,0.7453063464164734,39.10894073486328,386.0,50.0,8.14875371952632,40.448788929137585,19300,19300.0,695.8134169578552
0.4299314022064209,0.05843694586306811,-38.86908920288086,-0.8075741577148438,19350.0,0.717933042049408,39.68405181884766,387.0,50.0,3.978711331804872,41.31565353789634,19350,19350.0,697.0236120223999
0.4299314022064209,0.06687248406931758,-39.009279327392576,-0.8296903944015503,19400.0,0.7282767200469971,39.795332489013674,388.0,50.0,-8.738205014833035,35.455858795484225,19400,19400.0,698.4338161945343
0.4299314022064209,0.04666570231318474,-39.39134826660156,-0.8328447604179382,19450.0,0.7217623996734619,40.2438037109375,389.0,50.0,-0.5853919402576189,32.900806160366706,19450,19450.0,699.9535357952118
0.4299314022064209,0.06843403827399015,-39.62208099365235,-0.8331322383880615,19500.0,0.7327728033065796,40.47318008422852,390.0,50.0,7.250280991881846,27.150027271047804,19500,19500.0,701.7951545715332
0.4299314022064209,0.07894620180130005,-39.49118179321289,-0.8598103499412537,19550.0,0.7662889623641967,40.35162307739258,391.0,50.0,9.399632733192966,17.243214563301812,19550,19550.0,704.6948459148407
0.4299314022064209,0.0596632469817996,-39.88940139770508,-0.8662024474143982,19600.0,0.7274512076377868,40.796860961914064,392.0,50.0,0.0970961646543369,34.5089552228982,19600,19600.0,706.1437451839447
0.4299314022064209,0.09026659306138754,-40.879675750732424,-0.807050290107727,19650.0,0.7082030868530274,41.772736053466794,393.0,50.0,7.551077512717145,34.99027033989491,19650,19650.0,707.5727138519287
0.4299314022064209,0.06416812852025032,-40.889080657958985,-0.8541900539398193,19700.0,0.7268078970909119,41.79188110351563,394.0,50.0,-1.4945268426565672,30.866802694475094,19700,19700.0,709.192577123642
0.4299314022064209,0.06601779207587243,-41.17398422241211,-0.839320113658905,19750.0,0.7468339610099792,42.119684295654295,395.0,50.0,-7.573563685787448,32.16588479220688,19750,19750.0,710.7470190525055
0.4299314022064209,0.06769186843186617,-41.69168121337891,-0.8219498252868652,19800.0,0.7509753394126892,42.58554672241211,396.0,50.0,-2.165875956090737,41.694996466023625,19800,19800.0,711.9462037086487
0.4299314022064209,0.06967329397797585,-42.4526870727539,-0.7977065992355347,19850.0,0.7250202322006225,43.37405151367187,397.0,50.0,-6.861047614163887,27.07366045119239,19850,19850.0,713.7930171489716
0.4299314022064209,0.0873399791866541,-42.55137344360352,-0.8371667528152466,19900.0,0.7610240459442139,43.49976104736328,398.0,50.0,11.403349398184654,14.60760153184115,19900,19900.0,717.2158925533295
0.4299314022064209,0.058179893121123316,-42.777705078125,-0.82428058385849,19950.0,0.7425599622726441,43.786674652099606,399.0,50.0,-10.46633032514351,29.66624568265048,19950,19950.0,718.9013097286224
0.4299314022064209,0.07308866240084172,-43.7450927734375,-0.7763585233688355,20000.0,0.7064983868598937,44.733208923339845,400.0,50.0,-9.206503569766422,43.69508169054581,20000,20000.0,720.0456032752991
0.4299314022064209,0.06230420514941216,-43.71434768676758,-0.8053976631164551,20050.0,0.7078561758995057,44.67251678466797,401.0,50.0,-2.529857756302702,19.61240210758657,20050,20050.0,722.5950105190277
0.4299314022064209,0.045059678219258784,-44.06447662353516,-0.7935219192504883,20100.0,0.7508614873886108,45.08764663696289,402.0,50.0,-5.399375168504179,35.45717761372061,20100,20100.0,724.0051622390747
0.4299314022064209,0.06834025699645281,-44.4739387512207,-0.8126152300834656,20150.0,0.7182605218887329,45.46091003417969,403.0,50.0,4.583404056098249,32.46739755591008,20150,20150.0,725.5451686382294
0.4299314022064209,0.0794785962626338,-44.67982208251953,-0.7930396437644959,20200.0,0.7435776507854461,45.67612182617187,404.0,50.0,-0.010771473730644132,41.32585488759571,20200,20200.0,726.7550649642944
0.4299314022064209,0.059415147751569745,-45.339544677734374,-0.7729161500930786,20250.0,0.7552639603614807,46.37236282348633,405.0,50.0,-1.1929194786518025,37.59431060222545,20250,20250.0,728.0850534439087
0.4299314022064209,0.0737307757884264,-45.109747314453124,-0.8037302136421204,20300.0,0.7306822085380554,46.10774673461914,406.0,50.0,3.5078574055531053,39.675663138115596,20300,20300.0,729.3452718257904
0.4299314022064209,0.06777983080595731,-45.73964553833008,-0.8037816309928894,20350.0,0.744024121761322,46.79232360839844,407.0,50.0,-2.87275130025259,36.23688322495599,20350,20350.0,730.7250814437866
0.4299314022064209,0.07525520950555802,-45.997479095458985,-0.7901968812942505,20400.0,0.7411101007461548,47.04857513427734,408.0,50.0,-4.21431845207108,39.4437424790542,20400,20400.0,731.9927096366882
0.4299314022064209,0.07060795448720456,-45.89745086669922,-0.8249129343032837,20450.0,0.7130573987960815,46.97716735839844,409.0,50.0,9.634051399424896,32.9214603008053,20450,20450.0,733.5114758014679
0.4299314022064209,0.06870567802339793,-46.44858413696289,-0.8015614008903503,20500.0,0.7277063345909118,47.511616973876954,410.0,50.0,-7.986822352261665,32.37362350676486,20500,20500.0,735.0559430122375
0.4299314022064209,0.09242728382349014,-46.93958480834961,-0.7936163449287414,20550.0,0.7572673845291138,48.030802154541014,411.0,50.0,-5.242738558777436,17.07041332232506,20550,20550.0,737.9849874973297
0.4299314022064209,0.08241477537900209,-47.23833740234375,-0.781000075340271,20600.0,0.7175392150878906,48.348057403564454,412.0,50.0,8.138177070308007,33.69892219471584,20600,20600.0,739.4687144756317
0.4299314022064209,0.07966777078807354,-47.399648895263674,-0.8039486563205719,20650.0,0.7132976412773132,48.478042907714844,413.0,50.0,3.079193312452338,39.54998882609922,20650,20650.0,740.732937335968
0.4299314022064209,0.08912324607372284,-48.200274047851565,-0.7455775308609008,20700.0,0.7429038286209106,49.283905029296875,414.0,50.0,9.738858723050669,37.4339085932707,20700,20700.0,742.0686247348785
0.4299314022064209,0.06156466826796532,-48.27455841064453,-0.792572717666626,20750.0,0.7458941507339477,49.417843627929685,415.0,50.0,4.751557726587457,37.94386993994013,20750,20750.0,743.3863606452942
0.4299314022064209,0.05757873095571995,-48.58958099365234,-0.779042592048645,20800.0,0.7409000253677368,49.73988067626953,416.0,50.0,15.717579459919445,36.45843691739399,20800,20800.0,744.757785320282
0.4299314022064209,0.05781432468444109,-49.193257598876954,-0.7472336864471436,20850.0,0.7100546717643738,50.30482574462891,417.0,50.0,-3.9000959199087486,37.87833140794589,20850,20850.0,746.0778012275696
0.4299314022064209,0.06908887650817633,-49.19759262084961,-0.76704505443573,20900.0,0.6933597016334534,50.368616638183596,418.0,50.0,2.32597562933144,33.60082263976937,20900,20900.0,747.5658600330353
0.4299314022064209,0.09846768166869879,-49.53508346557617,-0.7768565940856934,20950.0,0.7298006010055542,50.64572631835937,419.0,50.0,-13.199747185055962,36.57621873958451,20950,20950.0,748.9328684806824
0.4299314022064209,0.05396885290741921,-49.89082855224609,-0.7524644184112549,21000.0,0.7256392121315003,51.06269622802734,420.0,50.0,-4.105548450536343,37.17830554026516,21000,21000.0,750.2777388095856
0.4299314022064209,0.07396730229258537,-50.13098846435547,-0.7787094664573669,21050.0,0.7576636171340942,51.31944671630859,421.0,50.0,-10.704018857761486,17.730642281261837,21050,21050.0,753.0977156162262
0.4299314022064209,0.06153033416718245,-50.411378936767576,-0.7770406842231751,21100.0,0.7324739289283753,51.59550308227539,422.0,50.0,-9.359339596188228,35.46403105321384,21100,21100.0,754.5075948238373
0.4299314022064209,0.05379043839871883,-50.950369873046874,-0.7628388571739196,21150.0,0.7216019630432129,52.1852392578125,423.0,50.0,3.8712256259194273,35.279023052169634,21150,21150.0,755.9248676300049
0.4299314022064209,0.05956199871376157,-51.08370040893555,-0.7551216316223145,21200.0,0.6984529280662537,52.32455612182617,424.0,50.0,7.794270285464668,34.724227326035866,21200,21200.0,757.3647844791412
0.4299314022064209,0.05940042831003666,-50.87289260864258,-0.8036210799217224,21250.0,0.7131103229522705,52.154203186035154,425.0,50.0,5.038977378777469,31.891691075398995,21250,21250.0,758.9325909614563
0.4299314022064209,0.08145879488438368,-52.00098342895508,-0.7194838356971741,21300.0,0.7316262245178222,53.20889190673828,426.0,50.0,8.498616132053716,24.70400922781595,21300,21300.0,760.9565539360046
0.4299314022064209,0.07443611152470112,-51.76271057128906,-0.7739072561264038,21350.0,0.7201249361038208,52.984151458740236,427.0,50.0,-0.73950820312524,29.82914840469005,21350,21350.0,762.6327667236328
0.4299314022064209,0.08946441821753978,-52.167660827636716,-0.7776052021980285,21400.0,0.7376783108711242,53.393411254882814,428.0,50.0,-4.818833526115762,31.827623038918553,21400,21400.0,764.2037291526794
0.4299314022064209,0.06437440052628517,-52.34130142211914,-0.7745854520797729,21450.0,0.7315472388267517,53.608348236083984,429.0,50.0,-0.16634301732419665,25.754416464045963,21450,21450.0,766.1451437473297
0.4299314022064209,0.05414126742631197,-53.032955474853516,-0.7197178721427917,21500.0,0.6928963923454284,54.30787811279297,430.0,50.0,-3.4918248390277604,18.81690868763145,21500,21500.0,768.8023283481598
0.4299314022064209,0.07396978564560414,-52.907220611572264,-0.7674022459983826,21550.0,0.7254657864570617,54.19433074951172,431.0,50.0,1.3159164374540282,10.35070350315565,21550,21550.0,773.632917881012
0.4299314022064209,0.057953066173940894,-53.1954948425293,-0.7771820640563964,21600.0,0.7299240827560425,54.50809326171875,432.0,50.0,-10.719543641409981,20.139187519026166,21600,21600.0,776.1156396865845
0.4299314022064209,0.05518044039607048,-53.85539245605469,-0.720992567539215,21650.0,0.7227729105949402,55.11571792602539,433.0,50.0,-1.9872027395028944,22.315077333642623,21650,21650.0,778.3562772274017
0.4299314022064209,0.06782279150560498,-53.76721740722656,-0.745390567779541,21700.0,0.749506344795227,55.09962646484375,434.0,50.0,3.027596110090345,24.811601665060792,21700,21700.0,780.3714635372162
0.4299314022064209,0.07817091042175889,-54.122383728027344,-0.7549211239814758,21750.0,0.7278808236122132,55.41358947753906,435.0,50.0,11.621975310775474,23.697615483037545,21750,21750.0,782.4813804626465
0.4299314022064209,0.08008907780051232,-54.29208953857422,-0.7621257281303406,21800.0,0.723309781551361,55.65048126220703,436.0,50.0,2.275173439509187,25.127073027976255,21800,21800.0,784.4712660312653
0.4299314022064209,0.07353847451508046,-54.764358062744144,-0.7353475379943848,21850.0,0.7136619091033936,56.068597564697264,437.0,50.0,-4.327218442438724,20.860732820138807,21850,21850.0,786.8681137561798
0.4299314022064209,0.06499885514378548,-55.21735931396484,-0.7118167567253113,21900.0,0.7342217373847961,56.53129104614258,438.0,50.0,-3.739752881337491,23.08890411400798,21900,21900.0,789.0336561203003
0.4299314022064209,0.05710562631487846,-55.143379821777344,-0.7510720348358154,21950.0,0.7029836344718933,56.55382034301758,439.0,50.0,4.929417561032045,20.71384801621746,21950,21950.0,791.4475002288818
0.4299314022064209,0.0700380764901638,-55.60478500366211,-0.7328782987594604,22000.0,0.7222404885292053,56.98272232055664,440.0,50.0,-0.19659526320497633,16.084487984715246,22000,22000.0,794.5560853481293
0.4299314022064209,0.05510161254554987,-55.9619612121582,-0.7100364661216736,22050.0,0.7173299503326416,57.31824829101563,441.0,50.0,-13.32974253797931,7.576915199292208,22050,22050.0,801.1550769805908
0.4299314022064209,0.07351845420897007,-55.71196701049805,-0.7496193051338196,22100.0,0.7132273840904236,57.13704620361328,442.0,50.0,-3.4174594680875394,15.92614086922632,22100,22100.0,804.2945694923401
0.4299314022064209,0.0693114809691906,-56.4519645690918,-0.7205003333091736,22150.0,0.7090933752059937,57.88654266357422,443.0,50.0,-2.2675424706354175,16.020933113135953,22150,22150.0,807.4154863357544
0.4299314022064209,0.0648940660059452,-56.38400863647461,-0.7520728206634522,22200.0,0.7226455521583557,57.82421203613281,444.0,50.0,-11.684822803191867,24.622904709807752,22200,22200.0,809.4461159706116
0.4299314022064209,0.08409655481576919,-56.89186294555664,-0.7241006922721863,22250.0,0.68912677526474,58.31107971191406,445.0,50.0,-5.571709921684182,26.739220712124638,22250,22250.0,811.3160283565521
0.4299314022064209,0.06862959165126085,-56.88076385498047,-0.7510234832763671,22300.0,0.7363128566741943,58.3210237121582,446.0,50.0,-5.2887370938247,26.408229804709112,22300,22300.0,813.2093775272369
0.4299314022064209,0.0697803371027112,-57.4625244140625,-0.720080111026764,22350.0,0.710897057056427,58.88624298095703,447.0,50.0,6.0214424429013995,26.54954486085793,22350,22350.0,815.0926489830017
0.4299314022064209,0.0665875450335443,-57.50933319091797,-0.7268640279769898,22400.0,0.6996057558059693,58.942952728271486,448.0,50.0,0.3817324077188271,23.57354688946719,22400,22400.0,817.2136704921722
0.4299314022064209,0.06396544637158513,-57.34154006958008,-0.7689234519004822,22450.0,0.6919032120704651,58.83627166748047,449.0,50.0,-5.995365689093525,25.29405067223988,22450,22450.0,819.1904199123383
0.4299314022064209,0.07863537408411503,-58.405515899658205,-0.7187072992324829,22500.0,0.6817819237709045,59.89383911132813,450.0,50.0,2.878370195939935,31.22450444183655,22500,22500.0,820.7917263507843
0.4299314022064209,0.06776286158710718,-58.50163116455078,-0.6876416683197022,22550.0,0.6753960227966309,59.95364044189453,451.0,50.0,0.14619275651183727,14.861967346577785,22550,22550.0,824.1560184955597
0.4299314022064209,0.06952143996953965,-58.54034317016602,-0.7101635587215424,22600.0,0.7347673964500427,59.980801544189454,452.0,50.0,2.271338399490734,17.66678230255369,22600,22600.0,826.9861886501312
0.4299314022064209,0.06796746786683798,-58.958772888183596,-0.7122230565547943,22650.0,0.7288698363304138,60.444703826904295,453.0,50.0,-5.055508256430674,19.475937444888345,22650,22650.0,829.5534591674805
0.4299314022064209,0.08558683458715677,-59.022559356689456,-0.7266575384140015,22700.0,0.6990870571136475,60.512339935302734,454.0,50.0,-8.845027962403599,20.37955704448456,22700,22700.0,832.0068981647491
0.4299314022064209,0.08198562264442444,-59.00780242919922,-0.7644888401031494,22750.0,0.6962444448471069,60.51699844360351,455.0,50.0,-7.464843237280363,24.90424672726459,22750,22750.0,834.0145878791809
0.4299314022064209,0.06831622757017612,-59.37099945068359,-0.7270486664772033,22800.0,0.7304325819015502,60.91857681274414,456.0,50.0,-0.8376018222452242,32.02652587622927,22800,22800.0,835.5757937431335
0.4299314022064209,0.06625401832163334,-59.54668167114258,-0.7215541076660156,22850.0,0.7248375844955445,61.036263427734376,457.0,50.0,3.0189366246348897,33.21899982734342,22850,22850.0,837.0809564590454
0.4299314022064209,0.07603758960962295,-59.65483657836914,-0.7372319412231445,22900.0,0.7211303400993347,61.15700881958008,458.0,50.0,12.428215646187013,27.26493853027541,22900,22900.0,838.9148135185242
0.4299314022064209,0.069768669269979,-60.06044311523438,-0.7353809261322022,22950.0,0.7074241137504578,61.63257354736328,459.0,50.0,-9.597209085813276,29.001682860749877,22950,22950.0,840.6388514041901
0.4299314022064209,0.0652476667612791,-60.399027252197264,-0.7207961368560791,23000.0,0.7293281197547913,61.918217163085934,460.0,50.0,7.91713470389119,31.401561070037324,23000,23000.0,842.2311289310455
0.4299314022064209,0.0541230308264494,-60.462401428222655,-0.7185942244529724,23050.0,0.759309184551239,61.99371627807617,461.0,50.0,5.217801250051842,17.925519011725022,23050,23050.0,845.0204484462738
0.4299314022064209,0.082434860765934,-60.8547282409668,-0.7185644555091858,23100.0,0.7111500239372254,62.39152374267578,462.0,50.0,-1.431950855916515,36.869585886283595,23100,23100.0,846.3765797615051
0.4299314022064209,0.06732455726712942,-61.1736767578125,-0.7111504554748536,23150.0,0.7118619394302368,62.728500823974606,463.0,50.0,-5.735941679906205,35.627441776628906,23150,23150.0,847.7799923419952
0.4299314022064209,0.05176927983760834,-61.3403890991211,-0.7048575186729431,23200.0,0.7164513897895813,62.862179870605466,464.0,50.0,9.749799506392367,37.97079375839434,23200,23200.0,849.0977902412415
0.4299314022064209,0.07707142014056444,-61.84162994384766,-0.6886079704761505,23250.0,0.6947556138038635,63.418715209960936,465.0,50.0,10.682578453448112,39.838340626368336,23250,23250.0,850.3528625965118
0.4299314022064209,0.06458649745211005,-61.93263427734375,-0.7140279936790467,23300.0,0.6983471250534058,63.50095947265625,466.0,50.0,-8.414606165440237,38.07254681794127,23300,23300.0,851.6661448478699
0.4299314022064209,0.06931600884534418,-62.340704650878905,-0.690328106880188,23350.0,0.7161333274841308,63.93863296508789,467.0,50.0,6.664824600531999,35.419480146599334,23350,23350.0,853.0777974128723
0.4299314022064209,0.07104157337918877,-62.357740325927736,-0.6779054391384125,23400.0,0.6787571930885314,63.910233154296876,468.0,50.0,0.8365222310406004,34.133977789945256,23400,23400.0,854.5426135063171
0.4299314022064209,0.07161888591945172,-62.172897033691406,-0.7161176872253417,23450.0,0.6983726358413697,63.77710845947266,469.0,50.0,-7.3528669583940705,34.36025980830757,23450,23450.0,855.9977829456329
0.4299314022064209,0.07099817506968975,-63.01449569702149,-0.6827195978164673,23500.0,0.7228132927417755,64.63487014770507,470.0,50.0,-3.6787447985564974,40.297530634087664,23500,23500.0,857.2385537624359
0.4299314022064209,0.04712773777544498,-62.598617248535156,-0.7235114693641662,23550.0,0.691407413482666,64.23834014892579,471.0,50.0,15.957722071631759,17.651873387079124,23550,23550.0,860.0711143016815
0.4299314022064209,0.06336785584688187,-62.58289855957031,-0.7353162693977356,23600.0,0.706249656677246,64.27515594482422,472.0,50.0,8.355749411037364,39.81744162335544,23600,23600.0,861.326845407486
0.4299314022064209,0.06854359835386276,-63.20660766601563,-0.7296524596214294,23650.0,0.703316707611084,64.84777389526367,473.0,50.0,10.898990870310309,40.62546673767052,23650,23650.0,862.5576004981995
0.4299314022064209,0.08876599662005902,-63.80224670410156,-0.6768475413322449,23700.0,0.7038092708587647,65.43573104858399,474.0,50.0,6.845779971416178,38.66644541549127,23700,23700.0,863.8507113456726
0.4299314022064209,0.06752811715006829,-64.02215805053712,-0.6699261486530304,23750.0,0.7282911038398743,65.66226135253906,475.0,50.0,0.9351051998454629,41.43323716329538,23750,23750.0,865.0574719905853
0.4299314022064209,0.07317337468266487,-64.35609191894531,-0.6508911716938018,23800.0,0.7081760549545288,66.01398254394532,476.0,50.0,5.255783204821952,41.21996757283092,23800,23800.0,866.2704763412476
0.4299314022064209,0.06236279748380184,-64.43124252319336,-0.6618434679508209,23850.0,0.6855409002304077,66.12778289794922,477.0,50.0,15.784841401788276,33.01345503820909,23850,23850.0,867.7850103378296
0.4299314022064209,0.0770591339841485,-64.93899444580079,-0.6401187920570374,23900.0,0.6827353715896607,66.56533386230468,478.0,50.0,7.195077747888792,35.71705085402186,23900,23900.0,869.1849019527435
0.4299314022064209,0.0654104422032833,-64.74798477172851,-0.6679467058181763,23950.0,0.7389365029335022,66.3919613647461,479.0,50.0,-7.478184213305436,37.447143447162375,23950,23950.0,870.5201172828674
0.4299314022064209,0.07259344518184661,-65.20885498046874,-0.6538949835300446,24000.0,0.6816264820098877,66.900048828125,480.0,50.0,11.267384639346023,35.68114225824673,24000,24000.0,871.9214177131653
0.4299314022064209,0.060843674167990684,-65.12907608032226,-0.645206390619278,24050.0,0.6917603492736817,66.79802185058594,481.0,50.0,-5.951197107143901,17.7285258611449,24050,24050.0,874.7417311668396
0.4299314022064209,0.054641306065022946,-65.32914733886719,-0.6675569772720337,24100.0,0.7088934969902039,67.05464935302734,482.0,50.0,2.1249886800176547,43.587056600871676,24100,24100.0,875.8888607025146
0.4299314022064209,0.07013249255716801,-65.6748843383789,-0.659496705532074,24150.0,0.7084299111366272,67.3767251586914,483.0,50.0,-6.759997165690027,41.240467397417596,24150,24150.0,877.1012620925903
0.4299314022064209,0.07947441931813955,-65.88583023071288,-0.6384546494483948,24200.0,0.6757224059104919,67.56297271728516,484.0,50.0,-2.8619120785150027,36.71867079991701,24200,24200.0,878.4629671573639
0.4299314022064209,0.08573228606954217,-65.88941040039063,-0.6673618650436401,24250.0,0.6919574427604676,67.6117138671875,485.0,50.0,7.441883076880682,40.38947499991815,24250,24250.0,879.7009134292603
0.4299314022064209,0.056786621920764446,-65.59858779907226,-0.7182782888412476,24300.0,0.7036034345626831,67.38081176757812,486.0,50.0,6.064521534565094,40.538008829184015,24300,24300.0,880.9343237876892
0.4299314022064209,0.05042892813682556,-66.31660827636719,-0.6655616939067841,24350.0,0.6957894325256347,68.06671051025391,487.0,50.0,6.722785648591536,38.3342253574677,24350,24350.0,882.2386412620544
0.4299314022064209,0.06213435783982277,-66.2486294555664,-0.6792665648460389,24400.0,0.6908088517189026,67.95757171630859,488.0,50.0,-6.680667459801139,38.57265406239746,24400,24400.0,883.5348963737488
0.4299314022064209,0.07294713232666254,-66.65946472167968,-0.6759529376029968,24450.0,0.7155528783798217,68.3922509765625,489.0,50.0,-6.014559585496563,39.101692083721154,24450,24450.0,884.8136134147644
0.4299314022064209,0.07627770710736513,-66.76953750610352,-0.6706846165657043,24500.0,0.7075435280799866,68.48993469238282,490.0,50.0,-6.485550618175115,37.64765355610799,24500,24500.0,886.1417174339294
0.4299314022064209,0.08020950321108103,-67.16054168701172,-0.6584985506534576,24550.0,0.6824786043167115,68.9025161743164,491.0,50.0,17.312646003481152,15.845658604226351,24550,24550.0,889.2971558570862
0.4299314022064209,0.06583413049578667,-67.70987213134765,-0.6321715950965882,24600.0,0.6791006541252136,69.46663970947266,492.0,50.0,3.391265160468098,37.88978070868809,24600,24600.0,890.6167728900909
0.4299314022064209,0.06617965426295996,-67.17315887451171,-0.6900781309604644,24650.0,0.7067035388946533,68.97303192138672,493.0,50.0,4.398920551322973,38.49417021706972,24650,24650.0,891.9156708717346
0.4299314022064209,0.08164680272340774,-67.37966278076172,-0.6904883170127869,24700.0,0.7038319110870361,69.113876953125,494.0,50.0,12.995650079659658,38.59689741717682,24700,24700.0,893.2111117839813
0.4299314022064209,0.06768606320023536,-68.38038757324219,-0.5913020026683807,24750.0,0.7192593741416932,70.13340759277344,495.0,50.0,-8.976585744797173,39.461874632482655,24750,24750.0,894.4781575202942
