AmanSinghal927/deep-deterministic-policy-gradient-DDPG-/policy/exp_local/2024.03.31_bcrl/175006/train.csv
actor_ent,actor_logprob,actor_loss,batch_reward,bc_loss,buffer_size,critic_loss,critic_target_q,episode,episode_length,episode_reward,fps,frame,step,total_time
0.0,0.0,5.163450717926025,0.0,0.0,0.0,0.0,0.0,0.0,0.0,0.0,0.0,0,0.0,1.2290153503417969
0.0,0.0,2.690016489217777,0.0,0.0,0.0,0.0,0.0,0.0,0.0,0.0,0.0,100,100.0,2.396266222000122
0.0,0.0,0.2588143401806898,0.0,0.0,0.0,0.0,0.0,0.0,0.0,0.0,0.0,200,200.0,3.7419962882995605
0.0,0.0,0.15085154261882647,0.0,0.0,0.0,0.0,0.0,0.0,0.0,0.0,0.0,300,300.0,5.643083333969116
0.0,0.0,0.094075504865608,0.0,0.0,0.0,0.0,0.0,0.0,0.0,0.0,0.0,400,400.0,7.259283542633057
0.0,0.0,0.05290264000950178,0.0,0.0,0.0,0.0,0.0,0.0,0.0,0.0,0.0,500,500.0,10.219457864761353
0.0,0.0,0.004176119169552285,0.0,0.0,0.0,0.0,0.0,0.0,0.0,0.0,0.0,600,600.0,12.410431385040283
0.0,0.0,-0.015817151409527747,0.0,0.0,0.0,0.0,0.0,0.0,0.0,0.0,0.0,700,700.0,14.734279155731201
0.0,0.0,-0.0734138681442652,0.0,0.0,0.0,0.0,0.0,0.0,0.0,0.0,0.0,800,800.0,17.053855180740356
0.0,0.0,-0.08952241257699851,0.0,0.0,0.0,0.0,0.0,0.0,0.0,0.0,0.0,900,900.0,20.54828643798828
0.0,0.0,-0.11363665220595084,0.0,0.0,0.0,0.0,0.0,0.0,0.0,0.0,0.0,1000,1000.0,23.32027006149292
0.0,0.0,-0.13957345378723476,0.0,0.0,0.0,0.0,0.0,0.0,0.0,0.0,0.0,1100,1100.0,25.09492826461792
0.0,0.0,-0.15676400111527136,0.0,0.0,0.0,0.0,0.0,0.0,0.0,0.0,0.0,1200,1200.0,27.569965362548828
0.0,0.0,-0.16251608248025473,0.0,0.0,0.0,0.0,0.0,0.0,0.0,0.0,0.0,1300,1300.0,30.546024560928345
0.0,0.0,-0.18132128044594042,0.0,0.0,0.0,0.0,0.0,0.0,0.0,0.0,0.0,1400,1400.0,32.772055864334106
0.0,0.0,-0.21024518076441076,0.0,0.0,0.0,0.0,0.0,0.0,0.0,0.0,0.0,1500,1500.0,35.72160625457764
0.0,0.0,-0.2149426075122734,0.0,0.0,0.0,0.0,0.0,0.0,0.0,0.0,0.0,1600,1600.0,37.3257474899292
0.0,0.0,-0.24395640371459545,0.0,0.0,0.0,0.0,0.0,0.0,0.0,0.0,0.0,1700,1700.0,38.87957739830017
0.0,0.0,-0.23729536927646339,0.0,0.0,0.0,0.0,0.0,0.0,0.0,0.0,0.0,1800,1800.0,40.42040395736694
0.0,0.0,-0.24353564818306725,0.0,0.0,0.0,0.0,0.0,0.0,0.0,0.0,0.0,1900,1900.0,42.031635761260986
0.0,0.0,-0.2730805723383875,0.0,0.0,0.0,0.0,0.0,0.0,0.0,0.0,0.0,2000,2000.0,44.95535159111023
0.0,0.0,-0.28161314483916405,0.0,0.0,0.0,0.0,0.0,0.0,0.0,0.0,0.0,2100,2100.0,46.59730577468872
0.0,0.0,-0.28539450466632843,0.0,0.0,0.0,0.0,0.0,0.0,0.0,0.0,0.0,2200,2200.0,48.354071855545044
0.0,0.0,-0.29697593692505714,0.0,0.0,0.0,0.0,0.0,0.0,0.0,0.0,0.0,2300,2300.0,50.57017707824707
0.0,0.0,-0.31728673718943456,0.0,0.0,0.0,0.0,0.0,0.0,0.0,0.0,0.0,2400,2400.0,53.90056777000427
0.0,0.0,-0.3049042810602943,0.0,0.0,0.0,0.0,0.0,0.0,0.0,0.0,0.0,2500,2500.0,58.72505974769592
0.0,0.0,-0.32051493271742715,0.0,0.0,0.0,0.0,0.0,0.0,0.0,0.0,0.0,2600,2600.0,60.8057336807251
0.0,0.0,-0.2888767762054311,0.0,0.0,0.0,0.0,0.0,0.0,0.0,0.0,0.0,2700,2700.0,62.68972849845886
0.0,0.0,-0.30263743188121534,0.0,0.0,0.0,0.0,0.0,0.0,0.0,0.0,0.0,2800,2800.0,66.29287028312683
0.0,0.0,-0.3256229646135085,0.0,0.0,0.0,0.0,0.0,0.0,0.0,0.0,0.0,2900,2900.0,69.99621033668518
0.0,0.0,-0.31561489801595705,0.0,0.0,0.0,0.0,0.0,0.0,0.0,0.0,0.0,3000,3000.0,76.96404027938843
0.0,0.0,-0.34722020513940566,0.0,0.0,0.0,0.0,0.0,0.0,0.0,0.0,0.0,3100,3100.0,81.33484935760498
0.0,0.0,-0.35295451897205693,0.0,0.0,0.0,0.0,0.0,0.0,0.0,0.0,0.0,3200,3200.0,87.29192304611206
0.0,0.0,-0.35552174988949653,0.0,0.0,0.0,0.0,0.0,0.0,0.0,0.0,0.0,3300,3300.0,94.77137565612793
0.0,0.0,-0.3554431698699989,0.0,0.0,0.0,0.0,0.0,0.0,0.0,0.0,0.0,3400,3400.0,101.88280463218689
0.0,0.0,-0.34245319258753615,0.0,0.0,0.0,0.0,0.0,0.0,0.0,0.0,0.0,3500,3500.0,117.5625524520874
0.0,0.0,-0.36579022490152036,0.0,0.0,0.0,0.0,0.0,0.0,0.0,0.0,0.0,3600,3600.0,123.83405447006226
0.0,0.0,-0.37535703742858206,0.0,0.0,0.0,0.0,0.0,0.0,0.0,0.0,0.0,3700,3700.0,130.54983472824097
0.0,0.0,-0.3516551322571122,0.0,0.0,0.0,0.0,0.0,0.0,0.0,0.0,0.0,3800,3800.0,135.41031575202942
0.0,0.0,-0.3524331723404403,0.0,0.0,0.0,0.0,0.0,0.0,0.0,0.0,0.0,3900,3900.0,139.4604423046112
0.0,0.0,-0.36112548912515735,0.0,0.0,0.0,0.0,0.0,0.0,0.0,0.0,0.0,4000,4000.0,145.4637806415558
0.0,0.0,-0.35824356512120453,0.0,0.0,0.0,0.0,0.0,0.0,0.0,0.0,0.0,4100,4100.0,147.88003516197205
0.0,0.0,-0.36893109873969954,0.0,0.0,0.0,0.0,0.0,0.0,0.0,0.0,0.0,4200,4200.0,150.23115491867065
0.0,0.0,-0.37655885473336326,0.0,0.0,0.0,0.0,0.0,0.0,0.0,0.0,0.0,4300,4300.0,152.64363360404968
0.0,0.0,-0.3509708418704496,0.0,0.0,0.0,0.0,0.0,0.0,0.0,0.0,0.0,4400,4400.0,155.26805305480957
0.0,0.0,-0.35143427159821633,0.0,0.0,0.0,0.0,0.0,0.0,0.0,0.0,0.0,4500,4500.0,159.74716591835022
0.0,0.0,-0.3561135593912389,0.0,0.0,0.0,0.0,0.0,0.0,0.0,0.0,0.0,4600,4600.0,164.90351152420044
0.0,0.0,-0.3568689964047753,0.0,0.0,0.0,0.0,0.0,0.0,0.0,0.0,0.0,4700,4700.0,168.56945848464966
0.0,0.0,-0.3933224365262702,0.0,0.0,0.0,0.0,0.0,0.0,0.0,0.0,0.0,4800,4800.0,171.8634533882141
0.0,0.0,-0.39019670138264645,0.0,0.0,0.0,0.0,0.0,0.0,0.0,0.0,0.0,4900,4900.0,175.1544647216797
0.0,0.0,-0.37026182200649,0.0,0.0,0.0,0.0,0.0,0.0,0.0,0.0,0.0,5000,5000.0,178.62003898620605
0.0,0.0,-0.39408413933055236,0.0,0.0,0.0,0.0,0.0,0.0,0.0,0.0,0.0,5100,5100.0,181.23897624015808
0.0,0.0,-0.4016198725393503,0.0,0.0,0.0,0.0,0.0,0.0,0.0,0.0,0.0,5200,5200.0,184.21233367919922
0.0,0.0,-0.38097814625442616,0.0,0.0,0.0,0.0,0.0,0.0,0.0,0.0,0.0,5300,5300.0,186.8848385810852
0.0,0.0,-0.3858097676593478,0.0,0.0,0.0,0.0,0.0,0.0,0.0,0.0,0.0,5400,5400.0,188.87762594223022
0.0,0.0,-0.39552867884683135,0.0,0.0,0.0,0.0,0.0,0.0,0.0,0.0,0.0,5500,5500.0,192.02966809272766
0.0,0.0,-0.4037650525569916,0.0,0.0,0.0,0.0,0.0,0.0,0.0,0.0,0.0,5600,5600.0,193.53217554092407
0.0,0.0,-0.4056666664557882,0.0,0.0,0.0,0.0,0.0,0.0,0.0,0.0,0.0,5700,5700.0,195.05183506011963
0.0,0.0,-0.3910110111873929,0.0,0.0,0.0,0.0,0.0,0.0,0.0,0.0,0.0,5800,5800.0,196.67887353897095
0.0,0.0,-0.40083833879763536,0.0,0.0,0.0,0.0,0.0,0.0,0.0,0.0,0.0,5900,5900.0,198.67485570907593
0.0,0.0,-0.39042864607112243,0.0,0.0,0.0,0.0,0.0,0.0,0.0,0.0,0.0,6000,6000.0,202.88160634040833
0.4299314022064209,-0.30426896989345553,0.08267940610647201,-2.227654552459717,0.0263871771544218,550.0,4.820809555053711,0.009840448494069278,11.0,50.0,-34.646435946068316,1.2807737956233738,550,550.0,241.92050623893738
0.4299314022064209,-0.3354403436183929,0.15558135509490967,-2.209375581741333,-0.03909253406524658,600.0,4.257001123428345,-0.017401475469814614,12.0,50.0,-38.2669216639806,17.605359431813728,600,600.0,244.7605504989624
0.4299314022064209,-0.34054367542266845,0.31629810750484466,-2.212531633377075,-0.04122675752639769,650.0,3.7153729438781737,-0.06250151455402374,13.0,50.0,-45.326363797895524,20.798169338381523,650,650.0,247.16460824012756
0.4299314022064209,-0.3769609308242798,0.5232829797267914,-2.2351304721832275,-0.04087114548683166,700.0,3.091791582107544,-0.11933691322803497,14.0,50.0,-39.671650140668895,13.172046809697065,700,700.0,250.9605255126953
0.4299314022064209,-0.4181068825721741,0.7672269272804261,-2.258104372024536,-0.04143272471427917,750.0,2.3616405534744263,-0.19248949229717255,15.0,50.0,-46.02606397572537,9.751055962354817,750,750.0,256.08817529678345
0.4299314022064209,-0.40576576232910155,1.067227475643158,-2.2740029811859133,-0.041415619492530815,800.0,1.6199918174743653,-0.2934917062520981,16.0,50.0,-39.638721032496186,8.740457202392019,800,800.0,261.8086998462677
0.4299314022064209,-0.42903645515441896,1.4262139081954956,-2.2927809524536134,-0.041980388402938836,850.0,1.0915128755569459,-0.43812092781066897,17.0,50.0,-36.58363022631881,10.848879033006085,850,850.0,266.41747093200684
0.4299314022064209,-0.44256119966506957,1.829318127632141,-2.2895340156555175,-0.040218618750572206,900.0,0.7181961274147034,-0.6315922212600708,18.0,50.0,-47.10621739993186,9.70666834033232,900,900.0,271.56856894493103
0.4299314022064209,-0.4276004636287689,2.1783687353134153,-2.3000556564331056,-0.04106705641746521,950.0,0.581050181388855,-0.855480182170868,19.0,50.0,-30.399058289851762,9.46370537184522,950,950.0,276.8519117832184
0.4299314022064209,-0.4405069327354431,2.504845209121704,-2.29770565032959,-0.04007555341720582,1000.0,0.5407165801525116,-1.1102433896064758,20.0,50.0,-41.91940725827,12.544082044911617,1000,1000.0,280.8378551006317
0.4299314022064209,-0.4445478141307831,2.788022699356079,-2.295502529144287,-0.038844940304756166,1050.0,0.5165789997577668,-1.3826095485687255,21.0,50.0,-37.81197051504888,9.96810674693049,1050,1050.0,285.85385274887085
0.4299314022064209,-0.4184960973262787,3.0892148876190184,-2.2900996589660645,-0.04010525488853455,1100.0,0.512383029460907,-1.6709523010253906,22.0,50.0,-35.628990873887595,20.660836798805324,1100,1100.0,288.2738902568817
0.4299314022064209,-0.42669393301010133,3.398654842376709,-2.2781477546691895,-0.04150927102565766,1150.0,0.4971213698387146,-1.9675273132324218,23.0,50.0,-32.86518710913749,21.364598705747568,1150,1150.0,290.61421036720276
0.4299314022064209,-0.42163713812828063,3.7335970973968506,-2.283545398712158,-0.039897936940193175,1200.0,0.4938274121284485,-2.269081687927246,24.0,50.0,-35.76256986898897,23.077882151988035,1200,1200.0,292.7807869911194
0.4299314022064209,-0.4355601763725281,4.095828809738159,-2.2655698013305665,-0.04077723491191865,1250.0,0.4506475281715393,-2.5971124267578123,25.0,50.0,-37.97463922571546,23.760536529998532,1250,1250.0,294.88511657714844
0.4299314022064209,-0.42987484216690064,4.445279426574707,-2.2683985900878905,-0.04122581338882446,1300.0,0.453948894739151,-2.918550844192505,26.0,50.0,-38.489195403827246,27.4110033673748,1300,1300.0,296.70920157432556
0.4299314022064209,-0.4375095510482788,4.81522985458374,-2.264224691390991,-0.04084838104248046,1350.0,0.3998701012134552,-3.255834379196167,27.0,50.0,-38.32448619719659,25.138636062325872,1350,1350.0,298.69817185401917
0.4299314022064209,-0.4357554244995117,5.19734037399292,-2.270590238571167,-0.03961272311210633,1400.0,0.40092934608459474,-3.5960935497283937,28.0,50.0,-37.97301494020007,26.88094667396429,1400,1400.0,300.5582253932953
0.4299314022064209,-0.4329099297523499,5.5900516700744625,-2.27231819152832,-0.03986670362949371,1450.0,0.3776917552947998,-3.9554312229156494,29.0,50.0,-42.77900577035006,25.576811647935887,1450,1450.0,302.5131211280823
0.4299314022064209,-0.4266390872001648,5.966269340515137,-2.2698397922515867,-0.04115729582309723,1500.0,0.3446944487094879,-4.327082290649414,30.0,50.0,-39.50970756222709,27.115912576979625,1500,1500.0,304.3570568561554
0.4299314022064209,-0.4405987882614136,6.37256685256958,-2.27646746635437,-0.04115464615821838,1550.0,0.32184076189994815,-4.687786731719971,31.0,50.0,-44.0094180256357,15.403333533358948,1550,1550.0,307.6031074523926
0.4299314022064209,-0.425967710018158,6.772598934173584,-2.2910268402099607,-0.041154755592346194,1600.0,0.2991019725799561,-5.050838794708252,32.0,50.0,-34.59279307280423,29.96467368163563,1600,1600.0,309.2717390060425
0.4299314022064209,-0.42455381512641904,7.203678436279297,-2.2857337951660157,-0.03834304773807526,1650.0,0.26622072398662566,-5.455575408935547,33.0,50.0,-47.40137946337732,30.914342227478574,1650,1650.0,310.8891112804413
0.4299314022064209,-0.42386109352111817,7.6143034553527835,-2.291399383544922,-0.03209912753105164,1700.0,0.24280235350131987,-5.84606704711914,34.0,50.0,-40.57497880720932,31.349634759127582,1700,1700.0,312.4840261936188
0.4299314022064209,-0.40651113867759703,8.018251514434814,-2.30004677772522,-0.04045518445968628,1750.0,0.23658209145069123,-6.24533447265625,35.0,50.0,-42.13627079602006,22.924328962686445,1750,1750.0,314.66511511802673
0.4299314022064209,-0.41125133395195007,8.448149642944337,-2.300293607711792,-0.04125363600254058,1800.0,0.20692781925201417,-6.660700740814209,36.0,50.0,-34.127929633822426,20.541290879054554,1800,1800.0,317.09923672676086
0.4299314022064209,-0.4024609196186066,8.87946144104004,-2.3042559909820555,-0.04169827270507812,1850.0,0.1877239578962326,-7.0723488235473635,37.0,50.0,-35.01807149759848,28.404258244121035,1850,1850.0,318.8595361709595
0.4299314022064209,-0.4153455758094788,9.310774536132813,-2.295023832321167,-0.04125778222084045,1900.0,0.15839647114276886,-7.511683254241944,38.0,50.0,-44.94722803968149,29.454187591739213,1900,1900.0,320.5570876598358
0.4299314022064209,-0.42539393186569213,9.747806930541993,-2.2993076610565186,-0.041357548475265495,1950.0,0.1418502926826477,-7.930178813934326,39.0,50.0,-33.79647465207841,29.557213727703502,1950,1950.0,322.248722076416
0.4299314022064209,-0.4017341732978821,10.188458862304687,-2.2968313980102537,-0.038286693692207344,2000.0,0.11928765773773194,-8.362947082519531,40.0,50.0,-42.758227510543776,24.598297972763906,2000,2000.0,324.28138303756714
0.4299314022064209,-0.4177314341068268,10.620174827575683,-2.3023938179016112,-0.039601735711097714,2050.0,0.1116577085852623,-8.790447006225586,41.0,50.0,-31.902618055093605,15.990557333849793,2050,2050.0,327.4082283973694
0.4299314022064209,-0.4165627074241638,11.053455696105956,-2.297526035308838,-0.0389911949634552,2100.0,0.09364949762821198,-9.228929252624512,42.0,50.0,-33.65770093911788,31.434447588993734,2100,2100.0,328.99884009361267
0.4299314022064209,-0.40983969807624815,11.498230934143066,-2.284628028869629,-0.03791531395912171,2150.0,0.08623518258333206,-9.681540908813476,43.0,50.0,-44.19435206992174,31.15529947105196,2150,2150.0,330.60370349884033
0.4299314022064209,-0.42795251607894896,11.926677742004394,-2.288092460632324,-0.03960399639606475,2200.0,0.07324602231383323,-10.110286903381347,44.0,50.0,-39.222500152867134,31.704689126835717,2200,2200.0,332.18075728416443
0.4299314022064209,-0.41382552981376647,12.362843399047852,-2.2954799365997314,-0.04207586979866027,2250.0,0.0646502484381199,-10.540258979797363,45.0,50.0,-46.55611409748949,32.959717406231526,2250,2250.0,333.6977605819702
0.4299314022064209,-0.41474538326263427,12.801035614013673,-2.3086319732666016,-0.039563609600067134,2300.0,0.05923005238175392,-10.968251152038574,46.0,50.0,-44.7862413596905,36.21001043573871,2300,2300.0,335.0785942077637
0.4299314022064209,-0.4286168420314789,13.238408584594726,-2.3083345890045166,-0.041401472926139826,2350.0,0.05257058694958687,-11.411057815551757,47.0,50.0,-42.947870728527505,35.60073973552452,2350,2350.0,336.4830594062805
0.4299314022064209,-0.42695688366889956,13.672209358215332,-2.309909782409668,-0.04064424681663513,2400.0,0.04439372479915619,-11.84843578338623,48.0,50.0,-40.49235263370783,36.042036026362226,2400,2400.0,337.8703284263611
0.4299314022064209,-0.44855883717536926,14.113789253234863,-2.3144708633422852,-0.043587738990783685,2450.0,0.0382581041008234,-12.290561904907227,49.0,50.0,-36.03220187842403,31.58667798503349,2450,2450.0,339.4532742500305
0.4299314022064209,-0.40133057951927187,14.547070770263671,-2.316534423828125,-0.04164703452587128,2500.0,0.03553033731877804,-12.731819152832031,50.0,50.0,-33.93174908056939,25.37518859101924,2500,2500.0,341.423702955246
0.4299314022064209,-0.42062614679336546,14.984425048828125,-2.3153466606140136,-0.042600432991981504,2550.0,0.029920117929577827,-13.174500579833984,51.0,50.0,-35.87822178260236,8.854143643656386,2550,2550.0,347.07077646255493
0.4299314022064209,-0.4384895503520966,15.411924514770508,-2.3025226020812988,-0.04146039497852325,2600.0,0.027888317331671714,-13.618597602844238,52.0,50.0,-34.31845474952427,19.538043085855417,2600,2600.0,349.6298863887787
0.4299314022064209,-0.4224539858102798,15.838118858337403,-2.299452199935913,-0.041006251335144045,2650.0,0.024692775309085847,-14.05844612121582,53.0,50.0,-37.796044331423076,23.68698400256167,2650,2650.0,351.7407503128052
0.4299314022064209,-0.4074411368370056,16.271832046508788,-2.306146068572998,-0.040421783328056335,2700.0,0.02349756792187691,-14.494715881347656,54.0,50.0,-26.325260445976447,25.38166562339485,2700,2700.0,353.7106761932373
0.4299314022064209,-0.44577664136886597,16.667006454467774,-2.290702486038208,-0.04213959729671478,2750.0,0.02128915086388588,-14.92310962677002,55.0,50.0,-36.90165880937185,19.50661060604609,2750,2750.0,356.2739098072052
0.4299314022064209,-0.4308411359786987,17.068007583618165,-2.2780284309387206,-0.041295340895652774,2800.0,0.019131799787282945,-15.342670555114745,56.0,50.0,-37.97305672816551,18.82319657541384,2800,2800.0,358.9302067756653
0.4299314022064209,-0.42088000535964964,17.493878326416016,-2.2854434394836427,-0.04104222774505615,2850.0,0.01907824046909809,-15.773954010009765,57.0,50.0,-29.303511560140564,24.126834677124783,2850,2850.0,361.00258803367615
0.4299314022064209,-0.4012459278106689,17.881881561279297,-2.2761581230163572,-0.041263945341110234,2900.0,0.017299330867826937,-16.185393867492675,58.0,50.0,-37.60672075140796,26.045863727286658,2900,2900.0,362.9222786426544
0.4299314022064209,-0.4127767372131348,18.287627029418946,-2.2771886348724366,-0.041907094359397885,2950.0,0.016348131634294986,-16.604445037841796,59.0,50.0,-26.941943276644608,25.754267812691502,2950,2950.0,364.8637044429779
0.4299314022064209,-0.39148406028747557,18.643853073120116,-2.260110168457031,-0.04194913017749787,3000.0,0.017157025747001172,-16.99813934326172,60.0,50.0,-35.65984223518888,27.68493004748341,3000,3000.0,366.66974115371704
0.4299314022064209,-0.4235421752929687,19.022744750976564,-2.2539273357391356,-0.040914181590080256,3050.0,0.016564757004380225,-17.39306251525879,61.0,50.0,-29.740362247114177,13.946642298277306,3050,3050.0,370.2548334598541
0.4299314022064209,-0.4127564787864685,19.39875457763672,-2.2518026542663576,-0.04092154598236084,3100.0,0.017018028981983662,-17.786989593505858,62.0,50.0,-27.736433340667062,23.671912337421194,3100,3100.0,372.367041349411
0.4299314022064209,-0.3998669630289078,19.751783981323243,-2.244276762008667,-0.04195651626586914,3150.0,0.016416440792381762,-18.16606170654297,63.0,50.0,-26.974119216725626,26.096005684211445,3150,3150.0,374.283043384552
0.4299314022064209,-0.40847367405891416,20.10083251953125,-2.2344788455963136,-0.041878813266754154,3200.0,0.017411163449287413,-18.54050216674805,64.0,50.0,-24.411543921978122,25.818378349097777,3200,3200.0,376.21964836120605
0.4299314022064209,-0.40344509840011594,20.45586166381836,-2.2293355560302732,-0.04168675136566162,3250.0,0.017356920801103116,-18.911243667602537,65.0,50.0,-30.701363922862864,21.942541075981293,3250,3250.0,378.49832701683044
0.4299314022064209,-0.37863791108131406,20.75171630859375,-2.213498954772949,-0.042295164942741395,3300.0,0.01793604649603367,-19.246418533325194,66.0,50.0,-27.705735742277774,22.599757983510592,3300,3300.0,380.7107400894165
0.4299314022064209,-0.40045130014419555,21.074817657470703,-2.2079826259613036,-0.041881346702575685,3350.0,0.01943998582661152,-19.597409896850586,67.0,50.0,-30.765029496795368,20.069379323108997,3350,3350.0,383.20209765434265
0.4299314022064209,-0.3565257287025452,21.416009674072267,-2.2068602657318115,-0.041326886057853694,3400.0,0.02040051229298115,-19.95416748046875,68.0,50.0,-31.60379673664923,20.882608119409987,3400,3400.0,385.5964345932007
0.4299314022064209,-0.3576486539840698,21.731118240356444,-2.2029520320892333,-0.03883176553249359,3450.0,0.02152660060673952,-20.292493438720705,69.0,50.0,-20.344370713588198,21.306422877355423,3450,3450.0,387.9431447982788
0.4299314022064209,-0.3573346430063248,22.011865234375,-2.1903529930114747,-0.040436161279678334,3500.0,0.024164037480950355,-20.59928024291992,70.0,50.0,-17.747547413080483,16.093586207637493,3500,3500.0,391.0499725341797
0.4299314022064209,-0.3589143133163452,22.23232246398926,-2.1670122718811036,-0.04005694842338561,3550.0,0.025640862211585045,-20.868822174072264,71.0,50.0,-32.20659732804066,11.152419875777323,3550,3550.0,395.5333044528961
0.4299314022064209,-0.34343552112579345,22.53575782775879,-2.1662939167022706,-0.03773846590518952,3600.0,0.02757755160331726,-21.19168876647949,72.0,50.0,-19.567054816156915,14.201214525523191,3600,3600.0,399.05413007736206
0.4299314022064209,-0.3251471221446991,22.74045295715332,-2.1478718090057374,-0.04014535129070282,3650.0,0.031945733949542046,-21.446474838256837,73.0,50.0,-25.159513445821215,16.45473220903167,3650,3650.0,402.09276962280273
0.4299314022064209,-0.3137273454666138,22.956518173217773,-2.13004355430603,-0.03731657427549362,3700.0,0.03292365692555904,-21.68729606628418,74.0,50.0,-22.47589284199369,16.61363417068325,3700,3700.0,405.1023459434509
0.4299314022064209,-0.30417067527770997,23.280366363525392,-2.1420649528503417,-0.04146995329856872,3750.0,0.03443943172693253,-22.032999649047852,75.0,50.0,-24.55848324769739,16.186733043156167,3750,3750.0,408.1912953853607
0.4299314022064209,-0.28989334166049957,23.427922973632814,-2.1185977172851564,-0.0419185903072357,3800.0,0.034961959272623064,-22.223634719848633,76.0,50.0,-26.823249811713477,10.347473773620887,3800,3800.0,413.02339267730713
0.4299314022064209,-0.29566192626953125,23.66165817260742,-2.1172519588470458,-0.04417215669155122,3850.0,0.03858317703008652,-22.492888565063478,77.0,50.0,-21.511449481252516,14.425377469358612,3850,3850.0,416.489506483078
0.4299314022064209,-0.2670984971523285,23.842147064208984,-2.1045936965942382,-0.04096692299842834,3900.0,0.040902366042137143,-22.705097961425782,78.0,50.0,-23.378107257228542,16.4287400798205,3900,3900.0,419.5329535007477
0.4299314022064209,-0.2509493094682693,24.043065490722658,-2.102165393829346,-0.039883602857589726,3950.0,0.041354336887598035,-22.937262802124025,79.0,50.0,-25.459724633450907,13.66351425264463,3950,3950.0,423.19233417510986
0.4299314022064209,-0.2460227859020233,24.173888626098634,-2.086122512817383,-0.03837013280391694,4000.0,0.04439965441823006,-23.105471725463868,80.0,50.0,-15.447215712449626,22.09961938087825,4000,4000.0,425.4548165798187
0.4299314022064209,-0.20298151016235352,24.29188507080078,-2.0712947940826414,-0.041124524593353265,4050.0,0.05016338124871254,-23.27152488708496,81.0,50.0,-20.680005519120755,12.921278151418887,4050,4050.0,429.32440280914307
0.4299314022064209,-0.19150036245584487,24.418867721557618,-2.0605006885528563,-0.04081506562232971,4100.0,0.0546144300699234,-23.439019317626954,82.0,50.0,-16.91424239657013,24.575528649040365,4100,4100.0,431.3589470386505
0.4299314022064209,-0.1668892014026642,24.56589614868164,-2.0542374992370607,-0.04051231241226196,4150.0,0.06360264137387275,-23.619474563598633,83.0,50.0,-13.821394749090569,25.446426838028305,4150,4150.0,433.3238594532013
0.4299314022064209,-0.12835587561130524,24.664220809936523,-2.0433430433273316,-0.03957111859321594,4200.0,0.06693026721477509,-23.760407943725586,84.0,50.0,-0.06889377765504712,27.13245019318017,4200,4200.0,435.16667127609253
0.4299314022064209,-0.13522727727890016,24.742176208496094,-2.029336996078491,-0.04175771939754485,4250.0,0.07421937614679336,-23.883652420043944,85.0,50.0,-7.456134816985825,25.412560650368988,4250,4250.0,437.1342022418976
0.4299314022064209,-0.10154367700219154,24.667372741699218,-1.9832278156280518,-0.0423216528892517,4300.0,0.1047745618224144,-23.867132720947264,86.0,50.0,-10.32313393394119,24.474530127748487,4300,4300.0,439.1771423816681
0.4299314022064209,-0.07549486551433801,24.705988998413087,-1.9742700815200807,-0.041120614647865296,4350.0,0.10882176220417022,-23.98859146118164,87.0,50.0,3.0536806907441907,22.41380821369659,4350,4350.0,441.4079101085663
0.4299314022064209,-0.05814704585820436,24.750140991210937,-1.9582901477813721,-0.04072249567508697,4400.0,0.11478370428085327,-24.04623680114746,88.0,50.0,-19.89056457811291,23.174453414823702,4400,4400.0,443.5654582977295
0.4299314022064209,-0.05706123948097229,24.853160247802734,-1.9503292512893677,-0.042810458779335016,4450.0,0.11876997917890549,-24.148091049194335,89.0,50.0,-25.312052076085077,15.1834032308114,4450,4450.0,446.8585276603699
0.4299314022064209,-0.07323351360857487,24.84942771911621,-1.936380343437195,-0.040277495622634885,4500.0,0.12288951724767685,-24.172022857666015,90.0,50.0,4.1369201750213715,23.796443387405706,4500,4500.0,448.95968198776245
0.4299314022064209,-0.0579037681221962,24.8599617767334,-1.9219538354873658,-0.03878760623931885,4550.0,0.12929924219846725,-24.224459533691405,91.0,50.0,-3.6771204757454576,11.016677946955257,4550,4550.0,453.49825525283813
0.4299314022064209,-0.027674564979970454,24.763684616088867,-1.8989988565444946,-0.0418204346895218,4600.0,0.15261785745620726,-24.201283645629882,92.0,50.0,-20.15553755815666,20.614361752583267,4600,4600.0,455.92374873161316
0.4299314022064209,-0.026753116175532343,24.64701431274414,-1.8739383172988893,-0.04348178327083586,4650.0,0.1520233878493309,-24.137620239257814,93.0,50.0,-14.428352537971183,29.234764069412826,4650,4650.0,457.6340413093567
0.4299314022064209,-0.004982527643442154,24.76818115234375,-1.8885529804229737,-0.04174992430210114,4700.0,0.1514412373304367,-24.27434097290039,94.0,50.0,-0.27650979088412697,30.595535330540592,4700,4700.0,459.26826667785645
0.4299314022064209,0.01711644286289811,24.605754852294922,-1.8591571426391602,-0.041225381731987,4750.0,0.16482747942209244,-24.163339614868164,95.0,50.0,4.397049059389998,30.427228553151586,4750,4750.0,460.91153168678284
0.4299314022064209,0.011443129908293485,24.62716293334961,-1.870008668899536,-0.039893316149711616,4800.0,0.16534738540649413,-24.216803359985352,96.0,50.0,10.576709795693432,35.607515782392554,4800,4800.0,462.3157296180725
0.4299314022064209,0.04497777946293354,24.29297264099121,-1.8184713983535767,-0.03922155207395553,4850.0,0.1930923143029213,-23.940271301269533,97.0,50.0,-12.515447082155724,36.41495172546957,4850,4850.0,463.68879199028015
0.4299314022064209,0.04601668260991573,24.189670486450197,-1.810223970413208,-0.03624774754047394,4900.0,0.19952068269252776,-23.885378646850587,98.0,50.0,-11.06445322608586,31.313133122981665,4900,4900.0,465.2855660915375
0.4299314022064209,0.051467963084578516,24.15035301208496,-1.8075706243515015,-0.041853119373321535,4950.0,0.20692322432994842,-23.879288635253907,99.0,50.0,7.938058706312205,25.95444032569781,4950,4950.0,467.2120187282562
0.4299314022064209,0.054340336341410875,23.839103775024412,-1.7670408487319946,-0.041455209255218506,5000.0,0.21751954019069672,-23.631123275756835,100.0,50.0,-3.918707426619985,30.300335909132745,5000,5000.0,468.8621654510498
0.4299314022064209,0.0636809097789228,23.76136360168457,-1.766374053955078,-0.041287526726722715,5050.0,0.22735592901706694,-23.564802474975586,101.0,50.0,-0.782969531380111,16.296252320124406,5050,5050.0,471.93035554885864
0.4299314022064209,0.05858047548681498,23.423773345947264,-1.7324118995666504,-0.04325764763355255,5100.0,0.23004693210124968,-23.295814514160156,102.0,50.0,-11.645233590555083,37.501752458448856,5100,5100.0,473.26362657546997
0.4299314022064209,0.06356105986982584,23.159088134765625,-1.7115167093276977,-0.042407853603363035,5150.0,0.22872972309589387,-23.082262420654295,103.0,50.0,9.580418861271799,36.84449184903251,5150,5150.0,474.62068152427673
0.4299314022064209,0.06761185918003321,23.005705184936524,-1.7058711290359496,-0.04282629251480104,5200.0,0.24380966007709504,-22.93939193725586,104.0,50.0,-6.439548874714003,35.47640753060316,5200,5200.0,476.03006887435913
0.4299314022064209,0.0698637075535953,22.86100944519043,-1.6980550622940063,-0.04129377853870391,5250.0,0.2463155907392502,-22.818426818847655,105.0,50.0,14.314710438324854,36.84767043667562,5250,5250.0,477.38700675964355
0.4299314022064209,0.07252068411558867,22.514068603515625,-1.6696690177917481,-0.03974678230285645,5300.0,0.2592232173681259,-22.504318771362303,106.0,50.0,-6.347117086324381,29.29519636905584,5300,5300.0,479.09377121925354
0.4299314022064209,0.08193111918866634,22.219785308837892,-1.6497321796417237,-0.03803107857704162,5350.0,0.2641971981525421,-22.222834014892577,107.0,50.0,-8.431137637869615,31.080549550839322,5350,5350.0,480.7024943828583
0.4299314022064209,0.061322114393115044,21.943055572509767,-1.6351967191696166,-0.03816712975502014,5400.0,0.26410615801811216,-21.993035354614257,108.0,50.0,0.3237404961195409,32.1197531200769,5400,5400.0,482.2591688632965
0.4299314022064209,0.0656596651673317,21.727823028564455,-1.635708622932434,-0.04154728996753691,5450.0,0.2718867444992065,-21.78312286376953,109.0,50.0,3.9081337559630995,28.35243592908538,5450,5450.0,484.0226857662201
0.4299314022064209,0.05789728656411171,21.64200469970703,-1.6310387420654298,-0.0418643239736557,5500.0,0.29364785850048064,-21.729205932617187,110.0,50.0,3.6425783972996246,33.952864794013976,5500,5500.0,485.4953155517578
0.4299314022064209,0.07883012488484382,21.206855392456056,-1.600033345222473,-0.042066673874855035,5550.0,0.28867001831531525,-21.32471565246582,111.0,50.0,11.194527509776204,16.546683632428927,5550,5550.0,488.5170691013336
0.4299314022064209,0.07106259858235717,20.88251075744629,-1.5899156045913696,-0.041428369164466856,5600.0,0.2920262080430984,-21.022079467773438,112.0,50.0,3.5265536203293095,32.658934467753234,5600,5600.0,490.04804372787476
0.4299314022064209,0.07368773341178894,20.466280822753905,-1.551095905303955,-0.041202693462371834,5650.0,0.2968419909477234,-20.65226188659668,113.0,50.0,-11.477584018963213,33.781209311855605,5650,5650.0,491.52815651893616
0.4299314022064209,0.04551710579544306,20.216506118774415,-1.5413488054275513,-0.0420865193605423,5700.0,0.32890886783599854,-20.395460739135743,114.0,50.0,9.172467618317066,32.77040657673298,5700,5700.0,493.053923368454
0.4299314022064209,0.0725821715220809,19.85250328063965,-1.5214168453216552,-0.033302328288555144,5750.0,0.327119408249855,-20.054287109375,115.0,50.0,1.4583544029668225,32.07767833789404,5750,5750.0,494.61263966560364
0.4299314022064209,0.0647539508342743,19.568165435791016,-1.5252395963668823,-0.029155162796378146,5800.0,0.32791436970233917,-19.747929763793945,116.0,50.0,-5.179584656684668,34.56912144585709,5800,5800.0,496.0590171813965
0.4299314022064209,0.07222160510718822,19.240519714355468,-1.5161082172393798,-0.04077060568332673,5850.0,0.3372247684001923,-19.506211242675782,117.0,50.0,6.683816601289378,33.80128413005314,5850,5850.0,497.53825092315674
0.4299314022064209,0.0673182326927781,19.12077705383301,-1.5195320510864259,-0.04167210066318512,5900.0,0.34606167793273923,-19.377870178222658,118.0,50.0,-1.362009659283638,32.04786935319495,5900,5900.0,499.0984170436859
0.4299314022064209,0.058291585445404054,18.525315475463866,-1.4771290254592895,-0.04080728292465209,5950.0,0.3534779179096222,-18.794985275268555,119.0,50.0,3.5338999805839233,26.010642381573646,5950,5950.0,501.02070713043213
0.4299314022064209,0.06491630747914315,18.273643646240235,-1.4865470361709594,-0.041440340399742134,6000.0,0.3568789625167847,-18.53471420288086,120.0,50.0,4.627816621951533,27.188820124439797,6000,6000.0,502.85969829559326
0.4299314022064209,0.07875095188617706,17.969189910888673,-1.4746888589859009,-0.03747710967063904,6050.0,0.3513869249820709,-18.274099273681642,121.0,50.0,-2.666160821898208,15.93217230630006,6050,6050.0,505.9980022907257
0.4299314022064209,0.08575338050723076,17.299352722167967,-1.4294917392730713,-0.04254482340812683,6100.0,0.3520667481422424,-17.639442138671875,122.0,50.0,-10.138256573664734,26.646330353446785,6100,6100.0,507.8744332790375
0.4299314022064209,0.06336496971547603,16.974925346374512,-1.4188319396972657,-0.044104431152343755,6150.0,0.3592743170261383,-17.252372169494627,123.0,50.0,-11.22518105678547,20.926807782491927,6150,6150.0,510.2637131214142
0.4299314022064209,0.07208612274378538,16.617756004333497,-1.4120630645751953,-0.042774009227752686,6200.0,0.3544120740890503,-16.920433349609375,124.0,50.0,-8.580478108654297,21.126870101228352,6200,6200.0,512.6303675174713
0.4299314022064209,0.06700625434517861,16.53252899169922,-1.4421107387542724,-0.04323141324520112,6250.0,0.3649186873435974,-16.818917503356932,125.0,50.0,0.34825588982427647,22.36750745476214,6250,6250.0,514.8657529354095
0.4299314022064209,0.07028746053576469,15.966039543151856,-1.4072981929779054,-0.04243578922748566,6300.0,0.3654502761363983,-16.248627815246582,126.0,50.0,13.146892476693852,23.53053114781174,6300,6300.0,516.990651845932
0.4299314022064209,0.06601479958742856,15.659734916687011,-1.3972367095947265,-0.041980661630630495,6350.0,0.36397879123687743,-15.974682235717774,127.0,50.0,-3.5508879284087342,25.828935424951876,6350,6350.0,518.9264652729034
0.4299314022064209,0.07080262746661901,15.368251419067382,-1.4003099393844605,-0.04343920934200288,6400.0,0.3635778617858887,-15.695455932617188,128.0,50.0,3.2542685670597358,18.574200012187053,6400,6400.0,521.6183712482452
0.4299314022064209,0.07045551810413599,15.120608024597168,-1.3972550487518312,-0.04364444649219513,6450.0,0.3651697516441345,-15.461298904418946,129.0,50.0,13.850554052489802,17.973229456682173,6450,6450.0,524.4002864360809
0.4299314022064209,0.08516712635755538,14.453655471801758,-1.366031470298767,-0.03630306774377823,6500.0,0.38674559235572814,-14.770916481018066,130.0,50.0,-6.09144541133546,18.55734489745841,6500,6500.0,527.0946373939514
0.4299314022064209,0.07472194403409958,14.055943603515624,-1.3343416452407837,-0.039580538868904114,6550.0,0.3926348292827606,-14.377557792663573,131.0,50.0,1.0163564063677448,10.432736659203265,6550,6550.0,531.8872437477112
0.4299314022064209,0.052647714484483,13.435425033569336,-1.3171043443679809,-0.03912706589698791,6600.0,0.3813018238544464,-13.77596160888672,132.0,50.0,-3.7035379549111127,20.394476638541445,6600,6600.0,534.3388879299164
0.4299314022064209,0.07996083784848451,13.107521057128906,-1.3126578855514526,-0.04151098084449768,6650.0,0.40880762338638305,-13.465274314880372,133.0,50.0,-0.3624447425972068,20.38597169636805,6650,6650.0,536.7915549278259
0.4299314022064209,0.07714867848902941,12.908997993469239,-1.3245641708374023,-0.041886865258216846,6700.0,0.39349544525146485,-13.270424842834473,134.0,50.0,-8.104311186734016,18.671220084253896,6700,6700.0,539.4694731235504
0.4299314022064209,0.07923403527587652,12.39404052734375,-1.321687912940979,-0.0405902373790741,6750.0,0.4314807057380676,-12.748005256652831,135.0,50.0,-12.70899424539995,17.373142587789314,6750,6750.0,542.3474786281586
0.4299314022064209,0.08380574516952038,11.893109664916992,-1.303370509147644,-0.040789239406585694,6800.0,0.419433650970459,-12.235722999572754,136.0,50.0,0.97251004737433,13.392568857209419,6800,6800.0,546.0808923244476
0.4299314022064209,0.05753583092242479,11.685973663330078,-1.3073566246032715,-0.04270462024211883,6850.0,0.4283936035633087,-12.07378391265869,137.0,50.0,-9.908235640508149,12.460368265427366,6850,6850.0,550.0936148166656
0.4299314022064209,0.0766594797372818,10.942599868774414,-1.2748855590820312,-0.042087943673133864,6900.0,0.4488202297687531,-11.30088924407959,138.0,50.0,-7.219945274371835,10.158883202576458,6900,6900.0,555.0154156684875
0.4299314022064209,0.07754649437963962,10.820126495361329,-1.2958393096923828,-0.04205518078804015,6950.0,0.43575173139572143,-11.189640731811524,139.0,50.0,-5.10222707522561,11.661328626731466,6950,6950.0,559.3030917644501
0.4299314022064209,0.06644197687506675,10.112609901428222,-1.2796201705932617,-0.0427390810251236,7000.0,0.4615660834312439,-10.462915840148925,140.0,50.0,9.989179919361886,9.383356795990855,7000,7000.0,564.6316752433777
0.4299314022064209,0.06744252059608698,9.815222244262696,-1.2895321226119996,-0.043513525247573855,7050.0,0.4690092313289642,-10.155468025207519,141.0,50.0,-3.2245682452346784,6.7496531679632605,7050,7050.0,572.0394632816315
0.4299314022064209,0.08463800564408303,8.717386932373048,-1.209671688079834,-0.0433894637823105,7100.0,0.4773088502883911,-9.151314525604247,142.0,50.0,3.4194191115018047,13.854500500199082,7100,7100.0,575.6483988761902
0.4299314022064209,0.062026329673826694,8.530413074493408,-1.2261030435562135,-0.04545674669742584,7150.0,0.4857803165912628,-8.920776767730713,143.0,50.0,-0.39646621952767624,14.850018601893838,7150,7150.0,579.0153980255127
0.4299314022064209,0.07483521707355976,8.256511631011962,-1.2426081800460815,-0.043796933531761166,7200.0,0.47291993975639346,-8.65588327407837,144.0,50.0,1.1572113489658715,13.826349939397904,7200,7200.0,582.6316814422607
0.4299314022064209,0.07728815784677863,7.588546962738037,-1.224054536819458,-0.043266578197479255,7250.0,0.5133838260173798,-7.981018829345703,145.0,50.0,0.2560762521257658,16.072488798164635,7250,7250.0,585.7425873279572
0.4299314022064209,0.0625927446782589,7.256324882507324,-1.229148232936859,-0.043163187623023985,7300.0,0.5077374100685119,-7.667247619628906,146.0,50.0,-2.359054997202014,16.01894574714449,7300,7300.0,588.8638913631439
0.4299314022064209,0.06568817999213934,6.451135482788086,-1.1980948495864867,-0.04498798573017121,7350.0,0.5122079432010651,-6.854057178497315,147.0,50.0,-8.634378979408993,13.287933333751521,7350,7350.0,592.6267037391663
0.4299314022064209,0.06513007417321205,6.268106460571289,-1.2115548467636108,-0.0438388729095459,7400.0,0.5617117166519165,-6.6684479141235355,148.0,50.0,-10.212985923337566,14.850451847306216,7400,7400.0,595.9936046600342
0.4299314022064209,0.07325144588947297,5.705607175827026,-1.2112461233139038,-0.044053603649139406,7450.0,0.5497654497623443,-6.07731556892395,149.0,50.0,10.780403197996211,19.707346905827794,7450,7450.0,598.5307295322418
0.4299314022064209,0.09091710805892944,5.323970642089844,-1.2325361728668214,-0.04407934308052063,7500.0,0.552934730052948,-5.71796480178833,150.0,50.0,-7.678747854994299,20.96626375767595,7500,7500.0,600.9155130386353
0.4299314022064209,0.08083161517977715,5.090385475158691,-1.2411393451690673,-0.03713935095071792,7550.0,0.5605599319934845,-5.488470306396485,151.0,50.0,-2.871440213960385,14.01770514380408,7550,7550.0,604.4824306964874
0.4299314022064209,0.0632468269020319,4.185928630828857,-1.1826149320602417,-0.035840893924236304,7600.0,0.5872794723510742,-4.594751653671264,152.0,50.0,0.5494307857989966,32.03340397380936,7600,7600.0,606.0433013439178
0.4299314022064209,0.052939984425902364,3.8480760288238525,-1.1985475063323974,-0.04110017096996308,7650.0,0.5690780448913574,-4.201463031768799,153.0,50.0,-3.12844347611861,33.78459972097909,7650,7650.0,607.5232656002045
0.4299314022064209,0.07950108069926501,3.1151748180389403,-1.1726113986968993,-0.040504818677902225,7700.0,0.5914788258075714,-3.5507431650161743,154.0,50.0,2.920607870531155,26.872307998654048,7700,7700.0,609.383917093277
0.4299314022064209,0.08282320937141777,2.311931052803993,-1.1435706067085265,-0.04298551154136658,7750.0,0.6151939535140991,-2.7212519240379334,155.0,50.0,-10.419214566995663,28.47671867692931,7750,7750.0,611.13973736763
0.4299314022064209,0.07605069704353809,2.186618094444275,-1.1675441288948059,-0.03803550601005554,7800.0,0.6292970442771911,-2.6189470434188844,156.0,50.0,-7.898069685865094,27.542889984045456,7800,7800.0,612.9550879001617
0.4299314022064209,0.06063179235905409,1.3665264059603215,-1.1504207921028138,-0.03922160685062408,7850.0,0.6364935207366943,-1.706239641904831,157.0,50.0,12.96270751823093,29.03301993234703,7850,7850.0,614.6772649288177
0.4299314022064209,0.060427185744047165,0.9913726356625557,-1.152028682231903,-0.04272899115085602,7900.0,0.6353855514526368,-1.3805930703878402,158.0,50.0,-5.739571187260687,33.93506396627646,7900,7900.0,616.1506671905518
0.4299314022064209,0.06795175824314356,0.3364330193400383,-1.1203922462463378,-0.041388447999954225,7950.0,0.6391905665397644,-0.7019945913553238,159.0,50.0,-1.203448396932565,31.311258380977392,7950,7950.0,617.7475368976593
0.4299314022064209,0.08435136832296848,-0.1299587245285511,-1.1242709469795227,-0.042268406033515935,8000.0,0.6525974535942077,-0.28871233105659483,160.0,50.0,-2.260125422196058,30.556185722101652,8000,8000.0,619.3838667869568
0.4299314022064209,0.07316262692213059,-0.8111147730052471,-1.117913498878479,-0.041880269765853885,8050.0,0.6684176135063171,0.44804746866226197,161.0,50.0,0.4152086650050357,13.431403868732497,8050,8050.0,623.1064858436584
0.4299314022064209,0.06349532067775726,-1.5020898246765138,-1.0877190828323364,-0.040540687084197995,8100.0,0.6522276258468628,1.179706094712019,162.0,50.0,-6.729566803360793,22.42844726290641,8100,8100.0,625.3357975482941
0.4299314022064209,0.0700491925701499,-2.047999246120453,-1.0771906542778016,-0.04139478087425232,8150.0,0.6380750393867493,1.7305657720565797,163.0,50.0,8.05095839099233,18.047121172170655,8150,8150.0,628.1063225269318
0.4299314022064209,0.09258921910077333,-2.5122891545295714,-1.0796944284439087,-0.0440662968158722,8200.0,0.671942572593689,2.1762834894657135,164.0,50.0,7.416630235587206,25.61685796890996,8200,8200.0,630.0581622123718
0.4299314022064209,0.06912636458873749,-2.844118523597717,-1.094966745376587,-0.04157115709781646,8250.0,0.6769883108139038,2.5406980156898498,165.0,50.0,8.56279960102274,26.678784258190188,8250,8250.0,631.9323105812073
0.4299314022064209,0.05591358501464128,-3.5474508380889893,-1.0759638381004333,-0.04365108835697172,8300.0,0.6811707687377929,3.2640249872207643,166.0,50.0,-12.618727393715371,27.772628449691155,8300,8300.0,633.7326443195343
0.4299314022064209,0.07342343624681234,-4.1904997062683105,-1.0547556471824646,-0.04208713591098785,8350.0,0.6643989324569702,3.899607944488525,167.0,50.0,2.9945572729022274,29.626879535271726,8350,8350.0,635.4203009605408
0.4299314022064209,0.06852488525211811,-4.661410856246948,-1.0752894639968873,-0.041613041162490844,8400.0,0.6673351120948792,4.402296943664551,168.0,50.0,13.055153269124357,29.476116518500298,8400,8400.0,637.1165895462036
0.4299314022064209,0.06967427765950561,-5.492035875320434,-1.0246387791633607,-0.03938047266006469,8450.0,0.6704350018501282,5.258081407546997,169.0,50.0,7.917142136949726,28.818516829302446,8450,8450.0,638.851585149765
0.4299314022064209,0.057309113815426825,-5.315509462356568,-1.073332235813141,-0.04342929255962372,8500.0,0.6524648976325989,5.053617944717407,170.0,50.0,0.13996140659717504,30.796725651020118,8500,8500.0,640.4751343727112
0.4299314022064209,0.08767328709363938,-6.131561765670776,-1.0499257802963258,-0.04349527966976166,8550.0,0.6909704875946044,5.851602163314819,171.0,50.0,-7.204885680012477,16.348968503192417,8550,8550.0,643.5334312915802
0.4299314022064209,0.08056484218686819,-7.067274131774902,-1.0130711913108825,-0.04299255013465882,8600.0,0.7180367422103882,6.84665843963623,172.0,50.0,8.178034061266892,28.077928612254237,8600,8600.0,645.3141894340515
0.4299314022064209,0.06650440990924836,-6.800081443786621,-1.0574733090400696,-0.04014499974250794,8650.0,0.7099765920639038,6.572249908447265,173.0,50.0,-2.6874144417888672,28.21473286203659,8650,8650.0,647.0863132476807
0.4299314022064209,0.06828720018267631,-7.824819030761719,-1.0161615371704102,-0.04071824002265931,8700.0,0.6955879878997803,7.585919933319092,174.0,50.0,3.0559319868066606,27.821439369245994,8700,8700.0,648.8834884166718
0.4299314022064209,0.07071853576228022,-8.243963203430177,-1.0120053172111512,-0.0423091299533844,8750.0,0.7149243068695068,8.054792861938477,175.0,50.0,0.33906548029302286,22.75535802640602,8750,8750.0,651.0807731151581
0.4299314022064209,0.06317243553698063,-8.908785858154296,-0.9906523776054382,-0.044184794187545784,8800.0,0.72794602394104,8.713358516693114,176.0,50.0,10.475926135522219,26.23868061907788,8800,8800.0,652.9863567352295
0.4299314022064209,0.06291161846369504,-9.40067352294922,-1.0094121861457825,-0.040474478840827936,8850.0,0.7143450665473938,9.23390100479126,177.0,50.0,-3.579679761526183,24.666328867134222,8850,8850.0,655.0134115219116
0.4299314022064209,0.06963464595377446,-10.099945068359375,-0.9946566963195801,-0.0434054661989212,8900.0,0.7075802564620972,9.952569408416748,178.0,50.0,-8.427073931357764,21.83085220137309,8900,8900.0,657.3037481307983
0.4299314022064209,0.06851919539272786,-10.333880424499512,-0.9917449760437012,-0.04443252766132355,8950.0,0.735198757648468,10.167021179199219,179.0,50.0,5.8017666641767836,18.725231827372482,8950,8950.0,659.9739420413971
0.4299314022064209,0.06811477234587074,-10.725979881286621,-1.0193906044960022,-0.042252807617187506,9000.0,0.7368084716796875,10.607743759155273,180.0,50.0,2.707604959248995,15.15092317846653,9000,9000.0,663.2740709781647
0.4299314022064209,0.05893082175403833,-11.553486557006837,-0.9782310438156128,-0.043935777664184564,9050.0,0.7052018189430237,11.45675968170166,181.0,50.0,13.56523240564844,9.77110891112728,9050,9050.0,668.3911974430084
0.4299314022064209,0.05627573411911726,-12.08367416381836,-0.9658387398719788,-0.041172887086868296,9100.0,0.7068594574928284,11.97867618560791,182.0,50.0,12.322286670151296,22.331294876313613,9100,9100.0,670.6302077770233
0.4299314022064209,0.06644049214199185,-12.377107887268066,-0.9774891424179077,-0.038381062030792244,9150.0,0.7094151854515076,12.306489181518554,183.0,50.0,-5.138175082948969,24.89190255188197,9150,9150.0,672.6388931274414
0.4299314022064209,0.06802373833954334,-13.43466365814209,-0.9352999663352967,-0.044130327224731446,9200.0,0.7207781600952149,13.346667861938476,184.0,50.0,1.8374544884420434,21.830388613128594,9200,9200.0,674.9292783737183
0.4299314022064209,0.08763572674244642,-14.044854316711426,-0.9035797309875488,-0.04338410890102387,9250.0,0.7132528924942017,13.941536140441894,185.0,50.0,15.838280522120792,19.52111119850656,9250,9250.0,677.4906079769135
0.4299314022064209,0.08020208830013871,-14.290195007324218,-0.9533459973335267,-0.0437393662929535,9300.0,0.7236967301368713,14.229109649658204,186.0,50.0,11.325722989058589,17.94444624132598,9300,9300.0,680.2769854068756
0.4299314022064209,0.08346086710691453,-14.524271278381347,-0.9428117775917053,-0.04055735623836518,9350.0,0.7112327003479004,14.47003749847412,187.0,50.0,-3.3621630725018807,17.628076725413138,9350,9350.0,683.1133697032928
0.4299314022064209,0.06805434897542,-15.249044036865234,-0.9326727366447449,-0.04184509432315827,9400.0,0.7056364488601684,15.258650169372558,188.0,50.0,-7.436366901702961,11.841380145234702,9400,9400.0,687.3358504772186
0.4299314022064209,0.06993473684415222,-15.73262306213379,-0.9175913381576538,-0.04417267763614656,9450.0,0.7133980035781861,15.721741523742676,189.0,50.0,14.814649316977698,8.94946220489719,9450,9450.0,692.9227783679962
0.4299314022064209,0.066998377032578,-16.043217849731445,-0.9444170832633972,-0.04464931750297545,9500.0,0.6930825710296631,16.08049949645996,190.0,50.0,7.496621458724659,9.298725191506822,9500,9500.0,698.3013491630554
0.4299314022064209,0.08101626519113779,-16.657321014404296,-0.9260178518295288,-0.04489104723930359,9550.0,0.6962224817276002,16.68862716674805,191.0,50.0,6.298391952784639,5.476745522778189,9550,9550.0,707.4308586120605
0.4299314022064209,0.06620497163385153,-16.983750457763673,-0.9331269049644471,-0.04474280726909639,9600.0,0.7342730164527893,17.005782318115234,192.0,50.0,5.5597590152995515,18.539358273519433,9600,9600.0,710.1278235912323
0.4299314022064209,0.05190392456948757,-17.422011680603028,-0.910459394454956,-0.04451851546764374,9650.0,0.7454631710052491,17.453292770385744,193.0,50.0,-1.6736035105374345,20.30452645811418,9650,9650.0,712.5903286933899
0.4299314022064209,0.08362945575267076,-18.548124694824217,-0.8673082494735718,-0.042712915897369384,9700.0,0.7471503019332886,18.62839973449707,194.0,50.0,-4.737347122463532,21.543758859703793,9700,9700.0,714.9111864566803
0.4299314022064209,0.07319382462650538,-18.407158126831053,-0.9092687296867371,-0.041946748018264764,9750.0,0.7648511481285095,18.489316444396973,195.0,50.0,-6.89744574809103,25.94815570487071,9750,9750.0,716.8381056785583
0.4299314022064209,0.0690897305123508,-19.033752670288084,-0.8985943651199341,-0.042715981841087346,9800.0,0.7310926294326783,19.189788360595703,196.0,50.0,-3.666588361258807,23.315279106021134,9800,9800.0,718.9826221466064
0.4299314022064209,0.08759930212050676,-19.643471755981444,-0.8752697086334229,-0.044412759304046624,9850.0,0.7393199014663696,19.752295837402343,197.0,50.0,1.9641073160582891,22.61220019306853,9850,9850.0,721.1938178539276
0.4299314022064209,0.06386786360293627,-19.752383422851562,-0.9085172557830811,-0.04404455149173737,9900.0,0.7138115215301514,19.87319290161133,198.0,50.0,-5.6971669855773275,21.85097133916741,9900,9900.0,723.4820456504822
0.4299314022064209,0.05044344011694193,-20.600877532958986,-0.8565353393554688,-0.043896672487258905,9950.0,0.7242183566093445,20.717575302124022,199.0,50.0,-2.3990523299612967,18.777956151949486,9950,9950.0,726.1447422504425
0.4299314022064209,0.07526997275650502,-20.745746078491212,-0.902903163433075,-0.04098615694046021,10000.0,0.7375815081596374,20.919255447387695,200.0,50.0,0.5508823376477903,22.89925233955088,10000,10000.0,728.3282196521759
0.4299314022064209,0.07573767017573119,-21.39980842590332,-0.8739073920249939,-0.04412576735019685,10050.0,0.74277019739151,21.550971374511718,201.0,50.0,0.8420224453349121,12.025341642316684,10050,10050.0,732.4861056804657
0.4299314022064209,0.06637927077710629,-22.078720092773438,-0.8468887054920197,-0.04448284900188445,10100.0,0.7313864183425903,22.283910827636717,202.0,50.0,-0.7408490244910837,22.68492853142879,10100,10100.0,734.6902122497559
0.4299314022064209,0.0749392856657505,-22.713939819335938,-0.8181392812728882,-0.040476170718669886,10150.0,0.699160771369934,22.89181121826172,203.0,50.0,-9.834022714110255,24.438579765786535,10150,10150.0,736.7361576557159
0.4299314022064209,0.0738778518885374,-22.93696990966797,-0.8368119597434998,-0.04310209381580354,10200.0,0.7340508794784546,23.131285552978515,204.0,50.0,-4.313653683520203,23.11676759081106,10200,10200.0,738.8990898132324
0.4299314022064209,0.05631440177559852,-23.60608840942383,-0.833790431022644,-0.04494886183738708,10250.0,0.7115181875228882,23.857348175048827,205.0,50.0,-5.5644671557296945,21.51001461180058,10250,10250.0,741.2235884666443
0.4299314022064209,0.08335677385330201,-23.753378295898436,-0.8504963159561157,-0.04399966287612916,10300.0,0.7161385369300842,23.984944305419923,206.0,50.0,-2.1514089622804207,24.389115544044284,10300,10300.0,743.273683309555
0.4299314022064209,0.09633735813200474,-23.94865364074707,-0.8515770173072815,-0.045919654250144964,10350.0,0.7364686846733093,24.21026153564453,207.0,50.0,-0.27263532847496386,26.718562576721116,10350,10350.0,745.1450414657593
0.4299314022064209,0.06954053007066249,-24.469662704467773,-0.8404386925697327,-0.045968327760696405,10400.0,0.7151687073707581,24.73646598815918,208.0,50.0,-11.135146910878085,31.903781396590635,10400,10400.0,746.7122538089752
0.4299314022064209,0.07970204427838326,-24.654253463745118,-0.881359941959381,-0.0432788554430008,10450.0,0.7546272349357604,24.937819366455077,209.0,50.0,10.039055625471713,28.11615568330177,10450,10450.0,748.4905908107758
0.4299314022064209,0.07470317985862493,-25.313904266357422,-0.8587724232673645,-0.044612548470497136,10500.0,0.7286898612976074,25.63741065979004,210.0,50.0,-3.7864521252260026,24.860898123464235,10500,10500.0,750.5017812252045
0.4299314022064209,0.08295276924967766,-25.393997268676756,-0.8757576251029968,-0.04410694205760956,10550.0,0.752105803489685,25.680541534423828,211.0,50.0,14.693023176258842,15.748796885133283,10550,10550.0,753.6766269207001
0.4299314022064209,0.06121972475200892,-26.46240219116211,-0.8229884195327759,-0.042234285116195674,10600.0,0.7238528466224671,26.79901527404785,212.0,50.0,4.607555010236936,34.37382703924298,10600,10600.0,755.1312220096588
0.4299314022064209,0.062051726952195164,-26.868162078857424,-0.8147552347183228,-0.04350402438640595,10650.0,0.7278831672668457,27.213019485473634,213.0,50.0,-2.9151539441276135,33.409701174512016,10650,10650.0,756.6277933120728
0.4299314022064209,0.06974812306463718,-27.189209671020507,-0.8214779329299927,-0.04583515453338624,10700.0,0.7372906279563903,27.566843643188477,214.0,50.0,4.71956222718233,34.91934831265354,10700,10700.0,758.0596642494202
0.4299314022064209,0.06202403113245964,-27.165268478393553,-0.8528377652168274,-0.0398759435415268,10750.0,0.7429938459396362,27.539259719848634,215.0,50.0,14.314868569035852,32.676515966704464,10750,10750.0,759.5898151397705
0.4299314022064209,0.08943070765584707,-28.12853820800781,-0.7957352757453918,-0.04236973488330841,10800.0,0.7263921236991883,28.519139022827147,216.0,50.0,4.047532678482192,31.792655958811103,10800,10800.0,761.1625053882599
0.4299314022064209,0.055050985952839256,-28.11777000427246,-0.8401184606552125,-0.045050986528396605,10850.0,0.7418879699707032,28.506707077026366,217.0,50.0,12.547515666439027,32.71921258660719,10850,10850.0,762.6906595230103
0.4299314022064209,0.08154936403036117,-28.84889488220215,-0.8099617004394531,-0.044325840234756476,10900.0,0.7107305431365967,29.291578063964845,218.0,50.0,16.639760870384194,31.03033516991391,10900,10900.0,764.3019859790802
0.4299314022064209,0.06686092868447303,-28.89281982421875,-0.8280617570877076,-0.04208542180061341,10950.0,0.7311284399032593,29.346082305908205,219.0,50.0,-7.586294504770958,33.338033491088005,10950,10950.0,765.8017745018005
0.4299314022064209,0.05350372925400734,-29.364425430297853,-0.8204611158370971,-0.03983846592903137,11000.0,0.7133546853065491,29.802357025146485,220.0,50.0,-3.9119137750245336,34.29493930382885,11000,11000.0,767.2597155570984
0.4299314022064209,0.06265529606491327,-30.40473876953125,-0.7608072233200073,-0.04404138457775116,11050.0,0.717009871006012,30.88451385498047,221.0,50.0,1.439575473046359,17.611722829881998,11050,11050.0,770.098733663559
0.4299314022064209,0.07854642424732447,-30.19731430053711,-0.8091887474060059,-0.04566410613059998,11100.0,0.7177551221847535,30.662635040283202,222.0,50.0,-4.898805502993321,25.23395061988356,11100,11100.0,772.0801911354065
0.4299314022064209,0.08038715101778507,-31.002708892822266,-0.7698310399055481,-0.045294515132904056,11150.0,0.7033293795585632,31.47914115905762,223.0,50.0,12.841709414168033,30.365254357539797,11150,11150.0,773.7268099784851
0.4299314022064209,0.07942671209573746,-31.613150863647462,-0.7555344319343567,-0.04241833281517031,11200.0,0.7189448380470276,32.09060905456543,224.0,50.0,7.366763681720023,30.065035836731592,11200,11200.0,775.3898713588715
0.4299314022064209,0.07164726816117764,-31.558116683959963,-0.7896110510826111,-0.04507415628433227,11250.0,0.7017460536956787,32.10096290588379,225.0,50.0,-4.484996989977079,32.973574782405116,11250,11250.0,776.9062371253967
0.4299314022064209,0.07691310662776232,-32.46618209838867,-0.7293294143676757,-0.045207403540611264,11300.0,0.7002908110618591,32.94338371276856,226.0,50.0,-0.8656033371291247,29.9630896350083,11300,11300.0,778.5749568939209
0.4299314022064209,0.052584189251065255,-32.609333190917965,-0.7689966702461243,-0.04618877279758454,11350.0,0.7150818419456482,33.20604209899902,227.0,50.0,8.276028380986656,24.137056316636812,11350,11350.0,780.6464605331421
0.4299314022064209,0.0749654446542263,-32.80161293029785,-0.7536388254165649,-0.04537325990200043,11400.0,0.6971018886566163,33.31983734130859,228.0,50.0,-3.3270856112738088,21.534666606013886,11400,11400.0,782.9682981967926
0.4299314022064209,0.07796772949397564,-32.82312934875488,-0.7921797943115234,-0.04360925233364106,11450.0,0.7464765381813049,33.40094627380371,229.0,50.0,-2.23026631845665,25.082786932205195,11450,11450.0,784.961697101593
0.4299314022064209,0.06764324143528938,-33.486472854614256,-0.7777432441711426,-0.040400698423385624,11500.0,0.7023819637298584,34.08147491455078,230.0,50.0,-0.30775891387876264,29.517513018010995,11500,11500.0,786.6556067466736
0.4299314022064209,0.08046567052602768,-33.961214294433596,-0.7542794978618622,-0.0353062390089035,11550.0,0.7099564623832703,34.53885772705078,231.0,50.0,5.902076870113973,15.09547067210141,11550,11550.0,789.9678585529327
0.4299314022064209,0.08055764064192772,-34.17183090209961,-0.7611770415306092,-0.036586988091468806,11600.0,0.7209647107124328,34.786546020507814,232.0,50.0,-7.8850609555460665,20.541381418949065,11600,11600.0,792.4019694328308
0.4299314022064209,0.06924206901341677,-35.028804321289066,-0.7172182655334473,-0.042536725163459785,11650.0,0.6859583842754364,35.62486099243164,233.0,50.0,8.267626037111711,18.196147190868608,11650,11650.0,795.1498038768768
0.4299314022064209,0.07364001724869013,-35.16302154541015,-0.7494026160240174,-0.039574990272521975,11700.0,0.7203303098678588,35.77950378417969,234.0,50.0,-14.413558684266832,16.53753551330146,11700,11700.0,798.1732289791107
0.4299314022064209,0.08655401907861232,-35.71681884765625,-0.7376146030426025,-0.03996611428260803,11750.0,0.7003541755676269,36.318196868896486,235.0,50.0,-3.337469886431551,25.819929570996706,11750,11750.0,800.1097176074982
0.4299314022064209,0.06137377847917378,-35.50649322509766,-0.7841455924510956,-0.042364344000816345,11800.0,0.6996241736412049,36.175380859375,236.0,50.0,-3.2142873639873084,26.89966561919068,11800,11800.0,801.9684767723083
0.4299314022064209,0.07228491123765707,-36.42431655883789,-0.7223230648040772,-0.04433574783802032,11850.0,0.7009011840820313,37.07226791381836,237.0,50.0,-0.049200564493807164,16.449066338033383,11850,11850.0,805.0081629753113
0.4299314022064209,0.0752449480444193,-36.27068313598633,-0.777976679801941,-0.04389324450492859,11900.0,0.713619487285614,36.973030700683594,238.0,50.0,-7.155558171782076,16.87642100311101,11900,11900.0,807.970876455307
0.4299314022064209,0.06339483737945556,-36.96538589477539,-0.7191808879375458,-0.04441493690013886,11950.0,0.6882158899307251,37.648278045654294,239.0,50.0,-3.763870732724982,16.94270557093466,11950,11950.0,810.9219989776611
0.4299314022064209,0.07086030125617981,-37.02460922241211,-0.763127932548523,-0.04615081751346588,12000.0,0.7116403746604919,37.73617172241211,240.0,50.0,3.8492611324262445,17.201770841937353,12000,12000.0,813.8286764621735
0.4299314022064209,0.07281582590192556,-37.62850784301758,-0.7326199889183045,-0.04516739022731781,12050.0,0.6965935111045838,38.364198760986326,241.0,50.0,0.17945570605381,11.269170777573922,12050,12050.0,818.2655601501465
0.4299314022064209,0.07312858518213033,-38.26426620483399,-0.6970991790294647,-0.04468018281459809,12100.0,0.732979929447174,38.99844039916992,242.0,50.0,-4.387271907774942,12.159208100402616,12100,12100.0,822.3776700496674
0.4299314022064209,0.07802266508340835,-38.22518325805664,-0.7287601757049561,-0.045461611151695246,12150.0,0.68935178399086,38.98012969970703,243.0,50.0,7.407908911166297,9.226871083291224,12150,12150.0,827.7966251373291
0.4299314022064209,0.06667570143938065,-38.41660171508789,-0.7353093123435974,-0.04517139732837678,12200.0,0.6909356498718262,39.12703765869141,244.0,50.0,1.900656766731041,8.123021270663738,12200,12200.0,833.9519703388214
0.4299314022064209,0.0617671138420701,-39.15768463134766,-0.7150853824615478,-0.045486315727233884,12250.0,0.6727080917358399,39.93310562133789,245.0,50.0,18.796940695332474,8.177835095164461,12250,12250.0,840.0660579204559
0.4299314022064209,0.0739106260240078,-39.24272872924805,-0.7325861406326294,-0.04518850827217102,12300.0,0.6884174323081971,40.01442031860351,246.0,50.0,-8.805270309779324,11.436149792342862,12300,12300.0,844.4381587505341
0.4299314022064209,0.06664570525288582,-39.97447784423828,-0.7039956712722778,-0.04590758001804352,12350.0,0.6956032633781433,40.810130462646484,247.0,50.0,5.28436749654343,9.982722145761265,12350,12350.0,849.4468126296997
0.4299314022064209,0.06894960360601544,-40.329591064453126,-0.6895860052108764,-0.04542907416820526,12400.0,0.6753374886512756,41.144925079345704,248.0,50.0,-3.4455301625920374,11.446861374746463,12400,12400.0,853.8148221969604
0.4299314022064209,0.05945118336006999,-40.907518768310545,-0.6756484580039978,-0.04442415428161621,12450.0,0.7062976884841919,41.72569885253906,249.0,50.0,1.0446323331804432,15.984847127871413,12450,12450.0,856.9427845478058
0.4299314022064209,0.06248390596359968,-40.94386947631836,-0.6873194766044617,-0.04603087556362152,12500.0,0.7139058113098145,41.753216400146485,250.0,50.0,-7.562911781051479,19.533206046043798,12500,12500.0,859.5025281906128
0.4299314022064209,0.08379414331167936,-41.06671951293945,-0.7046938276290894,-0.04596605277061463,12550.0,0.6899131608009338,41.911501770019534,251.0,50.0,-2.7099428415581492,12.8266083229786,12550,12550.0,863.4006748199463
0.4299314022064209,0.0642954933643341,-41.74362335205078,-0.6735018575191498,-0.04178370654582978,12600.0,0.6869461488723755,42.54229476928711,252.0,50.0,-7.383195042590177,21.558426605919554,12600,12600.0,865.7199535369873
0.4299314022064209,0.07033714137971402,-42.16283172607422,-0.6549197602272033,-0.04164308905601501,12650.0,0.683719654083252,43.01239028930664,253.0,50.0,0.5293394790169881,22.052148025329636,12650,12650.0,867.98730635643
0.4299314022064209,0.07284012850373983,-42.3421955871582,-0.6699753868579864,-0.0467130447626114,12700.0,0.6890398788452149,43.196820678710935,254.0,50.0,-0.18736715914119806,18.454210651734005,12700,12700.0,870.6967151165009
0.4299314022064209,0.05679156430065632,-42.770641479492184,-0.6557363748550415,-0.045480062842369086,12750.0,0.6673647999763489,43.63321319580078,255.0,50.0,-5.5669977238167725,18.215133185793054,12750,12750.0,873.4416854381561
0.4299314022064209,0.07658370163291693,-43.14913055419922,-0.6302636289596557,-0.04164465308189392,12800.0,0.7164025974273681,44.03372909545899,256.0,50.0,-6.630549775767346,16.95337787132583,12800,12800.0,876.3909502029419
0.4299314022064209,0.083359768204391,-43.20830032348633,-0.6782938861846923,-0.04521147310733795,12850.0,0.6881016993522644,44.1164875793457,257.0,50.0,4.655187490856747,15.008008342616941,12850,12850.0,879.7225048542023
0.4299314022064209,0.06779823772609234,-43.51414031982422,-0.6944912314414978,-0.04596700370311737,12900.0,0.7217042016983032,44.46325424194336,258.0,50.0,10.189362632545684,22.86510012650669,12900,12900.0,881.9092435836792
0.4299314022064209,0.06908389408141374,-43.643094787597654,-0.6677141070365906,-0.04498630368709563,12950.0,0.682591609954834,44.5684033203125,259.0,50.0,4.160626774519471,26.654072248779745,12950,12950.0,883.7851295471191
0.4299314022064209,0.054476853534579275,-43.8220718383789,-0.676496068239212,-0.044649193763732914,13000.0,0.6892854928970337,44.75975616455078,260.0,50.0,-2.5669965118209532,29.623883057850247,13000,13000.0,885.4729568958282
0.4299314022064209,0.07733884500339627,-44.45825210571289,-0.6685466694831849,-0.042834018588066104,13050.0,0.6995883464813233,45.449569091796874,261.0,50.0,2.8551224830398017,17.353464872496446,13050,13050.0,888.3542258739471
0.4299314022064209,0.08127806652337313,-44.709283447265626,-0.6898202264308929,-0.04184290087223053,13100.0,0.678178014755249,45.681785583496094,262.0,50.0,-5.771986741052594,28.6125033170771,13100,13100.0,890.1017136573792
0.4299314022064209,0.07365055816248059,-44.97800277709961,-0.6761338484287261,-0.037935895800590515,13150.0,0.6688949728012085,45.97090087890625,263.0,50.0,6.879796575133886,33.0532078673857,13150,13150.0,891.6144261360168
0.4299314022064209,0.06891056638211011,-45.84320648193359,-0.6166508173942566,-0.04337336814403534,13200.0,0.6888279461860657,46.82074783325195,264.0,50.0,-1.5619283379765712,33.48612566143079,13200,13200.0,893.1075818538666
0.4299314022064209,0.08336386021226644,-45.95391052246094,-0.6185306692123413,-0.042747340083122254,13250.0,0.6562767839431762,46.927594604492185,265.0,50.0,-6.452443670568705,31.24941514036929,13250,13250.0,894.7076117992401
0.4299314022064209,0.06312231373041868,-45.546655883789064,-0.6860430061817169,-0.04635597836971284,13300.0,0.6798196077346802,46.57824203491211,266.0,50.0,-2.090203837245495,31.273661388208343,13300,13300.0,896.3064012527466
0.4299314022064209,0.06095148168504238,-45.89135971069336,-0.6796140384674072,-0.04542740786075591,13350.0,0.6487999534606934,46.91644546508789,267.0,50.0,-11.001310776733451,34.80174895569131,13350,13350.0,897.7431106567383
0.4299314022064209,0.06556845985352994,-46.64080917358398,-0.6482650601863861,-0.04501129841804505,13400.0,0.6860434770584106,47.645970306396485,268.0,50.0,17.114747316758965,32.42086874519307,13400,13400.0,899.2853271961212
0.4299314022064209,0.05195698373019695,-46.94955307006836,-0.6464843583106995,-0.04526377439498902,13450.0,0.6905668187141418,48.00795364379883,269.0,50.0,4.461533060831735,27.88218695373089,13450,13450.0,901.0785868167877
0.4299314022064209,0.07078013613820076,-47.26152435302734,-0.6332961463928223,-0.045893376946449266,13500.0,0.6772395062446595,48.300044250488284,270.0,50.0,4.314469401896886,25.355237768223738,13500,13500.0,903.0505659580231
0.4299314022064209,0.0759423060528934,-47.5307014465332,-0.6488182497024536,-0.0459277992248535,13550.0,0.6809171795845032,48.56860717773438,271.0,50.0,-0.7714778189410474,11.082128100538318,13550,13550.0,907.5623347759247
0.4299314022064209,0.052426582090556624,-47.66504486083984,-0.6589462792873383,-0.04462890553474426,13600.0,0.6900821042060852,48.724260864257815,272.0,50.0,6.176856311800281,22.378360232193074,13600,13600.0,909.7966361045837
0.4299314022064209,0.07113140922039747,-48.25224685668945,-0.6274542319774628,-0.03918028634786606,13650.0,0.6497192049026489,49.34890518188477,273.0,50.0,12.693680899535329,18.09474349130415,13650,13650.0,912.5598695278168
0.4299314022064209,0.07543817847967148,-48.934059600830075,-0.5695608484745026,-0.041756984233856195,13700.0,0.6770716953277588,50.025801544189456,274.0,50.0,12.442356256123464,17.85720398252352,13700,13700.0,915.3598599433899
0.4299314022064209,0.06100838972255587,-48.694754943847656,-0.6192761504650116,-0.04647573792934418,13750.0,0.6260192084312439,49.77305145263672,275.0,50.0,14.292541637698992,24.586543401307015,13750,13750.0,917.3934926986694
0.4299314022064209,0.06557388119399547,-48.86084228515625,-0.6477952587604523,-0.04356891155242921,13800.0,0.6502971494197846,49.97859924316406,276.0,50.0,1.9191073355961343,30.681930735258124,13800,13800.0,919.023116350174
0.4299314022064209,0.07609656780958175,-49.48230529785156,-0.6069071877002716,-0.04310315763950348,13850.0,0.6677744817733765,50.598516387939455,277.0,50.0,7.299866360170613,30.831901133361463,13850,13850.0,920.6448132991791
0.4299314022064209,0.05926148138940334,-49.44511077880859,-0.6200023293495178,-0.043222597241401664,13900.0,0.6857730364799499,50.55485794067383,278.0,50.0,-6.1298258916509045,26.684005135376204,13900,13900.0,922.5185949802399
0.4299314022064209,0.06719947181642055,-50.175974731445315,-0.5869862902164459,-0.0442434928417206,13950.0,0.6682902479171753,51.28324661254883,279.0,50.0,-0.7079494439424767,30.19223008814139,13950,13950.0,924.1746501922607
0.4299314022064209,0.07808605870231985,-50.12628402709961,-0.6151226246356964,-0.0433679860830307,14000.0,0.6713208079338073,51.25472534179688,280.0,50.0,8.528158590850095,30.292151463646203,14000,14000.0,925.8252427577972
0.4299314022064209,0.06379156827926635,-50.5336799621582,-0.5949930953979492,-0.04407289481163026,14050.0,0.6648746395111084,51.70628616333008,281.0,50.0,-0.09354032190407935,15.312668303014938,14050,14050.0,929.0905129909515
0.4299314022064209,0.07773725885897875,-50.80236236572266,-0.5991764616966248,-0.04410387802124023,14100.0,0.6660951542854309,51.9768017578125,282.0,50.0,-9.517766492023092,27.75364122687877,14100,14100.0,930.8920783996582
0.4299314022064209,0.07264871280640364,-50.711018829345704,-0.6289542376995086,-0.04617186343669892,14150.0,0.6745375788211823,51.83837631225586,283.0,50.0,-7.710575494664756,27.775670435160364,14150,14150.0,932.6922149658203
0.4299314022064209,0.06798291761428117,-51.134562225341796,-0.6227953779697418,-0.044030303001403814,14200.0,0.6985060000419616,52.382935485839845,284.0,50.0,9.653329339442992,23.918218168293812,14200,14200.0,934.7826716899872
0.4299314022064209,0.08689069598913193,-51.289598541259764,-0.6295380449295044,-0.045172625422477714,14250.0,0.649284029006958,52.477142333984375,285.0,50.0,2.4521719845447265,27.5669880522791,14250,14250.0,936.5964353084564
0.4299314022064209,0.06506642378866673,-51.63431579589844,-0.6032896161079406,-0.0457428151369095,14300.0,0.6446197438240051,52.85154388427734,286.0,50.0,-7.2929631472005365,28.612768774421248,14300,14300.0,938.343906879425
0.4299314022064209,0.06134752444922924,-52.20367965698242,-0.5846334671974183,-0.04346320354938507,14350.0,0.6666740560531617,53.434131469726566,287.0,50.0,-2.8904878568432117,24.76083674463817,14350,14350.0,940.3632247447968
0.4299314022064209,0.06793775036931038,-52.08951370239258,-0.6238645911216736,-0.04481885468959809,14400.0,0.6326868319511414,53.30848693847656,288.0,50.0,2.756740636471191,19.820700403520966,14400,14400.0,942.8858399391174
0.4299314022064209,0.06506540030241012,-52.60020553588867,-0.5805384957790375,-0.04341137111186981,14450.0,0.672524380683899,53.803175659179686,289.0,50.0,-1.9477588143282194,18.12026229878743,14450,14450.0,945.6451818943024
0.4299314022064209,0.06521317999809981,-52.91603546142578,-0.5857047510147094,-0.03656661266088486,14500.0,0.6386747860908508,54.174554443359376,290.0,50.0,-5.338152475559134,15.56868846238905,14500,14500.0,948.8567562103271
0.4299314022064209,0.06744031365960837,-53.269240875244144,-0.5757403981685638,-0.04417153632640839,14550.0,0.6560686540603637,54.4788899230957,291.0,50.0,-6.739180339125294,9.06993498577849,14550,14550.0,954.3694748878479
0.4299314022064209,0.05978980850428343,-53.19586624145508,-0.5967830538749694,-0.0443888727426529,14600.0,0.6537085247039794,54.47548767089844,292.0,50.0,12.772604948337431,20.242678318603033,14600,14600.0,956.8395037651062
0.4299314022064209,0.06252733660861849,-53.61022964477539,-0.5765948808193206,-0.045638465166091914,14650.0,0.6508800315856934,54.858985900878906,293.0,50.0,-4.217748674683193,21.594157293744924,14650,14650.0,959.154944896698
0.4299314022064209,0.06180979713797569,-53.54525726318359,-0.6157357728481293,-0.04485360884666442,14700.0,0.6367706155776978,54.82599212646485,294.0,50.0,-1.739012338163949,20.61447117490922,14700,14700.0,961.5804255008698
0.4299314022064209,0.07869133196771144,-54.31902587890625,-0.5460175728797912,-0.042536844491958624,14750.0,0.6171280312538147,55.58096282958984,295.0,50.0,-1.2194269225006114,20.846149174251135,14750,14750.0,963.9789500236511
0.4299314022064209,0.07644040394574404,-54.37911666870117,-0.5906437349319458,-0.046133826136589055,14800.0,0.6725572395324707,55.63297805786133,296.0,50.0,-3.1862224745837313,15.283212305672409,14800,14800.0,967.2505135536194
0.4299314022064209,0.08119998022913932,-54.30990249633789,-0.6021545898914337,-0.041839533090591435,14850.0,0.6629483366012573,55.63737152099609,297.0,50.0,8.2914130664834,8.95401194985758,14850,14850.0,972.8346025943756
0.4299314022064209,0.07439007345587015,-54.85214263916016,-0.5628243029117584,-0.044897509574890145,14900.0,0.6698791444301605,56.146546325683595,298.0,50.0,-3.600869828998402,10.098227395983518,14900,14900.0,977.7859666347504
0.4299314022064209,0.05898263644427061,-55.50728805541992,-0.5228547394275666,-0.0475526500940323,14950.0,0.6640319108963013,56.83705993652344,299.0,50.0,0.9211766931028826,17.36561873264185,14950,14950.0,980.6652190685272
0.4299314022064209,0.07953701823949814,-55.25557388305664,-0.569796496629715,-0.04694232833385467,15000.0,0.6523820567131042,56.56986099243164,300.0,50.0,-13.0015885000638,12.438260257277175,15000,15000.0,984.6850738525391
0.4299314022064209,0.08382886156439781,-55.20802856445312,-0.5826769459247589,-0.04539936542510986,15050.0,0.6501251411437988,56.50454284667969,301.0,50.0,-3.2824823036636204,9.972123349601251,15050,15050.0,989.6990511417389
0.4299314022064209,0.06936642400920391,-55.358053588867186,-0.6033540070056915,-0.04041071832180024,15100.0,0.6422069072723389,56.714608612060545,302.0,50.0,-5.803881877974954,23.73113005515928,15100,15100.0,991.8059883117676
0.4299314022064209,0.06186857547610998,-55.68303909301758,-0.5904865932464599,-0.043163183331489566,15150.0,0.636214394569397,57.02866714477539,303.0,50.0,-7.189941473929217,25.469150374534543,15150,15150.0,993.7691476345062
0.4299314022064209,0.06756018221378327,-55.92321990966797,-0.605830203294754,-0.04337958610057831,15200.0,0.649389636516571,57.302330780029294,304.0,50.0,-9.73261920810129,28.151096940679455,15200,15200.0,995.5452773571014
0.4299314022064209,0.08594929099082947,-56.2100260925293,-0.5623820006847382,-0.04576091301441194,15250.0,0.6294288206100463,57.54487945556641,305.0,50.0,-1.635091576187504,25.58682865521984,15250,15250.0,997.4994077682495
0.4299314022064209,0.06469093255698681,-56.59666015625,-0.5751650512218476,-0.04626257157325746,15300.0,0.6481007730960846,57.971729888916016,306.0,50.0,16.785602886435917,27.482702681380882,15300,15300.0,999.3187339305878
0.4299314022064209,0.0686954627558589,-56.6198696899414,-0.5860727298259735,-0.04651477026939393,15350.0,0.6556121778488159,57.99199340820312,307.0,50.0,2.9223783738026636,27.03937818837177,15350,15350.0,1001.167888879776
0.4299314022064209,0.08334184439852833,-57.103854217529296,-0.5639239978790284,-0.04761098325252532,15400.0,0.6437902402877808,58.43623397827148,308.0,50.0,3.290990726712929,27.36989182955053,15400,15400.0,1002.9947137832642
0.4299314022064209,0.07262600384652615,-57.35052444458008,-0.5829739010334015,-0.0485613729953766,15450.0,0.6472901320457458,58.763238677978514,309.0,50.0,-7.431242625816161,27.90314730543256,15450,15450.0,1004.7866263389587
0.4299314022064209,0.06775415485724806,-57.09767791748047,-0.6049320650100708,-0.04609996700286866,15500.0,0.6516510510444641,58.472286987304685,310.0,50.0,-3.085695980717942,30.352654333218464,15500,15500.0,1006.4339287281036
0.4299314022064209,0.0711786387488246,-57.464433135986326,-0.5975733983516693,-0.045686550378799436,15550.0,0.6234646153450012,58.9030290222168,311.0,50.0,10.279864488288405,16.925058416273156,15550,15550.0,1009.3881282806396
0.4299314022064209,0.08861101981252432,-58.09249267578125,-0.5563159430027008,-0.04690050303936005,15600.0,0.6177227449417114,59.52186920166016,312.0,50.0,3.721783851431839,30.673310069916038,15600,15600.0,1011.0182099342346
0.4299314022064209,0.05767577759921551,-58.11652130126953,-0.5593838906288147,-0.04687356209754944,15650.0,0.6551073455810547,59.5493701171875,313.0,50.0,11.63452528612602,29.501559657058323,15650,15650.0,1012.7130355834961
0.4299314022064209,0.06427357785403728,-58.547318878173826,-0.5356036221981049,-0.046711503744125374,15700.0,0.6315626525878906,59.99057785034179,314.0,50.0,7.911538988417739,31.312618832256856,15700,15700.0,1014.3098359107971
0.4299314022064209,0.06538882534950971,-58.914878845214844,-0.5122415065765381,-0.04734810459613801,15750.0,0.6092682921886444,60.29799011230469,315.0,50.0,14.050261249765283,30.486535362617378,15750,15750.0,1015.9499042034149
0.4299314022064209,0.061782443299889564,-59.01272094726563,-0.5487621784210205,-0.04618630599975585,15800.0,0.6383040285110474,60.49571548461914,316.0,50.0,-3.151726949191495,33.66191314218648,15800,15800.0,1017.4352624416351
0.4299314022064209,0.06386634670197963,-59.458221893310544,-0.5252331846952438,-0.04456278324127197,15850.0,0.6471778607368469,60.931705932617184,317.0,50.0,1.0307236370686024,24.302492534217446,15850,15850.0,1019.4926645755768
0.4299314022064209,0.07438744511455297,-59.188240661621094,-0.5502358889579773,-0.045660528182983405,15900.0,0.6057247066497803,60.62780624389649,318.0,50.0,-4.4094873872942095,25.636219923021123,15900,15900.0,1021.4430301189423
0.4299314022064209,0.07597146052867174,-59.25680313110352,-0.5782467973232269,-0.044711898207664504,15950.0,0.63914071559906,60.73104064941406,319.0,50.0,4.118180912195951,29.569995722037934,15950,15950.0,1023.1339333057404
0.4299314022064209,0.05832642418332398,-59.716538696289064,-0.5441688913106918,-0.046913069009780886,16000.0,0.620593421459198,61.17805389404297,320.0,50.0,13.175296703101571,29.994622241038023,16000,16000.0,1024.8008987903595
0.4299314022064209,0.06706430625170469,-59.75360900878906,-0.5313891923427582,-0.04539366602897645,16050.0,0.6286771941184998,61.23202407836914,321.0,50.0,-5.120133678657304,17.539072624144342,16050,16050.0,1027.6516766548157
0.4299314022064209,0.06736483260989189,-60.52873977661133,-0.5081650930643081,-0.043539344072341925,16100.0,0.6299224388599396,62.0521630859375,322.0,50.0,-12.365359933581473,31.381215072785075,16100,16100.0,1029.2449865341187
0.4299314022064209,0.07678156107664108,-59.993520965576174,-0.567855315208435,-0.04489645564556121,16150.0,0.6259471726417541,61.48611465454101,323.0,50.0,-13.493256896078105,29.37711443510867,16150,16150.0,1030.9469916820526
0.4299314022064209,0.05985501524060965,-60.91237945556641,-0.48757306098937986,-0.04615055656433106,16200.0,0.6299947583675385,62.38809066772461,324.0,50.0,-10.739658005834354,27.437523647939678,16200,16200.0,1032.7693135738373
0.4299314022064209,0.08408505037426948,-60.69479598999023,-0.5437952101230621,-0.047329487800598154,16250.0,0.6430608224868775,62.19538482666016,325.0,50.0,-3.5175457513991333,31.77812626290713,16250,16250.0,1034.3427228927612
0.4299314022064209,0.049286640249192715,-61.167539520263674,-0.5221016609668732,-0.04640428137779235,16300.0,0.6328867721557617,62.680006408691405,326.0,50.0,4.927454084706522,31.225508661956628,16300,16300.0,1035.9439778327942
0.4299314022064209,0.07248689133673906,-60.90181884765625,-0.5537536787986755,-0.044838202834129336,16350.0,0.6074827075004577,62.44783767700196,327.0,50.0,-7.210742628638236,36.98707521518233,16350,16350.0,1037.2958014011383
0.4299314022064209,0.0629157817736268,-61.46787033081055,-0.5331914722919464,-0.0444239673614502,16400.0,0.6380105185508728,62.999311981201174,328.0,50.0,-8.01209063798062,32.344509296714456,16400,16400.0,1038.8416588306427
0.4299314022064209,0.06956990003585815,-61.82530487060547,-0.5254308569431305,-0.04570402204990387,16450.0,0.6302690160274506,63.37957733154297,329.0,50.0,11.3965789839087,29.248622889984055,16450,16450.0,1040.5511410236359
0.4299314022064209,0.07291253201663495,-61.67581771850586,-0.5503817570209503,-0.03511931848526001,16500.0,0.6217602157592773,63.24233642578125,330.0,50.0,2.298108231645635,24.97637718003435,16500,16500.0,1042.5530326366425
0.4299314022064209,0.0745146494358778,-62.11227035522461,-0.5131089466810227,-0.040801992416381834,16550.0,0.6435912370681762,63.63725891113281,331.0,50.0,5.227641025539246,16.186548139604223,16550,16550.0,1045.642017364502
0.4299314022064209,0.06374707743525505,-61.90148635864258,-0.5702998280525208,-0.04435542249679566,16600.0,0.6082515454292298,63.49544967651367,332.0,50.0,-7.437927935470249,26.737441166274813,16600,16600.0,1047.5120542049408
0.4299314022064209,0.06336625307798385,-62.421008605957034,-0.5350256848335266,-0.047634527802467345,16650.0,0.6152099072933197,63.990937042236325,333.0,50.0,-4.352399711960576,30.312414946738862,16650,16650.0,1049.1615433692932
0.4299314022064209,0.06940224878489971,-62.705187225341795,-0.517616126537323,-0.04663889658451079,16700.0,0.6312254571914673,64.25004608154296,334.0,50.0,12.634414115177282,32.19323505974506,16700,16700.0,1050.714664697647
0.4299314022064209,0.07450297277420759,-62.66935073852539,-0.5400803899765014,-0.04520849740505218,16750.0,0.6099615275859833,64.27618865966797,335.0,50.0,-8.316342945123626,30.477700790546173,16750,16750.0,1052.3552083969116
0.4299314022064209,0.07261780047789217,-62.7516584777832,-0.5209559869766235,-0.04523898792266846,16800.0,0.6111155593395233,64.32997833251953,336.0,50.0,-7.343766775290334,27.507694906815093,16800,16800.0,1054.172881603241
0.4299314022064209,0.06211632765829563,-63.133648529052735,-0.5159466278553009,-0.04668392145633698,16850.0,0.6170030891895294,64.70215866088867,337.0,50.0,-4.482966135673081,29.90094337268746,16850,16850.0,1055.8450696468353
0.4299314022064209,0.06520205296576023,-63.04127792358398,-0.5637620866298676,-0.047960323691368115,16900.0,0.621014734506607,64.68319381713867,338.0,50.0,9.574656903755864,34.13815623691628,16900,16900.0,1057.3097064495087
0.4299314022064209,0.048294360525906084,-63.424576110839844,-0.5437562537193298,-0.045570882558822634,16950.0,0.6055928838253021,65.05818359375,339.0,50.0,-0.39945329260594065,21.606656304740365,16950,16950.0,1059.623808145523
0.4299314022064209,0.07335209466516972,-63.71987030029297,-0.524557591676712,-0.04654238355159761,17000.0,0.6143346154689788,65.34227752685547,340.0,50.0,-12.328448524626008,12.329927533266638,17000,17000.0,1063.6789820194244
0.4299314022064209,0.07555331990122795,-63.99095657348633,-0.5246744763851166,-0.04534035396575928,17050.0,0.6170712888240815,65.63453079223633,341.0,50.0,2.7239923293915105,7.088700048610018,17050,17050.0,1070.7324614524841
0.4299314022064209,0.08177663080394268,-64.52466064453125,-0.46992591977119447,-0.046075591087341314,17100.0,0.6252682495117188,66.1371989440918,342.0,50.0,12.441139839833877,14.102778604172236,17100,17100.0,1074.277862071991
0.4299314022064209,0.07233069587498903,-64.23503494262695,-0.5356689321994782,-0.047472877264022835,17150.0,0.5939356541633606,65.91447937011719,343.0,50.0,9.358021340476618,19.698746557313516,17150,17150.0,1076.8160946369171
0.4299314022064209,0.07727600216865539,-64.34046035766602,-0.5132395136356354,-0.04710615134239196,17200.0,0.596769722700119,66.00043991088867,344.0,50.0,-7.068791593050371,17.095732751354273,17200,17200.0,1079.7408010959625
0.4299314022064209,0.05692178074270487,-64.83086547851562,-0.5129498594999313,-0.044582067251205434,17250.0,0.5560571455955505,66.51297393798828,345.0,50.0,2.1196070786794916,11.006098048986445,17250,17250.0,1084.2837371826172
0.4299314022064209,0.06563416942954063,-65.22462982177734,-0.4652018487453461,-0.04526751625537873,17300.0,0.6112724089622498,66.89324462890625,346.0,50.0,-1.204426012534503,18.995735553599054,17300,17300.0,1086.915906906128
0.4299314022064209,0.06523750320076943,-64.47439956665039,-0.5518470776081085,-0.04590287315845489,17350.0,0.6039127361774445,66.13596038818359,347.0,50.0,6.237214600000074,15.351269714923355,17350,17350.0,1090.1729664802551
0.4299314022064209,0.0768979762867093,-64.97930099487304,-0.5222243189811706,-0.04787972271442413,17400.0,0.5895796895027161,66.63228088378906,348.0,50.0,7.374845502612899,20.01520740102424,17400,17400.0,1092.6710669994354
0.4299314022064209,0.0867880130559206,-65.33285095214843,-0.5233376955986023,-0.04758835923671722,17450.0,0.5992060935497284,67.02108123779297,349.0,50.0,1.8518878042354299,17.30766691403475,17450,17450.0,1095.5599601268768
0.4299314022064209,0.07307735353708267,-65.65954544067382,-0.5175683856010437,-0.047538974404335035,17500.0,0.5690321707725525,67.38141723632812,350.0,50.0,13.273537941098535,21.426562332218012,17500,17500.0,1097.893512248993
0.4299314022064209,0.07803172912448644,-65.343798828125,-0.5232267141342163,-0.042720385909080505,17550.0,0.6311889743804932,67.00156494140624,351.0,50.0,4.440213501782813,7.464875890750187,17550,17550.0,1104.5915472507477
0.4299314022064209,0.07675169367343188,-66.49002838134766,-0.45580451607704164,-0.04682467341423035,17600.0,0.5843914866447448,68.22202941894531,352.0,50.0,-3.4608896667169713,12.66215149078631,17600,17600.0,1108.5403232574463
0.4299314022064209,0.062352942489087584,-66.1508721923828,-0.47861156582832337,-0.046564371347427365,17650.0,0.5873657476902008,67.84312438964844,353.0,50.0,3.790188804998257,13.993494597614767,17650,17650.0,1112.1134121418
0.4299314022064209,0.07567356929183006,-66.54756530761719,-0.4779007464647293,-0.04514910411834717,17700.0,0.5862409913539887,68.26094177246094,354.0,50.0,8.913708449256037,16.424103040345543,17700,17700.0,1115.1577184200287
0.4299314022064209,0.08217040166258811,-66.86981536865234,-0.46513660073280333,-0.046240387439727776,17750.0,0.6042939913272858,68.5655679321289,355.0,50.0,-2.3347871908943887,16.310307989713973,17750,17750.0,1118.2232644557953
0.4299314022064209,0.08074686545878648,-66.48647888183594,-0.49402605295181273,-0.039240989685058604,17800.0,0.5885012090206146,68.17981323242188,356.0,50.0,6.042424883933027,17.935640263645922,17800,17800.0,1121.0110099315643
0.4299314022064209,0.06211832489818334,-67.22298980712891,-0.42646908164024355,-0.04673047494888305,17850.0,0.6074966168403626,68.9471011352539,357.0,50.0,-1.6551925676756873,16.349169881757373,17850,17850.0,1124.0692691802979
0.4299314022064209,0.0903004640340805,-67.17286895751953,-0.46312952280044556,-0.046639410972595205,17900.0,0.6064663529396057,68.89546264648438,358.0,50.0,-5.3877725103949885,19.07717207471815,17900,17900.0,1126.6902027130127
0.4299314022064209,0.06679046234115958,-67.25472473144531,-0.4844049620628357,-0.04605503046512603,17950.0,0.6009332180023194,68.98885437011718,359.0,50.0,12.952970001184548,22.546637085443948,17950,17950.0,1128.9078283309937
0.4299314022064209,0.07495171792805194,-67.47982208251953,-0.45990109741687774,-0.041025958955287926,18000.0,0.5966228878498078,69.18782592773438,360.0,50.0,2.9583636222161243,22.31783443516772,18000,18000.0,1131.1481890678406
0.4299314022064209,0.06076068114489317,-67.92537536621094,-0.44383315920829775,-0.04470509552955628,18050.0,0.5634216868877411,69.7005044555664,361.0,50.0,3.8810907525588956,13.829544783111478,18050,18050.0,1134.7636370658875
0.4299314022064209,0.06461434464901686,-68.4259326171875,-0.4031112587451935,-0.046396589517593394,18100.0,0.5835073554515838,70.13695556640624,362.0,50.0,-3.9420647554440027,24.79845179953708,18100,18100.0,1136.7798919677734
0.4299314022064209,0.06884779006242753,-67.93924133300781,-0.48646523952484133,-0.046495882987976064,18150.0,0.5899034881591797,69.72030517578125,363.0,50.0,3.4944144013665515,22.979956728053512,18150,18150.0,1138.9557011127472
0.4299314022064209,0.06845145523548127,-68.00500762939453,-0.4486204183101654,-0.045314376235008245,18200.0,0.5982714068889617,69.71159088134766,364.0,50.0,3.263369948455747,21.402069716909,18200,18200.0,1141.2919237613678
0.4299314022064209,0.07025256898254156,-67.94724853515625,-0.48055402398109437,-0.04786083841323852,18250.0,0.5972145617008209,69.70221435546875,365.0,50.0,-8.409950662691788,22.88376772422312,18250,18250.0,1143.476878643036
0.4299314022064209,0.05915612196549773,-68.10574462890625,-0.498497713804245,-0.046266234040260305,18300.0,0.5882365202903748,69.9076773071289,366.0,50.0,-7.054912942628018,19.34552298910853,18300,18300.0,1146.0614559650421
0.4299314022064209,0.06347623188048601,-68.28569549560547,-0.478693391084671,-0.04561424255371094,18350.0,0.5780039882659912,70.05771728515624,367.0,50.0,15.689447587978307,19.245449519825506,18350,18350.0,1148.6594727039337
0.4299314022064209,0.0764682212844491,-68.71245819091797,-0.4639548707008362,-0.04785039496421814,18400.0,0.5794537198543549,70.48206451416016,368.0,50.0,6.843224271538572,17.052309310536554,18400,18400.0,1151.591626882553
0.4299314022064209,0.07677162967622281,-69.23339935302734,-0.44131925225257873,-0.04737242090702056,18450.0,0.576564313173294,71.0521109008789,369.0,50.0,-1.8160061496531128,22.789977918035923,18450,18450.0,1153.785573720932
0.4299314022064209,0.08478969596326351,-69.13771942138672,-0.45162648558616636,-0.04788361537456513,18500.0,0.5834523141384125,70.93670715332031,370.0,50.0,9.407070491674515,21.713658091722117,18500,18500.0,1156.088271856308
0.4299314022064209,0.06461691975593567,-69.21780395507812,-0.45299662828445436,-0.047152516841888426,18550.0,0.5826584458351135,70.999931640625,371.0,50.0,-6.412300034771864,12.32925339288572,18550,18550.0,1160.143667459488
0.4299314022064209,0.054923861436545846,-69.19290374755859,-0.4665606951713562,-0.04036819398403168,18600.0,0.5710057985782623,71.01862579345703,372.0,50.0,10.397223970509186,29.96526881270264,18600,18600.0,1161.8122658729553
0.4299314022064209,0.09559121176600456,-69.7853955078125,-0.4174432396888733,-0.045139216899871826,18650.0,0.5868133699893952,71.5423159790039,373.0,50.0,-9.478642613321174,26.072280001710674,18650,18650.0,1163.7300114631653
0.4299314022064209,0.05416333720088005,-69.49017395019531,-0.485585595369339,-0.0467671639919281,18700.0,0.5916575443744659,71.31184478759765,374.0,50.0,0.6092918413135102,26.24024007641525,18700,18700.0,1165.6354818344116
0.4299314022064209,0.05510105852037668,-69.51566680908203,-0.45902236223220827,-0.043007506132125846,18750.0,0.6249670696258545,71.33226654052734,375.0,50.0,-10.747266478093998,20.321139885839713,18750,18750.0,1168.0959737300873
0.4299314022064209,0.08042306531220675,-69.22030334472656,-0.5018413853645325,-0.04241813349723816,18800.0,0.5738716471195221,71.04848205566407,376.0,50.0,1.4818995923759637,29.843941869865652,18800,18800.0,1169.7713556289673
0.4299314022064209,0.07095197759568692,-70.46872436523438,-0.4252118182182312,-0.04712065398693084,18850.0,0.5621211421489716,72.34429870605469,377.0,50.0,5.2119226359821464,29.92787718843335,18850,18850.0,1171.4420387744904
0.4299314022064209,0.08379694074392319,-69.9597509765625,-0.466748281121254,-0.04793092596530916,18900.0,0.5761628043651581,71.8104327392578,378.0,50.0,1.9388986043033434,29.249597864613328,18900,18900.0,1173.1514639854431
0.4299314022064209,0.07600354716181755,-70.61718841552734,-0.41976780116558077,-0.04685400211811065,18950.0,0.5964055395126343,72.43287231445312,379.0,50.0,-3.242329392124722,30.63380950335925,18950,18950.0,1174.7836475372314
0.4299314022064209,0.06611831873655319,-70.82869445800782,-0.43612026631832124,-0.048217417359352116,19000.0,0.6041027629375457,72.71059661865235,380.0,50.0,-5.909365056108179,33.20571882320622,19000,19000.0,1176.2894122600555
0.4299314022064209,0.0826352260261774,-71.03600799560547,-0.39379565060138705,-0.04730165779590606,19050.0,0.5535000073909759,72.86659729003907,381.0,50.0,-0.6861278931372752,20.06698269474973,19050,19050.0,1178.7810673713684
0.4299314022064209,0.07362152323126793,-70.9232260131836,-0.43188062906265257,-0.04707663309574128,19100.0,0.5876421332359314,72.81379760742188,382.0,50.0,1.2011349658483788,39.47057180563743,19100,19100.0,1180.0478339195251
0.4299314022064209,0.06035226233303547,-70.7881137084961,-0.4630491471290588,-0.04670076274871827,19150.0,0.5856824433803558,72.6607943725586,383.0,50.0,-4.3140194960131915,37.466651826398156,19150,19150.0,1181.3823540210724
0.4299314022064209,0.07381621245294809,-70.86911193847656,-0.44887602210044864,-0.04801429724693298,19200.0,0.5732074153423309,72.71453186035156,384.0,50.0,0.19129550596410105,37.721912702315635,19200,19200.0,1182.707843542099
0.4299314022064209,0.07361097790300847,-71.161982421875,-0.4457706046104431,-0.04643566167354584,19250.0,0.576841013431549,73.00622467041016,385.0,50.0,9.100378359681935,33.35540430515963,19250,19250.0,1184.2068510055542
0.4299314022064209,0.061803801208734514,-71.22561614990235,-0.44912811279296877,-0.04373759412765502,19300.0,0.5522082448005676,73.12091735839844,386.0,50.0,2.4038301664625337,33.8100195187524,19300,19300.0,1185.6857025623322
0.4299314022064209,0.06775864999741316,-71.6057049560547,-0.4254825329780579,-0.04567577850818634,19350.0,0.5940032458305359,73.49008514404296,387.0,50.0,9.268674387720235,32.68638108498139,19350,19350.0,1187.2153916358948
0.4299314022064209,0.07278677579015494,-71.52044372558593,-0.45331843078136447,-0.047130548715591435,19400.0,0.5631970524787903,73.42518432617187,388.0,50.0,10.351562743928735,29.533429574072063,19400,19400.0,1188.908388376236
0.4299314022064209,0.07330098286271096,-71.6922299194336,-0.429405152797699,-0.04719636607170104,19450.0,0.5774871516227722,73.55678344726563,389.0,50.0,3.2297170696251065,33.71115380559606,19450,19450.0,1190.3915770053864
0.4299314022064209,0.06587976478040218,-72.02164733886718,-0.41641963332891463,-0.047427628755569454,19500.0,0.5502257144451141,73.8934555053711,390.0,50.0,-11.598825011534561,28.183166824594743,19500,19500.0,1192.1656856536865
0.4299314022064209,0.07148643745109438,-71.49221282958985,-0.4994338715076447,-0.04798788487911224,19550.0,0.5664381277561188,73.40031860351563,391.0,50.0,-4.817977707068353,16.441207695965854,19550,19550.0,1195.2068247795105
0.4299314022064209,0.0728499086201191,-71.77348815917969,-0.47562933683395386,-0.047100815057754514,19600.0,0.5605255901813507,73.66666381835938,392.0,50.0,10.23472598336991,32.22126553868146,19600,19600.0,1196.7585949897766
0.4299314022064209,0.058459391724318265,-72.30876434326171,-0.43356740891933443,-0.04750669801235199,19650.0,0.5757052576541901,74.22966217041015,393.0,50.0,0.45537382552138794,28.631245770302854,19650,19650.0,1198.504938840866
0.4299314022064209,0.06573794540017844,-72.21118408203125,-0.46011994063854217,-0.04525944995880127,19700.0,0.5434223866462707,74.1167349243164,394.0,50.0,-8.298011625399113,28.659186209166013,19700,19700.0,1200.2495801448822
0.4299314022064209,0.06184946721419692,-72.29401763916016,-0.455819149017334,-0.047605466723442076,19750.0,0.5696688842773437,74.21188018798829,395.0,50.0,1.3266226185225864,28.73883744274404,19750,19750.0,1201.9893860816956
0.4299314022064209,0.07151558928191662,-72.39191833496093,-0.4481556332111359,-0.04832398927211762,19800.0,0.5595369601249695,74.29490203857422,396.0,50.0,-2.1640972937390153,28.146438378061273,19800,19800.0,1203.7658097743988
0.4299314022064209,0.06966695290058851,-72.90832122802735,-0.41486292600631713,-0.046112818717956555,19850.0,0.57232306599617,74.81854614257813,397.0,50.0,-2.576709562520513,27.642242774094097,19850,19850.0,1205.5746355056763
0.4299314022064209,0.06934782592579722,-72.8223797607422,-0.44029344081878663,-0.0469133813381195,19900.0,0.5516417229175568,74.75354187011719,398.0,50.0,3.991368124368403,31.132077432349423,19900,19900.0,1207.1806960105896
0.4299314022064209,0.08105457954108715,-73.15452270507812,-0.4321873795986175,-0.04836761176586152,19950.0,0.5655248355865479,75.11017639160156,399.0,50.0,-3.5963272104843256,28.611917766822266,19950,19950.0,1208.9282195568085
0.4299314022064209,0.08820423815399409,-73.61566925048828,-0.40044792294502257,-0.04826017427444458,20000.0,0.5643206250667572,75.55566833496094,400.0,50.0,-8.609404514339822,29.28502245999819,20000,20000.0,1210.6355769634247
0.4299314022064209,0.06470194727182388,-73.46454559326172,-0.41677901446819304,-0.04633422160148621,20050.0,0.5559672749042511,75.41534881591797,401.0,50.0,-9.079964178004335,16.008858661794587,20050,20050.0,1213.7588477134705
0.4299314022064209,0.09260703787207604,-73.57838012695312,-0.4116599726676941,-0.04724143552780152,20100.0,0.5338267815113068,75.52631408691406,402.0,50.0,-11.287452318530622,22.587718707748706,20100,20100.0,1215.9724400043488
0.4299314022064209,0.06432627007365227,-73.60918151855469,-0.41510467767715453,-0.048637047648429875,20150.0,0.5618466222286225,75.55175476074218,403.0,50.0,-2.969964510199599,25.95534617862766,20150,20150.0,1217.8988254070282
0.4299314022064209,0.06920824762433768,-73.69972778320313,-0.40194290041923525,-0.046517792463302614,20200.0,0.5757564067840576,75.63529846191406,404.0,50.0,12.890734833399355,25.683049803380314,20200,20200.0,1219.8456346988678
0.4299314022064209,0.06946203581988812,-73.97799011230468,-0.405121191740036,-0.04737558269500732,20250.0,0.5668531823158264,75.95507110595703,405.0,50.0,9.402626441705715,22.80393473654176,20250,20250.0,1222.0382387638092
0.4299314022064209,0.060142066478729245,-73.79089782714844,-0.41680096328258515,-0.045099980354309094,20300.0,0.5605914402008056,75.74250457763672,406.0,50.0,-3.738897319664586,22.537441735478616,20300,20300.0,1224.2567691802979
0.4299314022064209,0.08012534320354461,-73.99809906005859,-0.44425316095352174,-0.047395783305168145,20350.0,0.5448763549327851,75.96441375732422,407.0,50.0,5.0872017329254895,22.32902656759274,20350,20350.0,1226.4960069656372
0.4299314022064209,0.07123941697180271,-73.95405212402343,-0.44859930872917175,-0.04766971564292907,20400.0,0.5511056756973267,75.97558685302734,408.0,50.0,-8.695179390363645,24.53345362472175,20400,20400.0,1228.5340404510498
0.4299314022064209,0.07447438884526492,-73.9005047607422,-0.4503438830375671,-0.04860928761959077,20450.0,0.5558516979217529,75.87081939697265,409.0,50.0,-5.681100441144636,21.19015150719059,20450,20450.0,1230.893627166748
0.4299314022064209,0.0650131020694971,-74.22296447753907,-0.43308081328868864,-0.046251923203468326,20500.0,0.5335741770267487,76.22309387207031,410.0,50.0,2.4312216622457683,20.451858721739324,20500,20500.0,1233.3383927345276
0.4299314022064209,0.06843426980078221,-74.10271728515625,-0.4442711281776428,-0.04201008081436157,20550.0,0.5348277378082276,76.11451629638673,411.0,50.0,1.5612752225188196,12.114958405146954,20550,20550.0,1237.4655220508575
0.4299314022064209,0.06870208777487279,-74.59787841796874,-0.4364538514614105,-0.046214209198951715,20600.0,0.5369039261341095,76.61793975830078,412.0,50.0,1.5103590472913062,19.150028640777986,20600,20600.0,1240.0764842033386
0.4299314022064209,0.08382455803453923,-74.56452056884766,-0.40789530515670774,-0.04667622435092927,20650.0,0.5416837894916534,76.55126373291016,413.0,50.0,11.479711613676102,17.22926222038778,20650,20650.0,1242.9785237312317
0.4299314022064209,0.06576550623402,-74.99040832519532,-0.3924253821372986,-0.04767763411998748,20700.0,0.5427162516117096,76.9904571533203,414.0,50.0,5.734350516065479,19.18024963430296,20700,20700.0,1245.5853719711304
0.4299314022064209,0.062085902839899065,-74.78185577392578,-0.4336212396621704,-0.04723878657817841,20750.0,0.5624651718139648,76.83452911376953,415.0,50.0,-6.667962519854132,19.992142904195006,20750,20750.0,1248.0863544940948
0.4299314022064209,0.07150532983243466,-75.19171020507812,-0.4100908261537552,-0.04273338234424591,20800.0,0.5380057191848755,77.21623718261719,416.0,50.0,17.024690064067673,21.2063570776421,20800,20800.0,1250.4441380500793
0.4299314022064209,0.07416999619454145,-75.57361541748047,-0.3760936236381531,-0.044056245803833,20850.0,0.5225400865077973,77.55504852294922,417.0,50.0,1.622088906263155,16.37404892760876,20850,20850.0,1253.4977505207062
0.4299314022064209,0.07443654160946607,-75.19525115966798,-0.3962343007326126,-0.04505160075426102,20900.0,0.5484930551052094,77.22850463867188,418.0,50.0,4.3702460974515756,14.533161063985903,20900,20900.0,1256.938158273697
0.4299314022064209,0.08899378769099713,-75.3245980834961,-0.4172739040851593,-0.04631731843948365,20950.0,0.5433273422718048,77.34309051513672,419.0,50.0,5.333895186951445,14.643193171753184,20950,20950.0,1260.352714061737
0.4299314022064209,0.06095867624506354,-75.52259033203126,-0.41191631197929385,-0.04650182247161865,21000.0,0.5262722361087799,77.56683197021485,420.0,50.0,-1.4267921958275949,8.406757853936334,21000,21000.0,1266.3003101348877
0.4299314022064209,0.06061003029346466,-75.57917236328124,-0.4160442805290222,-0.0472317875623703,21050.0,0.5436075735092163,77.60133239746094,421.0,50.0,-6.068396717782729,10.19397331453021,21050,21050.0,1271.2051689624786
0.4299314022064209,0.06574538711458444,-75.76607360839844,-0.3978246468305588,-0.047662887096405024,21100.0,0.5163463008403778,77.79290161132812,422.0,50.0,15.32096501234666,23.093038157350964,21100,21100.0,1273.3703236579895
0.4299314022064209,0.0669916301779449,-76.22773742675781,-0.3702766585350037,-0.04695516049861908,21150.0,0.5473769593238831,78.23060211181641,423.0,50.0,-3.552923482750039,21.466250529324284,21150,21150.0,1275.6995613574982
0.4299314022064209,0.053700868636369706,-76.19395233154297,-0.38893449008464814,-0.048144391655921936,21200.0,0.5265576350688934,78.2623226928711,424.0,50.0,-3.4427024029755184,22.162522899349597,21200,21200.0,1277.9556221961975
0.4299314022064209,0.07007208425551653,-75.71104400634766,-0.43877504765987396,-0.047124913573265086,21250.0,0.5210910034179688,77.78887329101562,425.0,50.0,4.094132180241834,23.201604899221945,21250,21250.0,1280.110645532608
